; generated by PrusaSlicer 2.7.1+win64 on 2024-01-02 at 12:43:41 UTC


;
;
; 

; external perimeters extrusion width = 0.65mm
; perimeters extrusion width = 0.65mm
; infill extrusion width = 0.65mm
; solid infill extrusion width = 0.65mm
; top infill extrusion width = 0.60mm
; first layer extrusion width = 0.65mm

; external perimeters extrusion width = 0.65mm
; perimeters extrusion width = 0.65mm
; infill extrusion width = 0.65mm
; solid infill extrusion width = 0.65mm
; top infill extrusion width = 0.60mm
; first layer extrusion width = 0.65mm

; external perimeters extrusion width = 0.65mm
; perimeters extrusion width = 0.65mm
; infill extrusion width = 0.65mm
; solid infill extrusion width = 0.65mm
; top infill extrusion width = 0.60mm
; first layer extrusion width = 0.65mm

M73 P0 R81
M73 Q0 S82
M201 X1000 Y1000 Z200 E5000 ; sets maximum accelerations, mm/sec^2
M203 X200 Y200 Z12 E120 ; sets maximum feedrates, mm / sec
M204 S1250 T1250 ; sets acceleration (S) and retract acceleration (R), mm/sec^2
M205 X8.00 Y8.00 Z0.40 E4.50 ; sets the jerk limits, mm/sec
M205 S0 T0 ; sets the minimum extruding and travel feed rate, mm/sec

; printing object Spacer_rev0 id:0 copy 0
; stop printing object Spacer_rev0 id:0 copy 0
; printing object Gearbox_Cover_rev0 id:1 copy 0
; stop printing object Gearbox_Cover_rev0 id:1 copy 0
; printing object Gearbox_rev0 id:2 copy 0
; stop printing object Gearbox_rev0 id:2 copy 0

;TYPE:Custom
M862.3 P "MK3S" ; printer model check
M862.1 P0.6 ; nozzle diameter check
M115 U3.13.2 ; tell printer latest fw version
G90 ; use absolute coordinates
M83 ; extruder relative mode
M104 S240 ; set extruder temp
M140 S85 ; set bed temp
M190 S85 ; wait for bed temp
M109 S240 ; wait for extruder temp
G28 W ; home all without mesh bed level
G80 X81.8887 Y40.2167 W86.2245 H129.557 ; mesh bed levelling

G1 Z0.2 F720
G1 Y-3 F1000 ; go outside print area
G92 E0
G1 X60 E9 F1000 ; intro line
G1 X100 E12.5 F1000 ; intro line

G92 E0
M221 S95
G21 ; set units to millimeters
G90 ; use absolute coordinates
M83 ; use relative distances for extrusion
M900 K0.04 ; Filament gcode LA 1.5
M900 K24 ; Filament gcode LA 1.0

M107
;LAYER_CHANGE
;Z:0.2
;HEIGHT:0.2
;BEFORE_LAYER_CHANGE
G92 E0.0
;0.2


G1 E-1 F2100
G1 Z.2 F720
;AFTER_LAYER_CHANGE
;0.2
G1 X88.609 Y44.567 F10800
G1 Z.2 F720
G1 E1 F1500
M204 S800
;TYPE:Skirt/Brim
;WIDTH:0.65
G1 F1200
G1 X89.427 Y43.292 E.07647
G1 X90.171 Y42.537 E.05351
G1 X90.662 Y42.158 E.03131
G1 X91.592 Y41.624 E.05413
G1 X93.031 Y41.161 E.07631
G1 X93.875 Y41.052 E.04296
G1 X103.676 Y40.524 E.49546
G1 X106.23 Y40.548 E.12893
G1 X108.962 Y40.888 E.13897
G1 X111.606 Y41.551 E.1376
G1 X114.15 Y42.528 E.13756
G1 X116.558 Y43.802 E.13752
G1 X158.613 Y71.825 E2.55101
G1 X159.602 Y72.692 E.06639
G1 X160.707 Y73.918 E.08331
G1 X161.811 Y75.57 E.1003
G1 X162.445 Y76.864 E.07274
G1 X167.464 Y88.614 E.64497
G1 X167.743 Y89.858 E.06436
G1 X167.795 Y91.479 E.08187
G1 X161.341 Y149.853 E2.96461
G1 X160.765 Y152.72 E.14761
G1 X159.911 Y155.283 E.13637
G1 X158.757 Y157.727 E.13643
G1 X157.319 Y160.015 E.13641
G1 X155.619 Y162.115 E.13639
G1 X153.68 Y163.997 E.1364
G1 X151.531 Y165.635 E.1364
G1 X149.478 Y166.861 E.12071
G1 X147.017 Y167.976 E.13638
G1 X144.44 Y168.79 E.13642
G1 X141.785 Y169.291 E.13639
G1 X139.088 Y169.471 E.13644
G1 X136.39 Y169.328 E.13638
G1 X133.425 Y168.79 E.15211
G1 X130.848 Y167.976 E.13642
G1 X128.664 Y167.004 E.12067
G1 X126.334 Y165.635 E.13641
G1 X123.95 Y163.792 E.15211
G1 X122.038 Y161.883 E.13639
G1 X120.366 Y159.76 E.13641
G1 X119.071 Y157.665 E.12433
G1 X84.933 Y98.9 E3.43061
G1 X83.817 Y96.518 E.13278
G1 X82.962 Y93.956 E.13634
G1 X82.378 Y91 E.1521
G1 X82.192 Y88.303 E.13646
G1 X82.323 Y85.653 E.13393
G1 X88.056 Y46.368 E2.00407
G1 X88.232 Y45.564 E.04155
G1 X88.578 Y44.651 E.04929
M204 S1000
; printing object Gearbox_Cover_rev0 id:1 copy 0
;WIPE_START
G1 F8640
G1 X88.609 Y44.567 E-.02067
G1 X89.427 Y43.292 E-.34978
G1 X90.171 Y42.537 E-.24475
G1 X90.662 Y42.158 E-.14322
G1 X91.569 Y41.637 E-.24158
;WIPE_END
G1 Z.4 F720
G1 X125.79 Y138.07 F10800
G1 Z.2 F720
G1 E1 F1500
M204 S800
;TYPE:Perimeter
;WIDTH:0.649999
G1 F1200
G1 X125.981 Y138.012 E.01008
G1 X126.239 Y137.81 E.01654
G1 X126.416 Y137.513 E.01745
G1 X126.47 Y137.205 E.01578
G1 X126.47 Y109.568 E1.39508
G1 X126.463 Y109.037 E.02681
M73 Q0 S81
G1 X126.413 Y108.349 E.03482
G1 X126.318 Y107.848 E.02574
G1 X126.476 Y108.014 E.01157
G1 X126.792 Y108.264 E.02034
G1 X127.248 Y108.519 E.02637
G1 X127.687 Y108.668 E.0234
G1 X128.145 Y108.739 E.0234
G1 X128.608 Y108.733 E.02337
G1 X129.063 Y108.648 E.02337
G1 X129.497 Y108.488 E.02335
G1 X129.867 Y108.276 E.02153
G1 X130.255 Y107.96 E.02526
G1 X130.497 Y107.681 E.01864
G1 X130.793 Y107.21 E.02808
G1 X130.96 Y106.778 E.02338
G1 X131.05 Y106.328 E.02317
G1 X131.05 Y105.703 E.03155
G1 X130.943 Y105.207 E.02561
G1 X130.705 Y104.663 E.02997
G1 X130.869 Y104.696 E.00844
G1 X131.209 Y104.641 E.01739
G1 X133.534 Y103.791 E.12496
G1 X135.749 Y103.273 E.11483
G1 X138.01 Y103.025 E.11482
G1 X140.285 Y103.051 E.11485
G1 X142.54 Y103.351 E.11483
G1 X144.742 Y103.919 E.11479
G1 X146.86 Y104.749 E.11483
G1 X148.863 Y105.828 E.11485
G1 X150.721 Y107.139 E.11479
G1 X152.408 Y108.665 E.11483
G1 X153.9 Y110.383 E.11486
G1 X155.173 Y112.268 E.11482
G1 X156.21 Y114.292 E.1148
G1 X156.997 Y116.427 E.11486
G1 X157.52 Y118.641 E.11484
G1 X157.774 Y120.901 E.1148
G1 X157.753 Y123.176 E.11484
G1 X157.436 Y125.651 E.12596
G1 X157.49 Y125.982 E.01693
G1 X157.777 Y126.756 E.04167
G1 X157.898 Y127.411 E.03362
G1 X157.902 Y127.744 E.01681
G1 X157.905 Y128.077 E.01681
G1 X157.797 Y128.734 E.03361
G1 X157.579 Y129.363 E.0336
G1 X157.255 Y129.945 E.03362
G1 X156.836 Y130.463 E.03363
G1 X156.335 Y130.901 E.03359
G1 X155.635 Y131.326 E.04134
G1 X155.364 Y131.552 E.01781
G1 X155.204 Y131.847 E.01694
G1 X154.921 Y133.272 E.07334
G1 X154.862 Y134.668 E.07053
G1 X154.953 Y135.59 E.04677
G1 X155.072 Y136.27 E.03485
G1 X155.336 Y137.285 E.05294
G1 X156.698 Y140.519 E.17714
G1 X157.329 Y142.686 E.11393
G1 X157.697 Y144.912 E.11389
G1 X157.796 Y147.165 E.11384
G1 X157.626 Y149.414 E.11385
G1 X157.189 Y151.627 E.11387
G1 X156.49 Y153.771 E.11383
G1 X155.541 Y155.817 E.11385
G1 X154.355 Y157.735 E.11383
G1 X152.947 Y159.498 E.11389
G1 X151.34 Y161.08 E.11383
G1 X149.556 Y162.459 E.11382
G1 X147.619 Y163.616 E.11389
G1 X145.558 Y164.532 E.11385
G1 X143.403 Y165.197 E.11384
G1 X141.184 Y165.599 E.11384
G1 X138.933 Y165.734 E.11383
G1 X136.681 Y165.599 E.11388
G1 X134.462 Y165.197 E.11384
G1 X132.307 Y164.532 E.11384
G1 X130.246 Y163.616 E.11385
G1 X128.31 Y162.459 E.11385
G1 X126.525 Y161.08 E.11386
G1 X124.918 Y159.498 E.11383
G1 X123.511 Y157.735 E.11386
G1 X122.324 Y155.817 E.11386
G1 X121.375 Y153.771 E.11385
G1 X120.677 Y151.627 E.11382
G1 X120.239 Y149.414 E.11388
G1 X120.069 Y147.165 E.11385
G1 X120.168 Y144.912 E.11384
G1 X120.536 Y142.686 E.11389
G1 X121.167 Y140.52 E.11388
G1 X122.188 Y138.116 E.13184
G1 X125.662 Y138.11 E.17536
G1 X125.704 Y138.097 E.00222
M204 S1000
G1 X125.622 Y137.502 F10800
M204 S800
;TYPE:External perimeter
G1 F1200
G1 X125.794 Y137.397 E.01017
G1 X125.863 Y137.205 E.0103
G1 X125.863 Y109.568 E1.39508
G1 X125.838 Y108.767 E.04045
G1 X125.764 Y108.186 E.02957
;WIDTH:0.689503
G1 X125.742 Y108.01 E.00954
;WIDTH:0.729006
G1 X125.719 Y107.834 E.01013
;WIDTH:0.76851
G1 X125.697 Y107.658 E.0107
;WIDTH:0.808013
G1 X125.674 Y107.482 E.01129
;WIDTH:0.816059
G1 X125.546 Y107.056 E.0286
;WIDTH:0.819297
G1 X125.405 Y106.565 E.03298
;WIDTH:0.819551
G1 X125.354 Y106.06 E.03278
;WIDTH:0.819896
G1 X125.389 Y105.554 E.03277
G1 X125.51 Y105.063 E.03267
G1 X125.714 Y104.591 E.03322
G1 X125.996 Y104.164 E.03306
G1 X126.348 Y103.79 E.03318
;WIDTH:0.819748
G1 X126.759 Y103.482 E.03318
;WIDTH:0.819611
G1 X127.217 Y103.249 E.03319
;WIDTH:0.831575
G1 X127.709 Y103.103 E.03365
G1 X128.264 Y103.034 E.03668
;WIDTH:0.819579
G1 X128.812 Y103.072 E.03547
;WIDTH:0.817453
G1 X129.303 Y103.195 E.0326
;WIDTH:0.817632
G1 X129.767 Y103.399 E.03265
;WIDTH:0.817826
G1 X130.19 Y103.678 E.03265
G1 X130.705 Y104.108 E.04323
;WIDTH:0.791579
G1 X130.804 Y104.095 E.00622
;WIDTH:0.744386
G1 X130.902 Y104.083 E.00576
;WIDTH:0.697193
G1 X131.001 Y104.071 E.00543
;WIDTH:0.649999
G1 X133.36 Y103.209 E.12678
G1 X135.646 Y102.674 E.11851
G1 X137.98 Y102.418 E.11852
G1 X140.328 Y102.444 E.11853
G1 X142.656 Y102.754 E.11855
G1 X144.929 Y103.341 E.1185
G1 X147.116 Y104.197 E.11855
G1 X149.183 Y105.311 E.11853
G1 X151.101 Y106.665 E.11851
G1 X152.843 Y108.24 E.11855
G1 X154.382 Y110.013 E.11851
G1 X155.697 Y111.959 E.11856
G1 X156.767 Y114.048 E.11848
G1 X157.579 Y116.252 E.11857
G1 X158.119 Y118.537 E.11852
G1 X158.381 Y120.87 E.11851
G1 X158.36 Y123.218 E.11853
G1 X158.045 Y125.632 E.12289
G1 X158.061 Y125.775 E.00726
G1 X158.365 Y126.594 E.0441
G1 X158.505 Y127.352 E.03891
G1 X158.509 Y127.738 E.01949
G1 X158.513 Y128.123 E.01944
G1 X158.388 Y128.884 E.03893
G1 X158.135 Y129.612 E.0389
G1 X157.76 Y130.286 E.03893
G1 X157.275 Y130.886 E.03894
G1 X156.694 Y131.393 E.03892
G1 X155.913 Y131.867 E.04612
G1 X155.788 Y132.015 E.00978
G1 X155.524 Y133.345 E.06845
G1 X155.466 Y134.608 E.06382
G1 X155.557 Y135.53 E.04677
G1 X155.661 Y136.124 E.03044
G1 X155.895 Y137.049 E.04816
G1 X157.271 Y140.316 E.17894
G1 X157.922 Y142.552 E.11756
G1 X158.302 Y144.849 E.11753
G1 X158.404 Y147.174 E.11748
G1 X158.229 Y149.496 E.11754
G1 X157.777 Y151.78 E.11753
G1 X157.056 Y153.994 E.11754
G1 X156.076 Y156.106 E.11753
G1 X154.852 Y158.085 E.11746
G1 X153.399 Y159.905 E.11756
G1 X151.74 Y161.538 E.11751
G1 X149.898 Y162.962 E.11753
G1 X147.899 Y164.155 E.11751
G1 X145.772 Y165.102 E.11753
G1 X143.547 Y165.788 E.11753
G1 X141.257 Y166.203 E.11748
G1 X138.933 Y166.342 E.11752
G1 X136.609 Y166.203 E.11752
G1 X134.318 Y165.788 E.11753
G1 X132.093 Y165.102 E.11753
G1 X129.966 Y164.155 E.11753
G1 X127.967 Y162.962 E.11751
G1 X126.125 Y161.538 E.11753
G1 X124.466 Y159.905 E.11751
G1 X123.013 Y158.085 E.11756
G1 X121.789 Y156.106 E.11746
G1 X120.809 Y153.994 E.11753
G1 X120.088 Y151.78 E.11754
G1 X119.637 Y149.496 E.11752
G1 X119.461 Y147.174 E.11755
G1 X119.564 Y144.849 E.11748
G1 X119.943 Y142.552 E.11752
G1 X120.594 Y140.316 E.11756
M73 P0 R80
G1 X121.786 Y137.508 E.15399
G1 X125.532 Y137.502 E.18909
M204 S1000
;WIPE_START
G1 F8640
G1 X125.622 Y137.502 E-.02078
G1 X125.794 Y137.397 E-.04653
G1 X125.863 Y137.205 E-.04711
G1 X125.863 Y133.37 E-.88558
;WIPE_END
G1 Z.4 F720
G1 X140.805 Y125.599 F10800
G1 Z.2 F720
G1 E1 F1500
M204 S800
;TYPE:Perimeter
G1 F1200
G1 X140.23 Y125.842 E.03151
G1 X139.658 Y125.979 E.02969
G1 X139.049 Y126.038 E.03089
G1 X138.678 Y126.041 E.01873
G1 X138.127 Y125.97 E.02804
G1 X137.446 Y125.775 E.03576
G1 X136.807 Y125.468 E.03579
G1 X136.229 Y125.057 E.0358
G1 X135.729 Y124.554 E.0358
G1 X135.321 Y123.974 E.0358
G1 X135.017 Y123.334 E.03577
G1 X134.826 Y122.651 E.0358
G1 X134.753 Y121.946 E.03578
G1 X134.8 Y121.238 E.03582
G1 X134.966 Y120.549 E.03578
G1 X135.246 Y119.897 E.03582
G1 X135.632 Y119.303 E.03576
G1 X136.113 Y118.782 E.03579
G1 X136.675 Y118.35 E.03578
G1 X137.117 Y118.113 E.02532
G1 X137.535 Y117.934 E.02295
G1 X138.025 Y117.785 E.02585
G1 X138.635 Y117.701 E.03108
G1 X139.376 Y117.712 E.03741
G1 X140.083 Y117.849 E.03635
G1 X140.745 Y118.102 E.03577
G1 X141.356 Y118.462 E.0358
G1 X141.897 Y118.921 E.03581
G1 X142.352 Y119.464 E.03576
G1 X142.709 Y120.076 E.03576
G1 X142.958 Y120.741 E.03584
G1 X143.09 Y121.433 E.03556
G1 X143.103 Y122.15 E.0362
G1 X142.997 Y122.847 E.03559
G1 X142.773 Y123.52 E.0358
G1 X142.439 Y124.145 E.03577
G1 X142.003 Y124.705 E.03583
G1 X141.48 Y125.183 E.03577
G1 X140.888 Y125.563 E.03551
M204 S1000
G1 X140.577 Y125.041 F10800
M204 S800
;TYPE:External perimeter
G1 F1200
G1 X140.565 Y125.049 E.00073
G1 X140.004 Y125.279 E.03061
G1 X139.412 Y125.411 E.03062
G1 X138.807 Y125.441 E.03058
G1 X138.205 Y125.368 E.03061
G1 X137.624 Y125.195 E.0306
G1 X137.08 Y124.926 E.03063
G1 X136.59 Y124.569 E.0306
G1 X136.167 Y124.134 E.03063
G1 X135.824 Y123.634 E.03061
G1 X135.571 Y123.084 E.03056
G1 X135.414 Y122.498 E.03062
G1 X135.358 Y121.894 E.03062
G1 X135.405 Y121.29 E.03058
G1 X135.553 Y120.702 E.03061
G1 X135.799 Y120.148 E.0306
G1 X136.135 Y119.643 E.03062
G1 X136.552 Y119.202 E.03064
G1 X137.036 Y118.838 E.03057
G1 X137.576 Y118.561 E.03064
G1 X138.154 Y118.379 E.03059
G1 X138.712 Y118.303 E.02843
G1 X139.357 Y118.319 E.03257
G1 X139.955 Y118.443 E.03083
G1 X140.519 Y118.665 E.0306
G1 X141.038 Y118.979 E.03062
G1 X141.496 Y119.376 E.0306
G1 X141.88 Y119.845 E.0306
G1 X142.179 Y120.373 E.03063
G1 X142.385 Y120.943 E.03059
G1 X142.491 Y121.535 E.03036
G1 X142.496 Y122.15 E.03105
G1 X142.398 Y122.744 E.03039
G1 X142.201 Y123.317 E.03059
G1 X141.909 Y123.849 E.03063
G1 X141.531 Y124.323 E.0306
G1 X141.079 Y124.727 E.0306
G1 X140.654 Y124.993 E.02531
M204 S1000
;WIPE_START
G1 F8640
G1 X140.577 Y125.041 E-.02095
G1 X140.565 Y125.049 E-.00333
G1 X140.004 Y125.279 E-.14
G1 X139.412 Y125.411 E-.14005
G1 X138.807 Y125.441 E-.13987
G1 X138.205 Y125.368 E-.14002
G1 X137.624 Y125.195 E-.13998
G1 X137.08 Y124.926 E-.14013
G1 X136.605 Y124.58 E-.13567
;WIPE_END
G1 Z.4 F720
G1 X126.191 Y105.526 F10800
G1 Z.2 F720
G1 E1 F1500
M204 S800
;WIDTH:0.816032
G1 F1200
G1 X126.267 Y105.249 E.01846
;WIDTH:0.816254
G1 X126.426 Y104.91 E.02408
;WIDTH:0.816374
G1 X126.641 Y104.603 E.0241
;WIDTH:0.816505
G1 X126.904 Y104.337 E.02406
;WIDTH:0.81664
G1 X127.208 Y104.118 E.0241
;WIDTH:0.818441
G1 X127.575 Y103.946 E.02614
;WIDTH:0.819565
G1 X128.146 Y103.82 E.03776
G1 X128.648 Y103.829 E.03242
;WIDTH:0.817453
G1 X129.016 Y103.914 E.02432
;WIDTH:0.817632
G1 X129.361 Y104.059 E.02411
;WIDTH:0.817826
G1 X129.677 Y104.26 E.02413
;WIDTH:0.836482
G1 X130.063 Y104.63 E.03528
G1 X130.113 Y104.752 E.0087
;WIDTH:0.789862
G1 X130.163 Y104.873 E.00813
;WIDTH:0.743241
G1 X130.213 Y104.995 E.00768
;WIDTH:0.69662
G1 X130.263 Y105.117 E.00717
;WIDTH:0.649999
G1 X130.4 Y105.505 E.02077
G1 X130.456 Y105.857 E.01799
G1 X130.452 Y106.226 E.01863
G1 X130.387 Y106.576 E.01797
G1 X130.263 Y106.914 E.01817
G1 X130.025 Y107.299 E.02285
G1 X129.62 Y107.71 E.02913
G1 X129.271 Y107.924 E.02067
G1 X128.935 Y108.055 E.0182
G1 X128.582 Y108.126 E.01818
G1 X128.222 Y108.137 E.01818
G1 X127.865 Y108.087 E.0182
G1 X127.521 Y107.977 E.01823
G1 X127.042 Y107.693 E.02811
;WIDTH:0.680044
G1 X126.843 Y107.52 E.01397
;WIDTH:0.710088
G1 X126.643 Y107.347 E.01467
;WIDTH:0.751747
G1 X126.558 Y107.254 E.00743
;WIDTH:0.793406
G1 X126.472 Y107.161 E.0079
;WIDTH:0.835064
G1 X126.386 Y107.067 E.00839
G1 X126.169 Y106.438 E.04383
;WIDTH:0.820443
G1 X126.13 Y105.983 E.02952
;WIDTH:0.816032
G1 X126.167 Y105.613 E.0239
M204 S1000
;WIPE_START
G1 F8640
G1 X126.191 Y105.526 E-.02084
G1 X126.267 Y105.249 E-.06632
;WIPE_END
G1 E-.91284 F2100
G1 Z.4 F720
G1 X137.192 Y144.77 F10800
G1 Z.2 F720
G1 E1 F1500
M204 S800
;TYPE:Perimeter
;WIDTH:0.649999
G1 F1200
G1 X137.567 Y144.504 E.02321
G1 X138.045 Y144.291 E.02642
G1 X138.629 Y144.162 E.03019
G1 X139.188 Y144.151 E.02822
G1 X139.695 Y144.245 E.02603
G1 X140.166 Y144.43 E.02554
G1 X140.618 Y144.72 E.02711
G1 X140.957 Y145.035 E.02336
G1 X141.237 Y145.404 E.02338
G1 X141.388 Y145.674 E.01562
G1 X141.57 Y146.155 E.02596
G1 X141.657 Y146.67 E.02636
G1 X141.645 Y147.181 E.0258
G1 X141.555 Y147.631 E.02317
G1 X141.388 Y148.063 E.02338
G1 X141.151 Y148.461 E.02338
G1 X140.85 Y148.813 E.02338
G1 X140.494 Y149.109 E.02337
G1 X140.092 Y149.341 E.02343
G1 X139.658 Y149.501 E.02335
G1 X139.203 Y149.586 E.02337
G1 X138.669 Y149.583 E.02696
G1 X138.282 Y149.52 E.01979
G1 X137.843 Y149.372 E.02339
G1 X137.376 Y149.104 E.02718
G1 X136.913 Y148.697 E.03112
G1 X136.587 Y148.267 E.02724
G1 X136.369 Y147.815 E.02533
G1 X136.233 Y147.293 E.02723
G1 X136.203 Y146.791 E.02539
G1 X136.278 Y146.257 E.02722
G1 X136.483 Y145.677 E.03105
G1 X136.76 Y145.214 E.02724
G1 X137.12 Y144.824 E.02679
M204 S1000
G1 X137.475 Y145.331 F10800
M204 S800
;TYPE:External perimeter
G1 F1200
G1 X137.548 Y145.256 E.00528
G1 X137.84 Y145.046 E.01816
G1 X138.188 Y144.881 E.01944
