; generated by PrusaSlicer 2.6.0-beta2+win64 on 2023-05-20 at 17:28:58 UTC


;
;
; 

; external perimeters extrusion width = 0.45mm
; perimeters extrusion width = 0.45mm
; infill extrusion width = 0.45mm
; solid infill extrusion width = 0.45mm
; top infill extrusion width = 0.40mm
; support material extrusion width = 0.35mm
; first layer extrusion width = 0.42mm

M73 P0 R54
M73 Q0 S54
M201 X1000 Y1000 Z200 E5000 ; sets maximum accelerations, mm/sec^2
M203 X200 Y200 Z12 E120 ; sets maximum feedrates, mm / sec
M204 S1250 T1250 ; sets acceleration (S) and retract acceleration (R), mm/sec^2
M205 X8.00 Y8.00 Z0.40 E4.50 ; sets the jerk limits, mm/sec
M205 S0 T0 ; sets the minimum extruding and travel feed rate, mm/sec
;TYPE:Custom
M862.3 P "MK3S" ; printer model check
M862.1 P0.4 ; nozzle diameter check
M115 U3.11.0 ; tell printer latest fw version
G90 ; use absolute coordinates
M83 ; extruder relative mode
M104 S240 ; set extruder temp
M140 S85 ; set bed temp
M190 S85 ; wait for bed temp
M109 S240 ; wait for extruder temp
G28 W ; home all without mesh bed level
G80 ; mesh bed leveling
G1 Z0.2 F720
G1 Y-3 F1000 ; go outside print area
G92 E0
G1 X60 E9 F1000 ; intro line
G1 X100 E12.5 F1000 ; intro line
G92 E0
M221 S95

; Don't change E values below. Excessive value can damage the printer.

M907 E538 ; set extruder motor current
G21 ; set units to millimeters
G90 ; use absolute coordinates
M83 ; use relative distances for extrusion
M900 K0.08 ; Filament gcode LA 1.5
M900 K45 ; Filament gcode LA 1.0
M107
;LAYER_CHANGE
;Z:0.2
;HEIGHT:0.2
;BEFORE_LAYER_CHANGE
G92 E0.0
;0.2


G1 E-1 F2100
G1 Z.2 F720
;AFTER_LAYER_CHANGE
;0.2
G1 Z.4
G1 X100.898 Y89.66 F10800
G1 Z.2 F720
G1 E1 F2100
M204 S800
;TYPE:Skirt/Brim
;WIDTH:0.42
G1 F1200
G1 X102.327 Y88.557 E.0566
G1 X103.602 Y87.888 E.04515
G1 X122.714 Y80.238 E.64547
G1 X123.455 Y80 E.0244
G1 X124.407 Y79.82 E.03038
G1 X125.855 Y79.733 E.04548
G1 X126.711 Y79.774 E.02687
G1 X128 Y80.025 E.04117
G1 X129.525 Y80.591 E.051
G1 X147.393 Y88.449 E.61202
G1 X148.526 Y89.211 E.04281
G1 X149.531 Y90.158 E.0433
G1 X150.623 Y91.614 E.05706
G1 X151.308 Y93.033 E.0494
G1 X151.687 Y94.361 E.0433
G1 X151.882 Y96.172 E.05711
G1 X151.744 Y97.743 E.04945
G1 X151.326 Y99.282 E.05
G1 X145.456 Y114.07 E.49886
G1 X144.334 Y116.315 E.07869
G1 X143.092 Y118.243 E.07191
G1 X132.912 Y131.128 E.51488
G1 X131.84 Y132.182 E.04714
G1 X130.349 Y133.198 E.05657
G1 X128.883 Y133.824 E.04998
G1 X127.33 Y134.178 E.04994
G1 X125.739 Y134.251 E.04994
G1 X124.16 Y134.04 E.04995
G1 X122.644 Y133.551 E.04994
G1 X121.239 Y132.799 E.04997
G1 X120.149 Y131.949 E.04334
G1 X108.686 Y120.419 E.50978
M73 P0 R53
G1 X106.981 Y118.349 E.08409
G1 X105.666 Y116.315 E.07594
G1 X104.579 Y114.151 E.07593
G1 X98.942 Y99.786 E.48384
G1 X98.408 Y98.24 E.05128
G1 X98.176 Y96.878 E.04332
G1 X98.169 Y95.513 E.0428
G1 X98.535 Y93.514 E.06372
G1 X99.024 Y92.241 E.04276
G1 X99.723 Y91.05 E.0433
G1 X100.86 Y89.706 E.0552
M204 S1000
;WIPE_START
G1 F8640
G1 X102.327 Y88.557 E-.43027
G1 X103.602 Y87.888 E-.33247
G1 X104.556 Y87.506 E-.23726
;WIPE_END
G1 Z.4 F720
G1 X106.962 Y99.916 F10800
G1 Z.2 F720
G1 E1 F2100
M204 S800
G1 F1200
G1 X107.545 Y99.568 E.02129
G1 X108.094 Y99.41 E.01791
G1 X108.747 Y99.382 E.02049
G1 X109.14 Y99.456 E.01254
G1 X110.139 Y99.802 E.03315
G1 X111.59 Y100.624 E.05229
G1 X112.311 Y101.282 E.03061
G1 X112.696 Y101.926 E.02353
G1 X112.86 Y102.655 E.02343
G1 X112.812 Y103.378 E.02272
G1 X112.371 Y104.376 E.03421
G1 X111.951 Y104.836 E.01953
G1 X111.59 Y105.076 E.01359
G1 X111.592 Y106.144 E.03349
G1 X111.779 Y107.666 E.04808
G1 X112.14 Y109.159 E.04816
G1 X112.668 Y110.602 E.04818
G1 X113.356 Y111.973 E.0481
G1 X114.199 Y113.254 E.04808
G1 X115.184 Y114.433 E.04817
G1 X116.297 Y115.492 E.04817
G1 X117.524 Y116.417 E.04818
G1 X118.453 Y116.964 E.0338
G1 X118.979 Y116.736 E.01798
G1 X119.552 Y116.641 E.01821
G1 X120.671 Y116.831 E.03559
G1 X121.393 Y117.266 E.02643
G1 X121.966 Y117.959 E.02819
G1 X122.176 Y118.511 E.01852
G1 X122.297 Y119.414 E.02857
G1 X122.296 Y120.651 E.03879
G1 X122.092 Y121.879 E.03903
G1 X121.861 Y122.448 E.01925
G1 X121.497 Y122.945 E.01932
G1 X121.091 Y123.286 E.01662
G1 X120.605 Y123.553 E.01739
G1 X119.942 Y123.736 E.02157
G1 X119.488 Y123.751 E.01424
G1 X119.049 Y123.689 E.0139
G1 X117.538 Y123.105 E.05079
G1 X115.643 Y122.191 E.06597
G1 X113.844 Y121.063 E.06658
G1 X112.192 Y119.757 E.06603
G1 X110.692 Y118.279 E.06603
G1 X109.358 Y116.642 E.06621
G1 X108.224 Y114.893 E.06536
G1 X107.292 Y113.053 E.06467
G1 X106.543 Y111.065 E.06661
G1 X106.02 Y109.024 E.06606
G1 X105.722 Y106.945 E.06585
G1 X105.651 Y104.854 E.0656
G1 X105.805 Y102.796 E.06471
G1 X106.048 Y101.244 E.04925
G1 X106.22 Y100.788 E.01528
G1 X106.536 Y100.306 E.01807
G1 X106.911 Y99.947 E.01628
M204 S1000
G1 X107.112 Y100.266 F10800
M204 S800
G1 F1200
G1 X107.677 Y99.922 E.02074
G1 X108.137 Y99.785 E.01505
G1 X108.701 Y99.757 E.01771
G1 X109.03 Y99.818 E.01049
G1 X109.999 Y100.153 E.03215
G1 X111.385 Y100.941 E.04999
G1 X112.034 Y101.539 E.02767
G1 X112.355 Y102.089 E.01997
G1 X112.486 Y102.708 E.01984
G1 X112.453 Y103.26 E.01734
G1 X112.071 Y104.145 E.03022
G1 X111.69 Y104.562 E.01771
G1 X111.213 Y104.868 E.01777
G1 X111.215 Y106.168 E.04076
G1 X111.408 Y107.733 E.04944
G1 X111.778 Y109.269 E.04954
G1 X112.321 Y110.752 E.04952
G1 X113.029 Y112.161 E.04944
G1 X113.896 Y113.479 E.04946
G1 X114.909 Y114.691 E.04953
G1 X116.053 Y115.78 E.04952
G1 X117.314 Y116.731 E.04952
G1 X118.431 Y117.388 E.04063
G1 X119.066 Y117.103 E.02182
G1 X119.581 Y117.018 E.01637
G1 X120.569 Y117.196 E.03148
G1 X121.126 Y117.533 E.02041
G1 X121.627 Y118.126 E.02434
G1 X121.805 Y118.585 E.01544
G1 X121.92 Y119.427 E.02665
G1 X121.919 Y120.635 E.03788
G1 X121.724 Y121.795 E.03688
G1 X121.522 Y122.281 E.0165
G1 X121.209 Y122.7 E.0164
G1 X120.866 Y122.983 E.01394
G1 X120.445 Y123.211 E.01501
G1 X119.905 Y123.36 E.01756
G1 X119.52 Y123.375 E.01208
G1 X119.163 Y123.329 E.01129
G1 X117.695 Y122.762 E.04934
G1 X115.816 Y121.856 E.06541
G1 X114.069 Y120.761 E.06465
G1 X112.449 Y119.481 E.06474
G1 X110.977 Y118.032 E.06476
G1 X109.669 Y116.428 E.06489
G1 X108.546 Y114.697 E.0647
G1 X107.633 Y112.892 E.06342
G1 X106.906 Y110.961 E.06469
G1 X106.391 Y108.96 E.06478
G1 X106.098 Y106.922 E.06456
G1 X106.028 Y104.851 E.06497
G1 X106.179 Y102.846 E.06304
G1 X106.408 Y101.355 E.0473
G1 X106.549 Y100.974 E.01274
G1 X106.817 Y100.558 E.01552
G1 X107.069 Y100.308 E.01113
M204 S1000
G1 X107.331 Y100.573 F10800
M204 S800
G1 F1200
G1 X107.813 Y100.274 E.01778
G1 X108.184 Y100.16 E.01217
G1 X108.658 Y100.132 E.01489
G1 X108.922 Y100.179 E.00841
G1 X109.859 Y100.504 E.0311
G1 X111.178 Y101.257 E.04762
G1 X111.757 Y101.796 E.0248
G1 X111.992 Y102.197 E.01457
G1 X112.112 Y102.763 E.01814
G1 X112.092 Y103.146 E.01203
G1 X111.769 Y103.916 E.02618
G1 X111.43 Y104.288 E.01578
G1 X111.046 Y104.526 E.01417
G1 X110.835 Y104.606 E.00708
G1 X110.838 Y106.191 E.0497
G1 X111.036 Y107.801 E.05086
G1 X111.417 Y109.378 E.05087
G1 X111.974 Y110.902 E.05088
G1 X112.702 Y112.35 E.05082
G1 X113.593 Y113.705 E.05085
G1 X114.633 Y114.95 E.05086
G1 X115.809 Y116.068 E.05088
G1 X117.104 Y117.045 E.05086
G1 X118.484 Y117.857 E.0502
G1 X118.724 Y117.669 E.00956
G1 X119.153 Y117.471 E.01481
G1 X119.608 Y117.396 E.01446
G1 X120.464 Y117.559 E.02732
G1 X120.86 Y117.802 E.01457
G1 X121.289 Y118.297 E.02054
G1 X121.435 Y118.661 E.0123
G1 X121.543 Y119.44 E.02466
G1 X121.544 Y120.589 E.03603
G1 X121.356 Y121.71 E.03564
G1 X121.186 Y122.11 E.01363
G1 X120.924 Y122.453 E.01353
G1 X120.671 Y122.66 E.01025
G1 X120.284 Y122.87 E.01381
G1 X119.869 Y122.984 E.01349
G1 X119.522 Y122.998 E.01089
G1 X119.237 Y122.958 E.00902
G1 X117.852 Y122.419 E.0466
G1 X116.007 Y121.531 E.0642
G1 X114.278 Y120.447 E.06399
G1 X112.691 Y119.191 E.06346
G1 X111.249 Y117.771 E.06345
G1 X109.968 Y116.198 E.06361
G1 X108.868 Y114.5 E.06343
G1 X107.975 Y112.731 E.06213
G1 X107.268 Y110.857 E.0628
G1 X106.763 Y108.895 E.06352
G1 X106.475 Y106.899 E.06323
G1 X106.405 Y104.849 E.06431
G1 X106.554 Y102.881 E.06188
G1 X106.77 Y101.464 E.04494
G1 X106.88 Y101.156 E.01025
G1 X107.101 Y100.807 E.01295
G1 X107.289 Y100.616 E.0084
M204 S1000
G1 X107.554 Y100.883 F10800
M204 S800
G1 F1200
G1 X107.988 Y100.609 E.01609
G1 X108.232 Y100.534 E.008
G1 X108.619 Y100.508 E.01216
G1 X108.814 Y100.541 E.0062
G1 X109.719 Y100.854 E.03002
G1 X110.97 Y101.573 E.04524
G1 X111.476 Y102.049 E.02178
G1 X111.648 Y102.353 E.01095
G1 X111.737 Y102.808 E.01454
G1 X111.719 Y103.087 E.00877
G1 X111.437 Y103.735 E.02216
G1 X111.211 Y103.98 E.01045
G1 X110.87 Y104.191 E.01257
G1 X110.458 Y104.325 E.01358
G1 X110.461 Y106.215 E.05926
G1 X110.664 Y107.868 E.05222
G1 X111.055 Y109.487 E.05222
G1 X111.628 Y111.052 E.05226
G1 X112.375 Y112.539 E.05218
G1 X113.29 Y113.93 E.0522
G1 X114.358 Y115.208 E.05222
G1 X115.565 Y116.356 E.05223
G1 X116.894 Y117.359 E.05221
G1 X118.327 Y118.202 E.05213
G1 X118.55 Y118.3 E.00764
G1 X118.908 Y118 E.01464
G1 X119.286 Y117.825 E.01306
G1 X119.629 Y117.773 E.01088
G1 X120.353 Y117.921 E.02317
G1 X120.598 Y118.073 E.00904
G1 X120.955 Y118.474 E.01683
G1 X121.065 Y118.739 E.009
G1 X121.166 Y119.454 E.02264
G1 X121.167 Y120.573 E.03509
G1 X120.988 Y121.625 E.03346
G1 X120.871 Y121.9 E.00937
G1 X120.638 Y122.206 E.01206
G1 X120.477 Y122.336 E.00649
G1 X120.123 Y122.528 E.01263
G1 X119.832 Y122.608 E.00946
G1 X119.526 Y122.62 E.0096
G1 X119.314 Y122.589 E.00672
G1 X117.997 Y122.071 E.04437
G1 X116.198 Y121.205 E.0626
G1 X114.504 Y120.145 E.06266
G1 X112.948 Y118.916 E.06217
G1 X111.535 Y117.524 E.06219
G1 X110.278 Y115.984 E.06233
G1 X109.2 Y114.321 E.06214
G1 X108.316 Y112.57 E.0615
G1 X107.625 Y110.734 E.06151
G1 X107.131 Y108.812 E.06222
G1 X106.849 Y106.855 E.06199
G1 X106.782 Y104.847 E.06299
G1 X106.928 Y102.931 E.06025
G1 X107.139 Y101.54 E.04411
G1 X107.225 Y101.308 E.00776
G1 X107.405 Y101.031 E.01036
G1 X107.511 Y100.925 E.0047
M204 S1000
G1 X107.772 Y101.196 F10800
M204 S800
G1 F1200
G1 X107.823 Y101.146 E.00224
G1 X108.16 Y100.945 E.0123
G1 X108.283 Y100.908 E.00403
G1 X108.585 Y100.884 E.0095
G1 X108.707 Y100.903 E.00387
G1 X109.578 Y101.204 E.02889
G1 X110.762 Y101.888 E.04287
G1 X111.196 Y102.303 E.01883
G1 X111.284 Y102.456 E.00553
G1 X111.361 Y102.852 E.01265
G1 X111.347 Y103.019 E.00525
G1 X111.108 Y103.55 E.01826
G1 X110.992 Y103.672 E.00528
G1 X110.694 Y103.856 E.01098
G1 X110.531 Y103.906 E.00535
G1 X110.14 Y103.904 E.01226
G1 X110.07 Y104.533 E.01984
G1 X110.084 Y106.24 E.05352
G1 X110.293 Y107.936 E.05358
G1 X110.694 Y109.597 E.05358
G1 X111.281 Y111.202 E.05358
G1 X112.048 Y112.728 E.05355
G1 X112.986 Y114.155 E.05354
G1 X114.082 Y115.466 E.05358
G1 X115.32 Y116.644 E.05358
G1 X116.685 Y117.673 E.0536
G1 X118.156 Y118.539 E.05352
G1 X118.741 Y118.795 E.02002
G1 X118.953 Y118.447 E.01278
G1 X119.089 Y118.331 E.0056
G1 X119.421 Y118.178 E.01146
G1 X119.594 Y118.15 E.00549
G1 X120.193 Y118.263 E.01911
G1 X120.342 Y118.352 E.00544
G1 X120.625 Y118.658 E.01307
G1 X120.696 Y118.82 E.00555
G1 X120.789 Y119.468 E.02053
G1 X120.79 Y120.557 E.03414
G1 X120.62 Y121.539 E.03125
G1 X120.555 Y121.694 E.00527
G1 X120.378 Y121.932 E.0093
G1 X120.279 Y122.014 E.00403
G1 X119.962 Y122.186 E.01131
G1 X119.796 Y122.232 E.0054
G1 X119.531 Y122.242 E.00831
G1 X119.402 Y122.221 E.0041
G1 X118.994 Y122.045 E.01393
G1 X118.137 Y121.721 E.02873
G1 X116.372 Y120.87 E.06144
G1 X114.73 Y119.842 E.06074
G1 X113.205 Y118.639 E.0609
G1 X111.821 Y117.278 E.06086
G1 X110.589 Y115.77 E.06106
G1 X109.531 Y114.142 E.06088
G1 X108.665 Y112.428 E.06021
G1 X107.981 Y110.611 E.06087
G1 X107.499 Y108.728 E.06094
G1 X107.224 Y106.812 E.06069
G1 X107.16 Y104.845 E.06171
G1 X107.302 Y102.981 E.05861
G1 X107.509 Y101.619 E.04319
G1 X107.568 Y101.466 E.00514
G1 X107.728 Y101.237 E.00876
M204 S1000
G1 X108.009 Y101.485 F10800
M204 S800
G1 F1200
G1 X108.303 Y101.294 E.01099
G1 X108.56 Y101.26 E.00813
G1 X109.406 Y101.54 E.02794
G1 X110.552 Y102.202 E.0415
G1 X110.908 Y102.549 E.01559
G1 X110.935 Y102.599 E.00178
G1 X110.985 Y102.884 E.00907
G1 X110.977 Y102.941 E.0018
G1 X110.804 Y103.326 E.01323
G1 X110.767 Y103.368 E.00176
G1 X110.523 Y103.519 E.009
G1 X110.468 Y103.533 E.00178
G1 X109.804 Y103.507 E.02084
G1 X109.692 Y104.514 E.03177
G1 X109.707 Y106.265 E.0549
G1 X109.921 Y108.003 E.05491
G1 X110.332 Y109.706 E.05493
G1 X110.934 Y111.351 E.05492
G1 X111.721 Y112.917 E.05495
G1 X112.683 Y114.38 E.0549
G1 X113.807 Y115.725 E.05496
G1 X115.076 Y116.932 E.05491
M73 P1 R53
M73 Q1 S54
G1 X116.475 Y117.987 E.05494
G1 X117.984 Y118.875 E.0549
G1 X118.907 Y119.279 E.03159
G1 X119.234 Y118.699 E.02088
G1 X119.277 Y118.66 E.00182
G1 X119.549 Y118.534 E.0094
G1 X119.608 Y118.527 E.00186
G1 X120.042 Y118.609 E.01385
G1 X120.094 Y118.637 E.00185
G1 X120.302 Y118.854 E.00942
G1 X120.328 Y118.907 E.00185
G1 X120.412 Y119.482 E.01822
G1 X120.413 Y120.54 E.03317
G1 X120.253 Y121.453 E.02906
G1 X120.079 Y121.694 E.00932
G1 X119.801 Y121.845 E.00992
G1 X119.541 Y121.865 E.00818
G1 X118.293 Y121.377 E.04202
G1 X116.562 Y120.545 E.06022
G1 X114.955 Y119.54 E.05943
G1 X113.462 Y118.363 E.05961
G1 X112.106 Y117.031 E.0596
G1 X110.899 Y115.555 E.05978
G1 X109.863 Y113.962 E.05958
G1 X109.014 Y112.285 E.05894
G1 X108.344 Y110.507 E.05957
G1 X107.87 Y108.664 E.05967
G1 X107.601 Y106.789 E.05939
G1 X107.536 Y104.863 E.06042
G1 X107.677 Y103.016 E.05808
G1 X107.879 Y101.696 E.04187
G1 X107.975 Y101.535 E.00588
M204 S1000
G1 X108.288 Y101.745 F10800
M204 S800
G1 F1200
G1 X108.444 Y101.65 E.00573
G1 X108.531 Y101.642 E.00274
G1 X109.238 Y101.879 E.02338
G1 X110.341 Y102.516 E.03994
G1 X110.578 Y102.752 E.01049
G1 X110.598 Y102.865 E.0036
G1 X110.496 Y103.093 E.00783
G1 X110.397 Y103.153 E.00363
G1 X110.031 Y103.139 E.01148
G1 X109.579 Y103.035 E.01454
G1 X109.504 Y103.217 E.00617
G1 X109.411 Y103.621 E.013
G1 X109.315 Y104.495 E.02757
G1 X109.33 Y106.289 E.05625
G1 X109.549 Y108.071 E.05629
G1 X109.97 Y109.816 E.05628
G1 X110.588 Y111.501 E.05627
G1 X111.394 Y113.106 E.05631
G1 X112.38 Y114.606 E.05628
G1 X113.531 Y115.983 E.05627
G1 X114.832 Y117.22 E.05629
G1 X116.265 Y118.301 E.05628
G1 X117.811 Y119.211 E.05625
G1 X118.616 Y119.565 E.02757
G1 X119.012 Y119.687 E.01299
G1 X119.208 Y119.712 E.0062
G1 X119.352 Y119.252 E.01511
G1 X119.516 Y118.965 E.01036
G1 X119.626 Y118.914 E.0038
G1 X119.884 Y118.963 E.00823
G1 X119.968 Y119.05 E.00379
G1 X120.037 Y119.523 E.01499
G1 X120.039 Y120.492 E.03038
G1 X119.892 Y121.324 E.02649
G1 X119.842 Y121.393 E.00267
G1 X119.679 Y121.482 E.00582
G1 X119.591 Y121.485 E.00276
G1 X119.282 Y121.348 E.0106
G1 X118.434 Y121.027 E.02843
G1 X116.753 Y120.219 E.05848
G1 X115.18 Y119.237 E.05814
G1 X113.719 Y118.087 E.0583
G1 X112.391 Y116.784 E.05833
G1 X111.21 Y115.341 E.05847
G1 X110.195 Y113.783 E.0583
G1 X109.364 Y112.142 E.05767
G1 X108.707 Y110.403 E.05829
G1 X108.242 Y108.6 E.05838
G1 X107.977 Y106.766 E.0581
G1 X107.913 Y104.881 E.05914
G1 X108.053 Y103.052 E.05751
G1 X108.255 Y101.795 E.03992
M204 S1000
;WIPE_START
G1 F8640
G1 X108.444 Y101.65 E-.055
G1 X108.531 Y101.642 E-.02017
G1 X109.238 Y101.879 E-.17218
G1 X110.341 Y102.516 E-.29411
G1 X110.578 Y102.752 E-.07723
G1 X110.598 Y102.865 E-.0265
G1 X110.496 Y103.093 E-.05767
G1 X110.397 Y103.153 E-.02673
G1 X110.031 Y103.139 E-.08457
G1 X109.579 Y103.035 E-.1071
G1 X109.504 Y103.217 E-.04545
G1 X109.472 Y103.358 E-.03329
;WIPE_END
G1 Z.4 F720
G1 X112.217 Y94.752 F10800
G1 Z.2 F720
G1 E1 F2100
M204 S800
G1 F1200
G1 X112.119 Y94.697 E.00352
G1 X111.764 Y94.403 E.01445
G1 X111.358 Y93.838 E.02181
G1 X111.167 Y93.392 E.01521
G1 X111.058 Y92.581 E.02566
G1 X111.171 Y91.833 E.02372
G1 X111.395 Y91.33 E.01726
G1 X111.75 Y90.863 E.01839
G1 X113.168 Y89.686 E.05778
G1 X114.917 Y88.5 E.06626
G1 X116.675 Y87.561 E.06249
G1 X117.361 Y87.248 E.02364
G1 X117.954 Y87.124 E.019
G1 X118.57 Y87.15 E.01933
G1 X119.306 Y87.4 E.02437
G1 X119.879 Y87.789 E.02171
G1 X120.283 Y88.25 E.01922
G1 X120.566 Y88.797 E.01931
G1 X120.697 Y89.372 E.01849
G1 X120.692 Y91.282 E.05989
G1 X120.538 Y91.927 E.02079
