; generated by PrusaSlicer 2.6.0-beta2+win64 on 2023-05-24 at 16:44:28 UTC


;
;
; 

; external perimeters extrusion width = 0.45mm
; perimeters extrusion width = 0.45mm
; infill extrusion width = 0.45mm
; solid infill extrusion width = 0.45mm
; top infill extrusion width = 0.40mm
; support material extrusion width = 0.35mm
; first layer extrusion width = 0.42mm

M73 P0 R24
M73 Q0 S25
M201 X1000 Y1000 Z200 E5000 ; sets maximum accelerations, mm/sec^2
M203 X200 Y200 Z12 E120 ; sets maximum feedrates, mm / sec
M204 S1250 T1250 ; sets acceleration (S) and retract acceleration (R), mm/sec^2
M205 X8.00 Y8.00 Z0.40 E4.50 ; sets the jerk limits, mm/sec
M205 S0 T0 ; sets the minimum extruding and travel feed rate, mm/sec
;TYPE:Custom
M862.3 P "MK3S" ; printer model check
M862.1 P0.4 ; nozzle diameter check
M115 U3.11.0 ; tell printer latest fw version
G90 ; use absolute coordinates
M83 ; extruder relative mode
M104 S240 ; set extruder temp
M140 S85 ; set bed temp
M190 S85 ; wait for bed temp
M109 S240 ; wait for extruder temp
G28 W ; home all without mesh bed level
G80 ; mesh bed leveling
G1 Z0.2 F720
G1 Y-3 F1000 ; go outside print area
G92 E0
G1 X60 E9 F1000 ; intro line
G1 X100 E12.5 F1000 ; intro line
G92 E0
M221 S95

; Don't change E values below. Excessive value can damage the printer.
M907 E430 ; set extruder motor current
G21 ; set units to millimeters
G90 ; use absolute coordinates
M83 ; use relative distances for extrusion
M900 K0.08 ; Filament gcode LA 1.5
M900 K45 ; Filament gcode LA 1.0
M107
;LAYER_CHANGE
;Z:0.2
;HEIGHT:0.2
;BEFORE_LAYER_CHANGE
G92 E0.0
;0.2


G1 E-1 F2100
M73 Q0 S24
G1 Z.2 F720
;AFTER_LAYER_CHANGE
;0.2
G1 Z.4
G1 X108.465 Y89.952 F10800
G1 Z.2 F720
G1 E1 F2100
M204 S800
;TYPE:Skirt/Brim
;WIDTH:0.42
G1 F1200
G1 X110.129 Y88.307 E.07336
G1 X111.952 Y86.846 E.07325
G1 X113.924 Y85.58 E.07348
G1 X116.01 Y84.53 E.07322
G1 X117.968 Y83.778 E.06576
G1 X120.225 Y83.159 E.07338
G1 X122.535 Y82.78 E.0734
G1 X124.871 Y82.644 E.07337
G1 X126.964 Y82.74 E.06569
G1 X129.764 Y83.157 E.08876
G1 X132.016 Y83.773 E.0732
G1 X134.201 Y84.625 E.07353
G1 X136.281 Y85.698 E.07338
G1 X138.237 Y86.983 E.07338
G1 X140.048 Y88.466 E.07339
G1 X141.694 Y90.129 E.07336
G1 X143.157 Y91.955 E.07336
G1 X144.421 Y93.925 E.07339
G1 X145.472 Y96.015 E.07335
G1 X146.299 Y98.205 E.0734
G1 X146.841 Y100.225 E.06558
G1 X147.22 Y102.534 E.07337
G1 X147.356 Y104.87 E.07337
G1 X147.247 Y107.208 E.07339
G1 X146.895 Y109.521 E.07336
G1 X146.302 Y111.785 E.07338
G1 X145.476 Y113.974 E.07336
G1 X144.426 Y116.066 E.07339
G1 X143.017 Y118.237 E.08115
G1 X141.534 Y120.048 E.07339
G1 X139.871 Y121.694 E.07336
G1 X138.045 Y123.156 E.07334
G1 X136.075 Y124.421 E.07341
G1 X133.985 Y125.472 E.07335
G1 X131.8 Y126.298 E.07324
G1 X129.775 Y126.841 E.06574
G1 X127.466 Y127.22 E.07337
G1 X125.13 Y127.356 E.07337
G1 X122.792 Y127.247 E.07339
G1 X120.479 Y126.895 E.07336
G1 X118.215 Y126.302 E.07338
G1 X116.026 Y125.476 E.07336
G1 X113.934 Y124.426 E.07339
G1 X111.964 Y123.163 E.07337
G1 X110.265 Y121.804 E.06822
G1 X108.307 Y119.871 E.08627
G1 X106.843 Y118.045 E.07338
G1 X105.579 Y116.075 E.07339
G1 X104.629 Y114.211 E.0656
G1 X103.778 Y112.032 E.07335
G1 X103.159 Y109.774 E.07341
G1 X102.78 Y107.466 E.07333
G1 X102.644 Y105.129 E.0734
G1 X102.753 Y102.792 E.07335
G1 X103.105 Y100.478 E.07339
G1 X103.698 Y98.214 E.07338
G1 X104.728 Y95.595 E.08824
G1 X105.698 Y93.719 E.06622
G1 X106.983 Y91.763 E.07338
G1 X108.427 Y89.999 E.07148
M204 S1000
;WIPE_START
G1 F8640
G1 X110.129 Y88.307 E-.55415
G1 X111.636 Y87.099 E-.44585
;WIPE_END
G1 Z.4 F720
G1 X111.647 Y92.723 F10800
G1 Z.2 F720
G1 E1 F2100
M204 S800
G1 F1200
G1 X111.802 Y92.54 E.00752
G1 X113.222 Y91.19 E.06143
G1 X114.736 Y90.032 E.05976
G1 X115.408 Y89.583 E.02534
M73 Q1 S24
G1 X116.2 Y88.92 E.03239
G1 X118.27 Y87.93 E.07194
G1 X120.144 Y87.305 E.06194
M73 P1 R24
G1 X122.06 Y86.888 E.06148
G1 X124.015 Y86.677 E.06165
G1 X125.981 Y86.676 E.06164
G1 X127.978 Y86.894 E.06299
G1 X129.945 Y87.33 E.06317
G1 X131.827 Y87.969 E.06232
G1 X133.633 Y88.814 E.06252
G1 X134.583 Y89.578 E.03822
G1 X135.269 Y90.035 E.02584
G1 X136.758 Y91.173 E.05876
G1 X138.196 Y92.537 E.06214
G1 X139.427 Y93.987 E.05964
G1 X140.508 Y95.57 E.0601
G1 X141.113 Y96.667 E.03928
G1 X141.381 Y97.065 E.01504
G1 X141.904 Y97.952 E.03229
G1 X142.39 Y99.157 E.04074
G1 X142.915 Y101.051 E.06162
G1 X143.234 Y102.985 E.06146
G1 X143.345 Y104.946 E.06158
G1 X143.246 Y106.907 E.06156
G1 X142.933 Y108.868 E.06226
G1 X142.41 Y110.784 E.06227
G1 X141.683 Y112.632 E.06227
G1 X140.761 Y114.392 E.0623
G1 X139.559 Y116.165 E.06716
G1 X138.281 Y117.659 E.06164
G1 X136.84 Y119.017 E.06208
G1 X135.308 Y120.18 E.06031
G1 X133.661 Y121.177 E.06037
G1 X131.575 Y122.123 E.07182
G1 X130.928 Y122.281 E.02088
G1 X130.132 Y122.418 E.02532
G1 X129.754 Y122.521 E.01228
G1 X127.864 Y122.923 E.06059
G1 X125.969 Y123.125 E.05975
G1 X124.065 Y123.126 E.0597
G1 X121.996 Y122.9 E.06526
G1 X120.243 Y122.52 E.05624
G1 X119.866 Y122.418 E.01225
G1 X118.991 Y122.264 E.02786
G1 X118.186 Y122.039 E.02621
G1 X116.361 Y121.189 E.06312
G1 X114.655 Y120.155 E.06255
G1 X113.062 Y118.933 E.06295
G1 X111.626 Y117.561 E.06227
G1 X110.352 Y116.048 E.06202
G1 X109.251 Y114.411 E.06186
G1 X108.335 Y112.673 E.0616
G1 X107.61 Y110.846 E.06163
G1 X107.085 Y108.953 E.06159
G1 X106.765 Y107.014 E.06162
G1 X106.655 Y105.051 E.06165
G1 X106.755 Y103.088 E.06163
G1 X107.098 Y100.99 E.06665
G1 X107.591 Y99.214 E.05779
G1 X108.102 Y97.94 E.04304
G1 X108.625 Y97.059 E.03212
G1 X108.848 Y96.731 E.01244
G1 X109.491 Y95.571 E.04158
G1 X110.529 Y94.044 E.05789
G1 X111.608 Y92.769 E.05237
M204 S1000
G1 X111.895 Y93.012 F10800
M204 S800
G1 F1200
G1 X112.069 Y92.807 E.00843
G1 X113.475 Y91.47 E.06083
G1 X114.96 Y90.335 E.0586
G1 X115.634 Y89.886 E.02539
G1 X116.424 Y89.225 E.0323
G1 X118.4 Y88.284 E.06862
G1 X120.234 Y87.671 E.06063
G1 X122.11 Y87.261 E.06021
G1 X124.045 Y87.053 E.06102
G1 X125.971 Y87.054 E.06039
G1 X127.927 Y87.267 E.06169
G1 X129.853 Y87.696 E.06187
G1 X131.696 Y88.322 E.06103
G1 X133.452 Y89.146 E.06082
G1 X134.359 Y89.882 E.03662
G1 X135.045 Y90.338 E.02583
G1 X136.521 Y91.467 E.05827
G1 X137.915 Y92.789 E.06024
G1 X139.134 Y94.223 E.05901
G1 X140.192 Y95.775 E.05889
G1 X140.791 Y96.864 E.03897
G1 X141.06 Y97.261 E.01504
G1 X141.572 Y98.131 E.03165
G1 X142.036 Y99.288 E.03909
G1 X142.549 Y101.142 E.06032
G1 X142.86 Y103.036 E.06018
G1 X142.968 Y104.956 E.0603
G1 X142.87 Y106.878 E.06034
G1 X142.563 Y108.798 E.06096
G1 X142.049 Y110.674 E.06099
G1 X141.336 Y112.484 E.061
G1 X140.432 Y114.207 E.06101
G1 X139.265 Y115.928 E.0652
G1 X138.001 Y117.406 E.06098
G1 X136.589 Y118.736 E.06082
G1 X135.088 Y119.873 E.05904
G1 X133.475 Y120.849 E.05911
G1 X131.468 Y121.761 E.06912
G1 X130.845 Y121.914 E.02011
G1 X130.051 Y122.05 E.02526
G1 X129.67 Y122.153 E.01237
G1 X127.814 Y122.549 E.0595
G1 X125.958 Y122.748 E.05853
G1 X124.075 Y122.749 E.05904
G1 X122.066 Y122.53 E.06336
G1 X120.328 Y122.153 E.05576
G1 X119.948 Y122.05 E.01234
G1 X119.082 Y121.898 E.02757
G1 X118.33 Y121.69 E.02446
G1 X116.547 Y120.861 E.06165
G1 X114.876 Y119.849 E.06125
G1 X113.315 Y118.653 E.06166
G1 X111.908 Y117.31 E.06099
G1 X110.659 Y115.829 E.06074
G1 X109.579 Y114.226 E.0606
G1 X108.682 Y112.524 E.06032
G1 X107.971 Y110.735 E.06036
G1 X107.456 Y108.881 E.06033
G1 X107.141 Y106.983 E.06032
G1 X107.032 Y105.04 E.06102
G1 X107.131 Y103.118 E.06034
G1 X107.464 Y101.081 E.06472
G1 X107.951 Y99.325 E.05714
G1 X108.434 Y98.119 E.04073
G1 X108.946 Y97.256 E.03146
G1 X109.169 Y96.929 E.01241
G1 X109.808 Y95.776 E.04133
G1 X110.824 Y94.28 E.0567
G1 X111.856 Y93.058 E.05015
M204 S1000
G1 X112.144 Y93.301 F10800
M204 S800
G1 F1200
G1 X112.35 Y93.058 E.00999
G1 X113.727 Y91.75 E.05955
G1 X115.183 Y90.638 E.05744
G1 X115.862 Y90.188 E.02554
G1 X116.609 Y89.555 E.0307
G1 X118.531 Y88.638 E.06677
G1 X120.325 Y88.037 E.05932
G1 X122.161 Y87.635 E.05893
G1 X124.055 Y87.43 E.05973
G1 X125.94 Y87.43 E.0591
G1 X127.855 Y87.638 E.0604
G1 X129.742 Y88.056 E.0606
G1 X131.545 Y88.668 E.0597
G1 X133.27 Y89.477 E.05974
G1 X134.135 Y90.185 E.03505
G1 X134.821 Y90.641 E.02583
G1 X136.284 Y91.76 E.05775
G1 X137.634 Y93.041 E.05835
G1 X138.828 Y94.444 E.05776
G1 X139.875 Y95.98 E.05828
G1 X140.469 Y97.061 E.03867
G1 X140.738 Y97.458 E.01504
G1 X141.24 Y98.31 E.03101
G1 X141.682 Y99.418 E.0374
G1 X142.183 Y101.232 E.05901
G1 X142.487 Y103.087 E.05894
G1 X142.591 Y104.967 E.05904
G1 X142.494 Y106.848 E.05906
G1 X142.192 Y108.728 E.0597
G1 X141.688 Y110.565 E.05973
G1 X140.989 Y112.336 E.0597
G1 X140.103 Y114.022 E.05972
G1 X138.972 Y115.691 E.06321
G1 X137.735 Y117.139 E.05971
G1 X136.353 Y118.441 E.05953
G1 X134.868 Y119.567 E.05843
G1 X133.29 Y120.52 E.0578
G1 X131.362 Y121.399 E.06644
G1 X130.762 Y121.546 E.01937
G1 X129.969 Y121.681 E.02522
G1 X129.586 Y121.786 E.01245
G1 X127.764 Y122.175 E.05842
G1 X125.928 Y122.372 E.0579
G1 X124.086 Y122.372 E.05775
G1 X122.136 Y122.159 E.0615
G1 X120.413 Y121.785 E.05528
G1 X120.03 Y121.681 E.01244
G1 X119.173 Y121.532 E.02727
G1 X118.474 Y121.341 E.02272
M73 P2 R24
M73 Q2 S24
G1 X116.734 Y120.533 E.06015
G1 X115.097 Y119.543 E.05998
G1 X113.567 Y118.373 E.06039
G1 X112.189 Y117.059 E.0597
G1 X110.966 Y115.609 E.05948
G1 X109.908 Y114.041 E.05931
G1 X109.029 Y112.375 E.05906
G1 X108.325 Y110.606 E.0597
G1 X107.822 Y108.79 E.05908
G1 X107.515 Y106.931 E.05908
G1 X107.409 Y105.03 E.0597
G1 X107.507 Y103.148 E.05909
G1 X107.831 Y101.171 E.06281
G1 X108.312 Y99.436 E.05645
G1 X108.765 Y98.299 E.03838
G1 X109.267 Y97.454 E.03082
G1 X109.49 Y97.127 E.01241
G1 X110.125 Y95.98 E.04111
G1 X111.118 Y94.515 E.05549
G1 X112.106 Y93.347 E.04797
M204 S1000
G1 X112.393 Y93.591 F10800
M204 S800
G1 F1200
G1 X112.631 Y93.31 E.01155
G1 X113.979 Y92.031 E.05826
G1 X115.407 Y90.942 E.05631
G1 X116.088 Y90.489 E.02564
G1 X116.834 Y89.858 E.03064
G1 X118.661 Y88.992 E.06339
G1 X120.416 Y88.404 E.05803
G1 X122.232 Y88.006 E.05829
G1 X124.085 Y87.806 E.05844
G1 X125.93 Y87.807 E.05785
G1 X127.804 Y88.012 E.05911
G1 X129.631 Y88.417 E.05867
G1 X131.395 Y89.014 E.05839
G1 X133.088 Y89.808 E.05863
G1 X133.909 Y90.488 E.03342
G1 X134.597 Y90.945 E.0259
G1 X136.047 Y92.053 E.05722
G1 X137.354 Y93.294 E.05651
G1 X138.522 Y94.665 E.05647
G1 X139.558 Y96.185 E.05768
G1 X140.147 Y97.258 E.03838
G1 X140.416 Y97.655 E.01504
G1 X140.908 Y98.489 E.03036
G1 X141.327 Y99.547 E.03568
G1 X141.817 Y101.323 E.05777
G1 X142.113 Y103.137 E.05763
G1 X142.214 Y104.978 E.05781
G1 X142.118 Y106.818 E.05777
G1 X141.821 Y108.658 E.05844
G1 X141.328 Y110.455 E.05843
G1 X140.642 Y112.188 E.05844
G1 X139.774 Y113.837 E.05843
G1 X138.678 Y115.455 E.06127
G1 X137.469 Y116.872 E.0584
G1 X136.117 Y118.147 E.05827
G1 X134.665 Y119.249 E.05715
G1 X133.104 Y120.192 E.05718
G1 X131.254 Y121.037 E.06377
G1 X130.691 Y121.175 E.01818
G1 X129.887 Y121.313 E.02558
G1 X129.501 Y121.418 E.01254
G1 X127.714 Y121.801 E.0573
G1 X125.918 Y121.994 E.05664
G1 X124.096 Y121.995 E.05713
G1 X122.206 Y121.788 E.05961
G1 X120.498 Y121.418 E.0548
G1 X120.112 Y121.313 E.01254
G1 X119.262 Y121.165 E.02705
G1 X118.618 Y120.992 E.02091
G1 X116.92 Y120.204 E.05869
G1 X115.318 Y119.238 E.05865
G1 X113.82 Y118.093 E.05912
G1 X112.47 Y116.808 E.05844
G1 X111.273 Y115.39 E.05818
G1 X110.237 Y113.855 E.05806
G1 X109.375 Y112.226 E.05779
G1 X108.686 Y110.495 E.05842
G1 X108.192 Y108.719 E.0578
G1 X107.889 Y106.88 E.05844
G1 X107.786 Y105.019 E.05844
G1 X107.883 Y103.178 E.0578
G1 X108.197 Y101.262 E.06088
G1 X108.673 Y99.546 E.05584
G1 X109.097 Y98.479 E.036
G1 X109.588 Y97.652 E.03016
G1 X109.812 Y97.326 E.0124
G1 X110.442 Y96.185 E.04087
G1 X111.425 Y94.735 E.05493
G1 X112.355 Y93.636 E.04514
M204 S1000
G1 X112.642 Y93.879 F10800
M204 S800
G1 F1200
G1 X112.898 Y93.576 E.01244
G1 X114.216 Y92.325 E.05698
G1 X115.631 Y91.246 E.05579
G1 X116.317 Y90.79 E.02583
G1 X117.019 Y90.188 E.029
G1 X118.792 Y89.346 E.06154
G1 X120.507 Y88.77 E.05672
G1 X122.283 Y88.379 E.05702
G1 X124.096 Y88.183 E.05718
G1 X125.919 Y88.184 E.05716
G1 X127.733 Y88.382 E.05721
G1 X129.519 Y88.777 E.05735
G1 X131.263 Y89.368 E.05774
G1 X132.905 Y90.139 E.05688
G1 X133.683 Y90.79 E.03181
G1 X134.373 Y91.248 E.02597
G1 X135.795 Y92.334 E.0561
G1 X137.073 Y93.546 E.05522
G1 X138.228 Y94.902 E.05585
G1 X139.241 Y96.389 E.05641
G1 X139.825 Y97.455 E.03811
G1 X140.094 Y97.852 E.01504
G1 X140.575 Y98.667 E.02967
G1 X140.967 Y99.657 E.03339
G1 X141.446 Y101.393 E.05647
G1 X141.739 Y103.188 E.05703
G1 X141.837 Y104.988 E.05652
G1 X141.742 Y106.788 E.05652
G1 X141.451 Y108.587 E.05714
G1 X140.967 Y110.345 E.05717
G1 X140.296 Y112.04 E.05716
G1 X139.445 Y113.652 E.05715
G1 X138.384 Y115.218 E.05931
G1 X137.202 Y116.605 E.05714
G1 X135.881 Y117.853 E.05698
G1 X134.445 Y118.943 E.05653
G1 X132.918 Y119.863 E.0559
G1 X131.147 Y120.675 E.06109
G1 X130.621 Y120.805 E.01699
G1 X129.806 Y120.944 E.02592
G1 X129.417 Y121.05 E.01264
G1 X127.664 Y121.428 E.05623
G1 X125.888 Y121.618 E.056
G1 X124.106 Y121.618 E.05587
G1 X122.277 Y121.418 E.05769
G1 X120.583 Y121.05 E.05435
G1 X120.194 Y120.944 E.01264
G1 X119.349 Y120.798 E.02689
G1 X118.761 Y120.643 E.01907
G1 X117.105 Y119.876 E.05722
G1 X115.538 Y118.931 E.05738
G1 X114.072 Y117.813 E.05781
G1 X112.752 Y116.556 E.05715
G1 X111.579 Y115.17 E.05693
G1 X110.565 Y113.67 E.05677
G1 X109.713 Y112.059 E.05714
G1 X109.04 Y110.365 E.05715
G1 X108.558 Y108.628 E.05652
G1 X108.263 Y106.829 E.05716
G1 X108.163 Y105.009 E.05715
G1 X108.259 Y103.209 E.05652
G1 X108.563 Y101.353 E.05897
G1 X109.033 Y99.657 E.05518
G1 X109.429 Y98.659 E.03366
G1 X109.909 Y97.85 E.02949
G1 X110.133 Y97.524 E.0124
G1 X110.759 Y96.389 E.04064
G1 X111.731 Y94.955 E.05432
G1 X112.603 Y93.925 E.04231
M204 S1000
G1 X112.89 Y94.169 F10800
M204 S800
G1 F1200
G1 X113.179 Y93.827 E.01404
G1 X114.453 Y92.618 E.05507
G1 X115.855 Y91.549 E.05528
G1 X116.545 Y91.092 E.02595
G1 X117.245 Y90.491 E.02893
G1 X118.922 Y89.7 E.05814
G1 X120.598 Y89.136 E.05545
G1 X122.334 Y88.753 E.05574
G1 X124.106 Y88.56 E.05589
G1 X125.889 Y88.56 E.0559
G1 X127.662 Y88.752 E.05592
G1 X129.408 Y89.138 E.05607
G1 X131.113 Y89.714 E.05643
G1 X132.722 Y90.469 E.05573
G1 X133.455 Y91.092 E.03016
G1 X134.149 Y91.552 E.02611
G1 X135.543 Y92.615 E.05497
G1 X136.806 Y93.812 E.05456
G1 X137.934 Y95.138 E.05458
G1 X138.924 Y96.594 E.05521
G1 X139.503 Y97.652 E.03782
G1 X139.773 Y98.049 E.01505
G1 X140.243 Y98.846 E.02901
G1 X140.606 Y99.767 E.03104
G1 X141.076 Y101.464 E.05521
G1 X141.363 Y103.219 E.05576
G1 X141.46 Y104.998 E.05586
G1 X141.366 Y106.757 E.05523
G1 X141.08 Y108.517 E.05591
G1 X140.606 Y110.235 E.05588
G1 X139.949 Y111.891 E.05586
G1 X139.117 Y113.467 E.05588
G1 X138.09 Y114.981 E.05736
M73 P3 R24
G1 X136.936 Y116.338 E.05585
G1 X135.644 Y117.559 E.05574
M73 Q3 S24
G1 X134.241 Y118.625 E.05525
G1 X132.733 Y119.535 E.05522
G1 X131.039 Y120.313 E.05845
G1 X130.551 Y120.434 E.01576
G1 X129.724 Y120.575 E.0263
G1 X129.332 Y120.683 E.01275
G1 X127.614 Y121.054 E.05511
G1 X125.878 Y121.241 E.05475
G1 X124.116 Y121.241 E.05525
G1 X122.347 Y121.047 E.0558
G1 X120.668 Y120.683 E.05387
G1 X120.276 Y120.576 E.01274
G1 X119.436 Y120.431 E.02673
G1 X118.903 Y120.293 E.01726
G1 X117.273 Y119.538 E.05632
G1 X115.759 Y118.625 E.05543
G1 X114.325 Y117.532 E.05653
G1 X113.033 Y116.305 E.05587
G1 X111.886 Y114.95 E.05566
G1 X110.894 Y113.484 E.0555
G1 X110.06 Y111.91 E.05585
G1 X109.401 Y110.254 E.05588
G1 X108.929 Y108.556 E.05526
G1 X108.638 Y106.798 E.05587
G1 X108.54 Y105.018 E.0559
G1 X108.635 Y103.239 E.05586
G1 X108.929 Y101.444 E.05703
G1 X109.394 Y99.767 E.05457
G1 X109.761 Y98.838 E.03132
G1 X110.23 Y98.048 E.02881
G1 X110.454 Y97.722 E.0124
G1 X111.076 Y96.594 E.04039
G1 X112.038 Y95.175 E.05375
G1 X112.852 Y94.214 E.03949
M204 S1000
G1 X113.139 Y94.458 F10800
M204 S800
G1 F1200
G1 X113.46 Y94.079 E.01557
G1 X114.705 Y92.899 E.05378
G1 X116.078 Y91.853 E.05412
G1 X116.774 Y91.392 E.02618
G1 X117.43 Y90.82 E.02729
G1 X119.053 Y90.054 E.05627
G1 X120.708 Y89.496 E.05476
G1 X122.405 Y89.124 E.05447
G1 X124.136 Y88.936 E.05459
