; generated by PrusaSlicer 2.6.0-beta2+win64 on 2023-05-22 at 18:56:04 UTC


;
;
; 

; external perimeters extrusion width = 0.45mm
; perimeters extrusion width = 0.45mm
; infill extrusion width = 0.45mm
; solid infill extrusion width = 0.45mm
; top infill extrusion width = 0.40mm
; support material extrusion width = 0.35mm
; first layer extrusion width = 0.42mm

M73 P0 R44
M73 Q0 S44
M201 X1000 Y1000 Z200 E5000 ; sets maximum accelerations, mm/sec^2
M203 X200 Y200 Z12 E120 ; sets maximum feedrates, mm / sec
M204 S1250 T1250 ; sets acceleration (S) and retract acceleration (R), mm/sec^2
M205 X8.00 Y8.00 Z0.40 E4.50 ; sets the jerk limits, mm/sec
M205 S0 T0 ; sets the minimum extruding and travel feed rate, mm/sec
;TYPE:Custom
M862.3 P "MK3S" ; printer model check
M862.1 P0.4 ; nozzle diameter check
M115 U3.11.0 ; tell printer latest fw version
G90 ; use absolute coordinates
M83 ; extruder relative mode
M104 S240 ; set extruder temp
M140 S85 ; set bed temp
M190 S85 ; wait for bed temp
M109 S240 ; wait for extruder temp
G28 W ; home all without mesh bed level
G80 ; mesh bed leveling
G1 Z0.2 F720
G1 Y-3 F1000 ; go outside print area
G92 E0
G1 X60 E9 F1000 ; intro line
G1 X100 E12.5 F1000 ; intro line
G92 E0
M221 S95

; Don't change E values below. Excessive value can damage the printer.
M907 E430 ; set extruder motor current
G21 ; set units to millimeters
G90 ; use absolute coordinates
M83 ; use relative distances for extrusion
M900 K0.08 ; Filament gcode LA 1.5
M900 K45 ; Filament gcode LA 1.0
M107
;LAYER_CHANGE
;Z:0.2
;HEIGHT:0.2
;BEFORE_LAYER_CHANGE
G92 E0.0
;0.2


G1 E-1 F2100
G1 Z.2 F720
;AFTER_LAYER_CHANGE
;0.2
G1 Z.4
G1 X106.124 Y93.177 F10800
G1 Z.2 F720
G1 E1 F2100
M204 S800
;TYPE:Skirt/Brim
;WIDTH:0.42
G1 F1200
G1 X112.68 Y86.379 E.29612
G1 X113.264 Y85.936 E.02298
G1 X115.609 Y84.706 E.08303
G1 X116.717 Y84.204 E.03814
G1 X118.929 Y83.486 E.07292
G1 X121.509 Y82.919 E.08282
G1 X123.669 Y82.684 E.06812
G1 X126.062 Y82.669 E.07503
G1 X128.498 Y82.917 E.07677
G1 X131.086 Y83.483 E.08306
G1 X133.493 Y84.28 E.0795
G1 X136.756 Y85.931 E.11466
G1 X137.315 Y86.346 E.02183
G1 X143.7 Y92.743 E.28339
G1 X144.209 Y93.481 E.02811
G1 X145.324 Y95.859 E.08235
G1 X146.154 Y97.975 E.07127
G1 X146.752 Y100.133 E.07021
G1 X147.15 Y102.508 E.0755
G1 X147.286 Y104.787 E.07158
G1 X147.15 Y107.49 E.08486
G1 X146.753 Y109.863 E.07544
G1 X146.103 Y112.179 E.07542
G1 X145.206 Y114.41 E.07539
G1 X144.075 Y116.532 E.07539
G1 X142.72 Y118.522 E.07549
G1 X141.161 Y120.35 E.07533
G1 X139.404 Y122.008 E.07575
G1 X137.687 Y123.32 E.06775
G1 X135.284 Y124.768 E.08797
G1 X133.244 Y125.701 E.07033
G1 X130.808 Y126.583 E.08123
G1 X130.039 Y126.724 E.02451
G1 X120.508 Y126.881 E.29888
G1 X119.586 Y126.719 E.02935
G1 X116.663 Y125.653 E.09755
G1 X114.632 Y124.713 E.07017
G1 X112.655 Y123.535 E.07216
G1 X110.622 Y122.008 E.07972
G1 X109.387 Y120.859 E.05289
G1 X108.688 Y120.158 E.03104
G1 X107.209 Y118.392 E.07223
G1 X105.95 Y116.531 E.07045
G1 X104.819 Y114.41 E.07537
G1 X103.923 Y112.179 E.07538
G1 X103.303 Y109.987 E.07142
G1 X102.847 Y107.196 E.08867
G1 X102.736 Y104.915 E.0716
G1 X102.876 Y102.508 E.0756
G1 X103.274 Y100.133 E.0755
G1 X103.873 Y97.973 E.07028
G1 X104.733 Y95.784 E.07374
G1 X105.697 Y93.788 E.0695
G1 X106.089 Y93.226 E.02148
M204 S1000
;WIPE_START
G1 F8640
G1 X109.092 Y90.106 E-1
;WIPE_END
G1 Z.4 F720
G1 X136.959 Y97.897 F10800
G1 Z.2 F720
G1 E1 F2100
M204 S800
G1 F1200
G1 X137.106 Y97.316 E.01879
G1 X137.373 Y96.796 E.01833
G1 X138.485 Y95.627 E.05059
G1 X138.976 Y95.306 E.01839
G1 X139.53 Y95.11 E.01843
G1 X140.271 Y95.06 E.02329
G1 X140.917 Y95.183 E.02062
G1 X141.398 Y95.397 E.01651
G1 X141.886 Y95.767 E.0192
G1 X142.253 Y96.222 E.01833
G1 X142.602 Y96.934 E.02486
G1 X143.335 Y98.775 E.06213
G1 X143.908 Y100.825 E.06674
G1 X144.247 Y102.877 E.06521
G1 X144.363 Y104.943 E.06488
G1 X144.255 Y107.041 E.06587
G1 X143.913 Y109.151 E.06702
G1 X143.343 Y111.204 E.06681
G1 X142.562 Y113.156 E.06592
G1 X141.57 Y115.019 E.06618
G1 X140.428 Y116.701 E.06374
G1 X139.111 Y118.258 E.06394
G1 X137.596 Y119.704 E.06567
G1 X135.86 Y121.027 E.06844
G1 X134.086 Y122.093 E.06489
G1 X132.237 Y122.952 E.06392
G1 X130.928 Y123.41 E.04348
G1 X130.349 Y123.455 E.01821
G1 X129.909 Y123.397 E.01392
G1 X129.475 Y123.261 E.01426
G1 X128.799 Y122.834 E.02507
G1 X128.458 Y122.5 E.01497
G1 X128.102 Y121.904 E.02177
G1 X127.949 Y121.438 E.01538
G1 X127.943 Y119.599 E.05766
G1 X128.131 Y118.984 E.02016
G1 X128.476 Y118.425 E.0206
G1 X129.214 Y117.803 E.03026
G1 X130.859 Y117.097 E.05613
G1 X132.18 Y116.365 E.04735
G1 X133.405 Y115.494 E.04713
G1 X134.526 Y114.49 E.04718
G1 X135.526 Y113.371 E.04705
G1 X136.396 Y112.144 E.04716
G1 X137.124 Y110.828 E.04716
G1 X137.7 Y109.44 E.04712
G1 X138.118 Y107.994 E.04719
G1 X138.371 Y106.514 E.04708
G1 X138.458 Y105.013 E.04714
G1 X138.375 Y103.513 E.0471
G1 X138.124 Y102.031 E.04713
G1 X137.709 Y100.582 E.04726
G1 X137.052 Y98.98 E.05429
G1 X136.964 Y97.957 E.03219
M204 S1000
G1 X137.333 Y97.956 F10800
M204 S800
G1 F1200
G1 X137.451 Y97.468 E.01574
G1 X137.696 Y96.994 E.01673
G1 X138.74 Y95.905 E.0473
G1 X139.159 Y95.636 E.01561
G1 X139.629 Y95.475 E.01558
G1 X140.224 Y95.435 E.0187
G1 X140.824 Y95.549 E.01915
G1 X141.19 Y95.713 E.01258
G1 X141.609 Y96.023 E.01634
G1 X141.946 Y96.441 E.01684
G1 X142.254 Y97.08 E.02224
G1 X142.981 Y98.905 E.06159
G1 X143.538 Y100.897 E.06485
G1 X143.871 Y102.909 E.06394
G1 X143.986 Y104.954 E.06422
G1 X143.879 Y107.011 E.06458
G1 X143.547 Y109.06 E.06508
G1 X142.989 Y111.074 E.06553
G1 X142.224 Y112.988 E.06463
G1 X141.252 Y114.816 E.06491
G1 X140.121 Y116.481 E.06311
G1 X138.83 Y118.007 E.06267
G1 X137.343 Y119.424 E.0644
G1 X135.657 Y120.709 E.06647
G1 X133.901 Y121.765 E.06425
G1 X132.086 Y122.606 E.06272
G1 X130.87 Y123.036 E.04044
G1 X130.378 Y123.079 E.01549
G1 X129.976 Y123.025 E.01272
G1 X129.615 Y122.91 E.01188
G1 X129.02 Y122.528 E.02217
G1 X128.742 Y122.251 E.0123
G1 X128.439 Y121.733 E.01882
G1 X128.317 Y121.353 E.01251
G1 X128.32 Y119.63 E.05402
G1 X128.482 Y119.121 E.01675
G1 X128.742 Y118.694 E.01567
G1 X129.435 Y118.11 E.02842
G1 X131.024 Y117.437 E.05411
G1 X132.381 Y116.685 E.04864
G1 X133.64 Y115.789 E.04845
G1 X134.794 Y114.757 E.04854
G1 X135.821 Y113.606 E.04837
G1 X136.716 Y112.345 E.04848
G1 X137.464 Y110.992 E.04847
G1 X138.056 Y109.565 E.04844
G1 X138.486 Y108.079 E.0485
G1 X138.747 Y106.556 E.04845
G1 X138.836 Y105.013 E.04846
G1 X138.751 Y103.471 E.04842
G1 X138.493 Y101.947 E.04846
G1 X138.065 Y100.458 E.04858
G1 X137.412 Y98.864 E.05401
G1 X137.338 Y98.015 E.02672
M204 S1000
G1 X137.706 Y98.015 F10800
M204 S800
G1 F1200
G1 X137.812 Y97.581 E.01401
G1 X138.016 Y97.195 E.01369
G1 X138.994 Y96.185 E.04408
G1 X139.339 Y95.969 E.01276
G1 X139.724 Y95.84 E.01273
G1 X140.177 Y95.809 E.01424
G1 X140.73 Y95.915 E.01765
G1 X141.013 Y96.045 E.00976
G1 X141.362 Y96.309 E.01372
G1 X141.616 Y96.624 E.01269
G1 X141.906 Y97.226 E.02095
G1 X142.627 Y99.035 E.06106
G1 X143.167 Y100.969 E.06296
G1 X143.497 Y102.96 E.06328
G1 X143.609 Y104.965 E.06296
G1 X143.503 Y106.981 E.0633
G1 X143.177 Y108.989 E.06378
G1 X142.635 Y110.944 E.06361
G1 X141.886 Y112.82 E.06334
G1 X140.934 Y114.612 E.06362
G1 X139.827 Y116.245 E.06186
G1 X138.549 Y117.756 E.06205
G1 X137.091 Y119.144 E.06312
G1 X135.454 Y120.391 E.06452
G1 X133.715 Y121.437 E.06363
G1 X131.935 Y122.26 E.06149
G1 X130.81 Y122.664 E.03748
G1 X130.405 Y122.702 E.01275
G1 X130.044 Y122.654 E.01142
G1 X129.757 Y122.56 E.00947
G1 X129.245 Y122.225 E.01918
G1 X129.029 Y122.005 E.00967
G1 X128.778 Y121.566 E.01586
G1 X128.686 Y121.269 E.00975
G1 X128.688 Y119.714 E.04876
G1 X128.817 Y119.296 E.01372
G1 X129.049 Y118.916 E.01396
G1 X129.608 Y118.446 E.0229
G1 X131.19 Y117.777 E.05386
G1 X132.582 Y117.004 E.04992
G1 X133.876 Y116.084 E.04978
G1 X135.061 Y115.024 E.04985
G1 X136.116 Y113.842 E.04968
G1 X137.036 Y112.546 E.04983
G1 X137.804 Y111.156 E.04979
G1 X138.413 Y109.69 E.04977
G1 X138.854 Y108.163 E.04983
G1 X139.122 Y106.599 E.04975
G1 X139.213 Y105.014 E.04978
G1 X139.126 Y103.429 E.04977
G1 X138.861 Y101.863 E.0498
G1 X138.422 Y100.335 E.04985
G1 X137.772 Y98.747 E.0538
G1 X137.712 Y98.074 E.02119
M204 S1000
G1 X138.081 Y98.069 F10800
M204 S800
G1 F1200
G1 X138.157 Y97.734 E.01077
G1 X138.336 Y97.395 E.01202
G1 X139.246 Y96.467 E.04075
G1 X139.514 Y96.303 E.00985
G1 X139.816 Y96.206 E.00995
G1 X140.13 Y96.184 E.00987
G1 X140.633 Y96.281 E.01606
G1 X140.831 Y96.376 E.00689
G1 X141.087 Y96.568 E.01003
G1 X141.287 Y96.81 E.00984
G1 X141.558 Y97.371 E.01953
G1 X142.273 Y99.165 E.06055
G1 X142.797 Y101.04 E.06104
G1 X143.121 Y102.991 E.06201
G1 X143.232 Y104.976 E.06234
G1 X143.127 Y106.951 E.06201
G1 X142.811 Y108.898 E.06185
G1 X142.28 Y110.814 E.06234
G1 X141.548 Y112.653 E.06206
G1 X140.616 Y114.409 E.06233
M73 Q1 S44
G1 X139.521 Y116.025 E.06121
G1 X138.268 Y117.504 E.06078
G1 X136.839 Y118.863 E.06183
M73 P1 R44
G1 X135.25 Y120.074 E.06264
G1 X133.53 Y121.108 E.06292
G1 X131.784 Y121.915 E.06031
G1 X130.746 Y122.291 E.03462
G1 X130.432 Y122.325 E.0099
G1 X130.113 Y122.283 E.01009
G1 X129.903 Y122.212 E.00695
G1 X129.473 Y121.924 E.01623
G1 X129.319 Y121.763 E.00699
G1 X129.118 Y121.403 E.01293
G1 X129.055 Y121.19 E.00696
G1 X129.057 Y119.798 E.04365
G1 X129.17 Y119.432 E.01201
G1 X129.351 Y119.142 E.01072
G1 X129.781 Y118.782 E.01758
G1 X131.355 Y118.116 E.05359
G1 X132.784 Y117.324 E.05123
G1 X134.112 Y116.379 E.0511
G1 X135.328 Y115.291 E.05116
G1 X136.412 Y114.077 E.05103
G1 X137.355 Y112.747 E.05112
G1 X138.144 Y111.32 E.05113
G1 X138.769 Y109.815 E.0511
G1 X139.222 Y108.248 E.05114
G1 X139.497 Y106.642 E.05109
G1 X139.591 Y105.014 E.05113
G1 X139.501 Y103.387 E.05109
G1 X139.229 Y101.78 E.0511
G1 X138.779 Y100.211 E.05118
G1 X138.131 Y98.63 E.05357
G1 X138.086 Y98.128 E.0158
M204 S1000
G1 X138.455 Y98.124 F10800
M204 S800
G1 F1200
G1 X138.519 Y97.846 E.00894
G1 X138.653 Y97.601 E.00876
G1 X139.497 Y96.749 E.0376
G1 X139.65 Y96.656 E.00561
G1 X139.91 Y96.572 E.00857
G1 X140.088 Y96.56 E.00559
G1 X140.499 Y96.634 E.01309
G1 X140.622 Y96.691 E.00425
G1 X140.843 Y96.856 E.00865
G1 X140.957 Y96.994 E.00561
G1 X141.216 Y97.53 E.01867
G1 X141.919 Y99.295 E.05957
G1 X142.431 Y101.132 E.05979
G1 X142.747 Y103.043 E.06073
G1 X142.855 Y104.966 E.06039
G1 X142.754 Y106.901 E.06075
G1 X142.444 Y108.808 E.06058
G1 X141.926 Y110.685 E.06105
G1 X141.21 Y112.485 E.06074
G1 X140.298 Y114.206 E.06107
G1 X139.226 Y115.789 E.05994
G1 X137.986 Y117.253 E.06016
G1 X136.586 Y118.583 E.06055
M73 P1 R43
G1 X135.03 Y119.767 E.06131
G1 X133.362 Y120.77 E.06103
G1 X131.633 Y121.569 E.05972
G1 X130.639 Y121.929 E.03315
G1 X130.459 Y121.948 E.00568
G1 X130.184 Y121.912 E.0087
G1 X130.055 Y121.866 E.00429
G1 X129.706 Y121.626 E.01328
G1 X129.613 Y121.527 E.00426
G1 X129.461 Y121.245 E.01004
G1 X129.426 Y121.116 E.00419
G1 X129.426 Y119.876 E.03888
G1 X129.504 Y119.609 E.00872
G1 X129.655 Y119.368 E.00892
G1 X129.953 Y119.119 E.01218
G1 X131.52 Y118.455 E.05336
G1 X132.985 Y117.643 E.05252
G1 X134.348 Y116.674 E.05244
G1 X135.595 Y115.558 E.05247
G1 X136.707 Y114.312 E.05236
G1 X137.675 Y112.948 E.05244
G1 X138.484 Y111.485 E.05242
G1 X139.125 Y109.94 E.05245
G1 X139.59 Y108.332 E.05248
G1 X139.872 Y106.685 E.05239
G1 X139.969 Y105.015 E.05245
G1 X139.877 Y103.345 E.05244
G1 X139.597 Y101.696 E.05244
G1 X139.136 Y100.087 E.05248
G1 X138.491 Y98.513 E.05333
G1 X138.46 Y98.183 E.01039
M204 S1000
G1 X138.829 Y98.178 F10800
M204 S800
G1 F1200
G1 X138.879 Y97.961 E.00698
G1 X138.964 Y97.815 E.0053
G1 X139.786 Y97.008 E.03612
G1 X140.048 Y96.935 E.00853
G1 X140.375 Y96.99 E.0104
G1 X140.599 Y97.145 E.00854
G1 X140.868 Y97.675 E.01864
G1 X141.565 Y99.425 E.05906
G1 X142.065 Y101.223 E.05851
G1 X142.374 Y103.094 E.05946
G1 X142.478 Y104.977 E.05913
G1 X142.378 Y106.871 E.05947
G1 X142.074 Y108.737 E.05928
G1 X141.572 Y110.555 E.05914
G1 X140.872 Y112.318 E.05948
G1 X139.981 Y114.003 E.05976
G1 X138.92 Y115.569 E.05931
G1 X137.706 Y117.001 E.05886
G1 X136.334 Y118.302 E.05928
G1 X134.827 Y119.45 E.0594
G1 X133.195 Y120.432 E.05972
G1 X131.482 Y121.223 E.05916
G1 X130.532 Y121.567 E.03168
G1 X130.259 Y121.541 E.0086
G1 X129.944 Y121.333 E.01184
G1 X129.797 Y121.051 E.00997
G1 X129.797 Y119.946 E.03465
G1 X129.84 Y119.782 E.00532
G1 X129.959 Y119.594 E.00698
G1 X130.125 Y119.456 E.00677
G1 X131.686 Y118.795 E.05315
G1 X133.186 Y117.963 E.05378
G1 X134.583 Y116.969 E.05376
G1 X135.862 Y115.825 E.0538
G1 X137.002 Y114.548 E.05367
G1 X137.995 Y113.149 E.05379
G1 X138.825 Y111.649 E.05375
G1 X139.482 Y110.065 E.05377
G1 X139.958 Y108.417 E.05378
G1 X140.248 Y106.728 E.05373
G1 X140.347 Y105.015 E.0538
G1 X140.252 Y103.303 E.05376
G1 X139.966 Y101.612 E.05377
G1 X139.492 Y99.963 E.0538
G1 X138.85 Y98.395 E.05312
G1 X138.835 Y98.238 E.00495
M204 S1000
G1 X139.204 Y98.222 F10800
M204 S800
G1 F1200
G1 X139.253 Y98.059 E.00534
G1 X139.966 Y97.346 E.03162
G1 X140.053 Y97.318 E.00287
G1 X140.245 Y97.351 E.00611
G1 X140.318 Y97.405 E.00285
G1 X140.52 Y97.822 E.01453
G1 X141.205 Y99.536 E.05787
G1 X141.699 Y101.314 E.05786
G1 X142 Y103.145 E.05818
G1 X142.101 Y104.987 E.05784
G1 X142.002 Y106.84 E.05818
G1 X141.703 Y108.666 E.05802
G1 X141.211 Y110.445 E.05787
G1 X140.526 Y112.169 E.05817
G1 X139.652 Y113.818 E.05852
G1 X138.614 Y115.349 E.058
G1 X137.425 Y116.749 E.05759
G1 X136.082 Y118.021 E.058
G1 X134.607 Y119.143 E.05811
G1 X133.027 Y120.094 E.05782
G1 X131.331 Y120.878 E.05858
G1 X130.469 Y121.189 E.02873
G1 X130.377 Y121.177 E.00291
G1 X130.217 Y121.064 E.00614
G1 X130.174 Y120.982 E.0029
G1 X130.174 Y119.977 E.03151
G1 X130.255 Y119.827 E.00535
G1 X130.298 Y119.792 E.00174
G1 X131.851 Y119.134 E.05288
G1 X133.388 Y118.282 E.0551
G1 X134.819 Y117.264 E.05506
G1 X136.13 Y116.092 E.05514
G1 X137.298 Y114.783 E.05501
G1 X138.315 Y113.35 E.0551
G1 X139.165 Y111.813 E.05507
G1 X139.838 Y110.19 E.05509
G1 X140.326 Y108.502 E.05509
G1 X140.476 Y107.636 E.02756
G1 X140.623 Y106.77 E.02754
G1 X140.724 Y105.015 E.05512
G1 X140.627 Y103.261 E.05508
G1 X140.334 Y101.528 E.05511
G1 X139.849 Y99.839 E.0551
G1 X139.211 Y98.282 E.05276
M204 S1000
;WIPE_START
G1 F8640
G1 X139.253 Y98.059 E-.0524
G1 X139.966 Y97.346 E-.23283
G1 X140.053 Y97.318 E-.0211
G1 X140.245 Y97.351 E-.04498
G1 X140.318 Y97.405 E-.02097
G1 X140.52 Y97.822 E-.10699
G1 X141.205 Y99.536 E-.4262
G1 X141.315 Y99.93 E-.09453
;WIPE_END
G1 Z.4 F720
G1 X113.076 Y97.998 F10800
G1 Z.2 F720
G1 E1 F2100
M204 S800
G1 F1200
G1 X112.969 Y98.992 E.03135
G1 X112.317 Y100.582 E.05388
G1 X111.901 Y102.031 E.04727
G1 X111.651 Y103.513 E.04712
G1 X111.568 Y105.013 E.0471
G1 X111.654 Y106.514 E.04714
G1 X111.908 Y107.994 E.04708
G1 X112.326 Y109.44 E.04719
G1 X112.902 Y110.828 E.04712
G1 X113.63 Y112.144 E.04716
G1 X114.5 Y113.371 E.04716
G1 X115.5 Y114.491 E.04708
G1 X116.621 Y115.494 E.04716
G1 X117.846 Y116.365 E.04713
G1 X119.167 Y117.098 E.04737
G1 X120.859 Y117.832 E.05783
G1 X121.51 Y118.378 E.02664
G1 X121.896 Y118.987 E.02261
G1 X122.092 Y119.655 E.02183
G1 X122.094 Y121.326 E.05239
G1 X121.964 Y121.809 E.01568
G1 X121.719 Y122.287 E.01684
G1 X121.392 Y122.69 E.01627
G1 X120.831 Y123.112 E.02201
G1 X120.402 Y123.319 E.01493
G1 X119.708 Y123.453 E.02216
G1 X119.05 Y123.399 E.0207
G1 X117.787 Y122.951 E.04202
G1 X115.957 Y122.103 E.06324
G1 X114.182 Y121.038 E.0649
G1 X112.46 Y119.73 E.0678
G1 X110.987 Y118.335 E.06361
G1 X109.653 Y116.774 E.06438
G1 X108.471 Y115.044 E.06569
G1 X107.48 Y113.191 E.06589
G1 X106.699 Y111.252 E.06554
M73 Q1 S43
G1 X106.117 Y109.174 E.06766
G1 X105.77 Y107.043 E.0677
G1 X105.662 Y104.943 E.06593
G1 X105.779 Y102.878 E.06485
G1 X106.116 Y100.831 E.06505
G1 X106.69 Y98.775 E.06693
G1 X107.418 Y96.948 E.06166
G1 X107.834 Y96.127 E.02886
G1 X108.224 Y95.689 E.01839
G1 X108.745 Y95.332 E.0198
G1 X109.231 Y95.149 E.01628
G1 X109.764 Y95.059 E.01695
G1 X110.214 Y95.06 E.01411
G1 X110.879 Y95.232 E.02154
G1 X111.311 Y95.451 E.01519
G1 X112.477 Y96.563 E.05052
G1 X112.874 Y97.205 E.02367
G1 X113.061 Y97.94 E.02378
M204 S1000
G1 X112.695 Y98.029 F10800
M204 S800
G1 F1200
