; generated by PrusaSlicer 2.6.0-beta2+win64 on 2023-05-24 at 19:01:08 UTC


;
;
; 

; external perimeters extrusion width = 0.45mm
; perimeters extrusion width = 0.45mm
; infill extrusion width = 0.45mm
; solid infill extrusion width = 0.45mm
; top infill extrusion width = 0.40mm
; support material extrusion width = 0.35mm
; first layer extrusion width = 0.42mm

M73 P0 R21
M73 Q0 S21
M201 X1000 Y1000 Z200 E5000 ; sets maximum accelerations, mm/sec^2
M203 X200 Y200 Z12 E120 ; sets maximum feedrates, mm / sec
M204 S1250 T1250 ; sets acceleration (S) and retract acceleration (R), mm/sec^2
M205 X8.00 Y8.00 Z0.40 E4.50 ; sets the jerk limits, mm/sec
M205 S0 T0 ; sets the minimum extruding and travel feed rate, mm/sec
;TYPE:Custom
M862.3 P "MK3S" ; printer model check
M862.1 P0.4 ; nozzle diameter check
M115 U3.11.0 ; tell printer latest fw version
G90 ; use absolute coordinates
M83 ; extruder relative mode
M104 S240 ; set extruder temp
M140 S85 ; set bed temp
M190 S85 ; wait for bed temp
M109 S240 ; wait for extruder temp
G28 W ; home all without mesh bed level
G80 ; mesh bed leveling
G1 Z0.2 F720
G1 Y-3 F1000 ; go outside print area
G92 E0
G1 X60 E9 F1000 ; intro line
G1 X100 E12.5 F1000 ; intro line
G92 E0
M221 S95

; Don't change E values below. Excessive value can damage the printer.
M907 E430 ; set extruder motor current
G21 ; set units to millimeters
G90 ; use absolute coordinates
M83 ; use relative distances for extrusion
M900 K0.08 ; Filament gcode LA 1.5
M900 K45 ; Filament gcode LA 1.0
M107
;LAYER_CHANGE
;Z:0.2
;HEIGHT:0.2
;BEFORE_LAYER_CHANGE
G92 E0.0
;0.2


G1 E-1 F2100
G1 Z.2 F720
;AFTER_LAYER_CHANGE
;0.2
G1 Z.4
G1 X110.249 Y91.864 F10800
G1 Z.2 F720
G1 E1 F2100
M204 S800
;TYPE:Skirt/Brim
;WIDTH:0.42
G1 F1200
G1 X111.663 Y90.433 E.06308
G1 X113.549 Y88.91 E.07601
G1 X115.246 Y87.826 E.06314
G1 X117.098 Y86.899 E.06494
G1 X119.034 Y86.172 E.06484
G1 X121.035 Y85.651 E.06483
G1 X123.079 Y85.343 E.06481
G1 X125.144 Y85.25 E.06481
G1 X126.921 Y85.343 E.05579
G1 X128.965 Y85.651 E.06481
G1 X130.966 Y86.172 E.06483
G1 X132.9 Y86.898 E.06477
G1 X134.75 Y87.824 E.06487
G1 X136.492 Y88.937 E.06482
G1 X138.105 Y90.223 E.06468
M73 P0 R20
G1 X139.575 Y91.671 E.0647
G1 X141.083 Y93.537 E.07522
G1 X142.149 Y95.198 E.06188
G1 X143.101 Y97.098 E.06663
G1 X143.824 Y99.023 E.06447
G1 X144.349 Y101.035 E.0652
G1 X144.657 Y103.079 E.06481
G1 X144.75 Y105.144 E.06481
G1 X144.627 Y107.208 E.06483
G1 X144.289 Y109.247 E.0648
G1 X143.828 Y110.966 E.0558
G1 X143.102 Y112.902 E.06483
G1 X142.176 Y114.75 E.06481
G1 X141.063 Y116.492 E.06482
G1 X139.774 Y118.109 E.06484
G1 X138.323 Y119.581 E.06481
G1 X136.492 Y121.063 E.07386
G1 X134.75 Y122.176 E.06482
G1 X132.902 Y123.101 E.0648
G1 X130.966 Y123.828 E.06484
G1 X128.966 Y124.349 E.0648
G1 X126.921 Y124.657 E.06484
G1 X124.867 Y124.751 E.06447
G1 X122.831 Y124.633 E.06394
G1 X120.817 Y124.305 E.06398
G1 X118.888 Y123.785 E.06264
G1 X117.105 Y123.104 E.05984
G1 X115.25 Y122.177 E.06502
G1 X113.508 Y121.063 E.06483
G1 X111.891 Y119.774 E.06484
G1 X110.419 Y118.323 E.06481
G1 X109.106 Y116.726 E.06482
G1 X107.968 Y115 E.06482
G1 X107.016 Y113.165 E.06482
G1 X106.267 Y111.256 E.0643
G1 X105.651 Y108.965 E.07438
G1 X105.343 Y106.921 E.06481
G1 X105.25 Y104.856 E.06481
M73 Q1 S21
G1 X105.373 Y102.792 E.06483
G1 X105.711 Y100.753 E.0648
M73 P1 R20
G1 X106.261 Y98.76 E.06482
G1 X106.978 Y96.912 E.06215
G1 X107.916 Y95.082 E.06448
G1 X108.963 Y93.468 E.06032
G1 X110.211 Y91.911 E.06257
M204 S1000
G1 X110.504 Y92.148 F10800
M204 S800
G1 F1200
G1 X111.927 Y90.702 E.06361
G1 X113.754 Y89.226 E.07364
G1 X115.417 Y88.162 E.0619
G1 X117.234 Y87.251 E.06373
G1 X119.131 Y86.536 E.06356
G1 X121.094 Y86.024 E.06361
G1 X123.099 Y85.719 E.06359
G1 X125.124 Y85.626 E.06356
G1 X126.902 Y85.719 E.05582
G1 X128.906 Y86.024 E.06356
G1 X130.869 Y86.536 E.06361
G1 X132.765 Y87.25 E.06352
G1 X134.579 Y88.16 E.06363
G1 X136.287 Y89.253 E.06358
G1 X137.868 Y90.516 E.06345
G1 X139.308 Y91.937 E.06343
G1 X140.767 Y93.743 E.0728
G1 X141.817 Y95.376 E.06087
G1 X142.749 Y97.233 E.06515
G1 X143.46 Y99.121 E.06326
G1 X143.976 Y101.094 E.06394
G1 X144.281 Y103.099 E.06359
G1 X144.374 Y105.124 E.06356
G1 X144.281 Y106.901 E.05579
G1 X143.976 Y108.906 E.06359
G1 X143.464 Y110.869 E.06361
G1 X142.749 Y112.766 E.06356
G1 X141.84 Y114.579 E.06359
G1 X140.747 Y116.287 E.06358
G1 X139.481 Y117.871 E.06358
G1 X138.056 Y119.314 E.06359
G1 X136.287 Y120.747 E.07138
G1 X134.579 Y121.84 E.06358
G1 X132.766 Y122.749 E.06359
G1 X130.959 Y123.438 E.06064
G1 X128.907 Y123.976 E.06651
G1 X126.902 Y124.281 E.06359
G1 X124.886 Y124.374 E.06328
G1 X122.885 Y124.26 E.06284
G1 X120.907 Y123.939 E.06283
G1 X119.041 Y123.438 E.06058
G1 X117.241 Y122.752 E.0604
G1 X115.421 Y121.841 E.06381
G1 X113.713 Y120.747 E.0636
G1 X112.129 Y119.481 E.06358
G1 X110.686 Y118.056 E.06359
G1 X109.399 Y116.488 E.0636
G1 X108.284 Y114.795 E.06356
G1 X107.352 Y112.993 E.06361
G1 X106.619 Y111.121 E.06303
G1 X106.024 Y108.906 E.07191
G1 X105.719 Y106.901 E.06359
G1 X105.626 Y104.876 E.06356
G1 X105.745 Y102.851 E.0636
G1 X106.075 Y100.85 E.06359
G1 X106.613 Y98.895 E.06358
G1 X107.319 Y97.072 E.0613
G1 X108.24 Y95.276 E.06328
G1 X109.342 Y93.586 E.06326
G1 X110.467 Y92.194 E.05612
M204 S1000
;WIPE_START
G1 F8640
G1 X111.927 Y90.702 E-.48201
G1 X113.672 Y89.292 E-.51799
;WIPE_END
G1 Z.4 F720
G1 X114.923 Y95.98 F10800
G1 Z.2 F720
G1 E1 F2100
M204 S800
G1 F1200
G1 X115.166 Y95.694 E.01177
G1 X116.233 Y94.684 E.04607
G1 X117.402 Y93.796 E.04603
G1 X118.658 Y93.041 E.04595
G1 X119.991 Y92.424 E.04606
G1 X121.392 Y91.953 E.04634
M73 Q1 S20
G1 X122.807 Y91.642 E.04543
G1 X124.253 Y91.484 E.04561
G1 X125.73 Y91.484 E.04631
G1 X127.195 Y91.643 E.0462
G1 X128.621 Y91.957 E.04578
G1 X130.016 Y92.427 E.04616
G1 X131.339 Y93.039 E.0457
G1 X132.598 Y93.796 E.04606
G1 X133.766 Y94.683 E.04599
G1 X134.83 Y95.691 E.04595
G1 X135.78 Y96.808 E.04598
G1 X136.603 Y98.021 E.04596
G1 X137.292 Y99.318 E.04605
G1 X137.833 Y100.675 E.0458
G1 X138.227 Y102.091 E.04608
G1 X138.466 Y103.537 E.04595
G1 X138.546 Y105 E.04594
G1 X138.466 Y106.463 E.04594
G1 X138.227 Y107.91 E.04598
G1 X137.834 Y109.322 E.04596
G1 X137.29 Y110.684 E.04598
G1 X136.603 Y111.979 E.04596
G1 X135.78 Y113.192 E.04596
G1 X134.827 Y114.312 E.04611
G1 X133.769 Y115.314 E.04569
G1 X132.598 Y116.204 E.04612
G1 X131.342 Y116.959 E.04595
G1 X130.009 Y117.576 E.04606
G1 X128.616 Y118.044 E.04608
G1 X127.184 Y118.36 E.04598
G1 X125.729 Y118.518 E.04589
G1 X125 Y118.53 E.02286
G1 X124.271 Y118.518 E.02286
G1 X122.816 Y118.36 E.04589
G1 X121.384 Y118.045 E.04597
G1 X119.986 Y117.574 E.04625
G1 X118.663 Y116.962 E.0457
G1 X117.402 Y116.204 E.04613
G1 X116.235 Y115.317 E.04596
G1 X115.17 Y114.309 E.04598
G1 X114.22 Y113.192 E.04598
G1 X113.397 Y111.979 E.04596
G1 X112.709 Y110.682 E.04603
G1 X112.167 Y109.324 E.04585
G1 X111.773 Y107.909 E.04605
G1 X111.534 Y106.463 E.04595
G1 X111.454 Y105 E.04594
G1 X111.534 Y103.537 E.04594
G1 X111.773 Y102.09 E.04598
G1 X112.166 Y100.678 E.04596
G1 X112.71 Y99.316 E.04598
G1 X113.398 Y98.019 E.04603
G1 X114.218 Y96.81 E.0458
G1 X114.884 Y96.026 E.03225
M204 S1000
G1 X114.597 Y95.782 F10800
M204 S800
G1 F1200
G1 X114.892 Y95.434 E.0143
G1 X115.989 Y94.396 E.04735
G1 X117.19 Y93.484 E.04728
G1 X118.481 Y92.707 E.04724
G1 X119.852 Y92.074 E.04735
G1 X121.288 Y91.59 E.04751
G1 X122.749 Y91.269 E.0469
G1 X124.233 Y91.107 E.04681
G1 X125.751 Y91.107 E.0476
G1 X127.256 Y91.27 E.04746
G1 X128.722 Y91.593 E.04707
G1 X130.156 Y92.076 E.04744
G1 X131.516 Y92.706 E.04699
G1 X132.81 Y93.484 E.04734
G1 X134.01 Y94.395 E.04724
G1 X135.104 Y95.431 E.04724
G1 X136.08 Y96.579 E.04725
M73 Q2 S20
G1 X136.927 Y97.826 E.04727
M73 P2 R20
G1 X137.634 Y99.159 E.04731
G1 X138.191 Y100.555 E.04713
G1 X138.596 Y102.009 E.04732
G1 X138.841 Y103.496 E.04725
G1 X138.924 Y105 E.04723
G1 X138.841 Y106.504 E.04723
G1 X138.596 Y107.991 E.04725
G1 X138.192 Y109.443 E.04726
G1 X137.633 Y110.843 E.04727
G1 X136.926 Y112.174 E.04725
G1 X136.08 Y113.421 E.04725
G1 X135.101 Y114.572 E.04738
G1 X134.013 Y115.602 E.04698
G1 X132.81 Y116.516 E.04737
G1 X131.519 Y117.293 E.04724
G1 X130.148 Y117.926 E.04735
G1 X128.717 Y118.408 E.04734
G1 X127.245 Y118.732 E.04726
G1 X125.753 Y118.894 E.04706
G1 X125 Y118.907 E.02361
G1 X124.247 Y118.894 E.02361
G1 X122.755 Y118.732 E.04706
G1 X121.283 Y118.409 E.04725
G1 X119.847 Y117.925 E.04751
G1 X118.486 Y117.296 E.04701
G1 X117.19 Y116.516 E.04743
G1 X115.99 Y115.605 E.04724
G1 X114.896 Y114.569 E.04724
G1 X113.92 Y113.421 E.04725
G1 X113.074 Y112.174 E.04725
G1 X112.366 Y110.841 E.04732
G1 X111.809 Y109.445 E.04713
G1 X111.404 Y107.991 E.04732
G1 X111.159 Y106.504 E.04725
G1 X111.076 Y105 E.04723
G1 X111.159 Y103.496 E.04723
G1 X111.404 Y102.009 E.04725
G1 X111.808 Y100.557 E.04726
G1 X112.367 Y99.157 E.04727
G1 X113.075 Y97.824 E.04732
G1 X113.917 Y96.581 E.04707
G1 X114.558 Y95.827 E.03103
M204 S1000
G1 X114.27 Y95.583 F10800
M204 S800
G1 F1200
G1 X114.618 Y95.174 E.01684
G1 X115.744 Y94.109 E.0486
G1 X116.978 Y93.171 E.0486
G1 X118.305 Y92.374 E.04853
G1 X119.712 Y91.723 E.04861
G1 X121.185 Y91.227 E.04873
G1 X122.688 Y90.896 E.04825
G1 X123.456 Y90.8 E.02427
G1 X124.215 Y90.73 E.0239
G1 X125.771 Y90.73 E.04879
G1 X127.317 Y90.898 E.04876
G1 X128.824 Y91.229 E.04838
G1 X130.296 Y91.725 E.0487
G1 X131.693 Y92.372 E.04827
G1 X133.022 Y93.171 E.04862
G1 X134.254 Y94.107 E.04851
G1 X135.378 Y95.171 E.04853
G1 X136.381 Y96.351 E.04856
G1 X137.25 Y97.631 E.04851
G1 X137.977 Y99 E.0486
G1 X138.549 Y100.434 E.04841
G1 X138.965 Y101.928 E.04863
G1 X139.216 Y103.455 E.04852
G1 X139.301 Y105 E.04852
G1 X139.216 Y106.545 E.04852
G1 X138.965 Y108.072 E.04852
G1 X138.55 Y109.564 E.04856
G1 X137.976 Y111.002 E.04855
G1 X137.25 Y112.369 E.04853
G1 X136.381 Y113.649 E.04851
G1 X135.375 Y114.832 E.04869
G1 X134.258 Y115.89 E.04824
G1 X133.022 Y116.829 E.04867
G1 X131.695 Y117.626 E.04853
G1 X130.288 Y118.277 E.04861
G1 X128.818 Y118.772 E.04863
G1 X127.309 Y119.104 E.04845
G1 X126.544 Y119.2 E.02417
G1 X125.773 Y119.271 E.02428
G1 X125 Y119.284 E.02424
G1 X124.227 Y119.271 E.02424
G1 X123.456 Y119.2 E.02428
G1 X122.691 Y119.104 E.02417
G1 X121.182 Y118.772 E.04845
G1 X119.707 Y118.276 E.04879
G1 X118.309 Y117.629 E.0483
G1 X116.978 Y116.829 E.04869
G1 X115.746 Y115.892 E.04853
G1 X114.622 Y114.828 E.04853
G1 X113.619 Y113.649 E.04853
G1 X112.75 Y112.369 E.04851
G1 X112.023 Y110.999 E.04863
G1 X111.451 Y109.566 E.04838
G1 X111.035 Y108.072 E.04863
G1 X110.784 Y106.545 E.04852
G1 X110.699 Y105 E.04852
G1 X110.784 Y103.455 E.04852
G1 X111.035 Y101.928 E.04852
G1 X111.451 Y100.436 E.04856
G1 X112.024 Y98.998 E.04854
G1 X112.751 Y97.629 E.0486
G1 X113.617 Y96.353 E.04835
G1 X114.232 Y95.629 E.02978
M204 S1000
G1 X113.944 Y95.385 F10800
M204 S800
G1 F1200
G1 X114.344 Y94.914 E.01937
G1 X115.5 Y93.821 E.04988
G1 X116.766 Y92.859 E.04985
G1 X118.128 Y92.04 E.04983
G1 X119.572 Y91.372 E.04989
G1 X121.081 Y90.864 E.04992
G1 X122.627 Y90.524 E.04963
G1 X123.415 Y90.425 E.0249
G1 X124.198 Y90.353 E.02465
G1 X125.791 Y90.353 E.04995
G1 X127.378 Y90.525 E.05005
G1 X128.925 Y90.865 E.04966
G1 X130.436 Y91.375 E.05
G1 X131.87 Y92.038 E.04954
G1 X133.234 Y92.859 E.04992
G1 X134.499 Y93.82 E.04981
G1 X135.652 Y94.912 E.04979
G1 X136.681 Y96.122 E.0498
G1 X137.574 Y97.436 E.04981
G1 X138.32 Y98.842 E.04991
G1 X138.907 Y100.313 E.04966
G1 X139.333 Y101.846 E.04989
G1 X139.592 Y103.414 E.04983
G1 X139.679 Y105 E.0498
G1 X139.592 Y106.586 E.0498
G1 X139.333 Y108.154 E.04983
G1 X138.907 Y109.685 E.04983
G1 X138.318 Y111.16 E.0498
G1 X137.573 Y112.564 E.04984
G1 X136.681 Y113.878 E.0498
G1 X135.649 Y115.092 E.04996
G1 X134.502 Y116.178 E.04953
G1 X133.234 Y117.141 E.04992
G1 X131.872 Y117.96 E.04983
G1 X130.428 Y118.628 E.04989
G1 X128.919 Y119.136 E.04992
G1 X127.373 Y119.476 E.04963
G1 X126.585 Y119.575 E.0249
G1 X125.794 Y119.648 E.02491
G1 X125 Y119.662 E.0249
G1 X124.206 Y119.648 E.0249
G1 X123.415 Y119.575 E.02491
G1 X122.627 Y119.476 E.0249
G1 X121.081 Y119.136 E.04963
G1 X119.567 Y118.626 E.05009
G1 X118.132 Y117.963 E.04956
G1 X116.766 Y117.141 E.04999
G1 X115.501 Y116.18 E.04981
G1 X114.348 Y115.088 E.04979
G1 X113.319 Y113.878 E.0498
G1 X112.427 Y112.564 E.0498
G1 X111.681 Y111.158 E.04991
G1 X111.093 Y109.687 E.04967
G1 X110.667 Y108.154 E.04989
G1 X110.408 Y106.586 E.04983
G1 X110.321 Y105 E.0498
G1 X110.408 Y103.414 E.0498
G1 X110.667 Y101.846 E.04983
G1 X111.093 Y100.315 E.04983
G1 X111.682 Y98.84 E.0498
G1 X112.428 Y97.434 E.04991
G1 X113.316 Y96.124 E.04962
G1 X113.905 Y95.431 E.02852
M204 S1000
G1 X113.618 Y95.186 F10800
M204 S800
G1 F1200
G1 X114.07 Y94.655 E.02186
G1 X115.256 Y93.533 E.05119
G1 X116.555 Y92.546 E.05115
G1 X117.951 Y91.706 E.05108
G1 X119.433 Y91.021 E.05119
G1 X120.977 Y90.501 E.05108
M73 P3 R20
M73 Q3 S20
G1 X121.768 Y90.314 E.02548
G1 X122.566 Y90.152 E.02553
G1 X123.374 Y90.05 E.02554
G1 X124.181 Y89.976 E.02541
G1 X125.812 Y89.976 E.05114
G1 X127.436 Y90.152 E.05122
G1 X128.232 Y90.314 E.02547
G1 X129.028 Y90.502 E.02564
G1 X130.575 Y91.024 E.05119
G1 X132.047 Y91.705 E.05085
G1 X133.445 Y92.546 E.05115
G1 X134.743 Y93.532 E.05111
G1 X135.927 Y94.652 E.0511
G1 X136.982 Y95.893 E.05107
G1 X137.897 Y97.241 E.05108
G1 X138.662 Y98.683 E.05118
G1 X139.265 Y100.192 E.05095
G1 X139.702 Y101.765 E.05119
G1 X139.967 Y103.373 E.0511
G1 X140.057 Y105 E.05109
G1 X139.967 Y106.627 E.05109
G1 X139.702 Y108.235 E.0511
G1 X139.265 Y109.805 E.0511
G1 X138.661 Y111.319 E.05111
G1 X137.897 Y112.758 E.05108
G1 X136.982 Y114.107 E.05111
G1 X135.923 Y115.352 E.05125
G1 X134.747 Y116.466 E.05079
G1 X133.445 Y117.454 E.05125
G1 X132.049 Y118.294 E.05108
G1 X130.567 Y118.979 E.05119
G1 X129.023 Y119.499 E.05108
G1 X128.232 Y119.686 E.02548
G1 X127.434 Y119.849 E.02554
G1 X126.626 Y119.95 E.02553
G1 X125.814 Y120.025 E.02557
G1 X125 Y120.039 E.02553
G1 X124.186 Y120.025 E.02553
G1 X123.374 Y119.95 E.02557
G1 X122.566 Y119.849 E.02553
G1 X121.768 Y119.686 E.02554
G1 X120.977 Y119.499 E.02548
G1 X119.428 Y118.977 E.05125
G1 X117.956 Y118.297 E.05084
G1 X116.555 Y117.454 E.05127
G1 X115.257 Y116.468 E.05111
G1 X114.074 Y115.348 E.05108
G1 X113.018 Y114.107 E.05109
G1 X112.103 Y112.758 E.05111
G1 X111.338 Y111.317 E.05115
G1 X110.736 Y109.808 E.05094
G1 X110.298 Y108.235 E.0512
G1 X110.033 Y106.627 E.0511
G1 X109.943 Y105 E.05109
G1 X110.033 Y103.373 E.05109
G1 X110.298 Y101.765 E.0511
G1 X110.735 Y100.195 E.0511
G1 X111.339 Y98.681 E.05111
G1 X112.104 Y97.239 E.05118
G1 X113.016 Y95.896 E.0509
G1 X113.579 Y95.232 E.0273
M204 S1000
G1 X113.285 Y94.986 F10800
M204 S800
G1 F1200
G1 X113.797 Y94.394 E.02454
G1 X115.012 Y93.244 E.05245
G1 X116.343 Y92.233 E.05241
G1 X117.774 Y91.373 E.05235
G1 X119.293 Y90.67 E.05248
G1 X120.873 Y90.138 E.05227
G1 X121.687 Y89.946 E.02622
G1 X122.505 Y89.779 E.02618
G1 X123.334 Y89.675 E.0262
G1 X124.163 Y89.599 E.0261
G1 X125.832 Y89.599 E.05233
G1 X127.494 Y89.779 E.05242
G1 X128.313 Y89.946 E.02621
G1 X129.128 Y90.138 E.02625
G1 X129.517 Y90.26 E.01278
G1 X130.712 Y90.672 E.03963
G1 X132.225 Y91.372 E.05227
G1 X133.657 Y92.233 E.05239
G1 X134.987 Y93.244 E.05238
G1 X136.201 Y94.392 E.05239
G1 X137.282 Y95.665 E.05236
G1 X138.221 Y97.047 E.05239
G1 X139.004 Y98.523 E.05239
G1 X139.623 Y100.073 E.05233
G1 X140.071 Y101.683 E.0524
G1 X140.342 Y103.332 E.0524
G1 X140.434 Y105 E.05238
G1 X140.342 Y106.668 E.05238
G1 X140.071 Y108.317 E.0524
G1 X139.623 Y109.926 E.05237
G1 X139.004 Y111.478 E.05239
G1 X138.22 Y112.953 E.05237
G1 X137.282 Y114.335 E.05237
G1 X136.199 Y115.61 E.05245
G1 X134.989 Y116.755 E.05223
G1 X133.657 Y117.767 E.05245
G1 X132.226 Y118.627 E.05235
G1 X130.707 Y119.33 E.05248
G1 X129.127 Y119.862 E.05227
G1 X128.313 Y120.054 E.02622
G1 X127.495 Y120.221 E.02618
G1 X126.667 Y120.325 E.02617
G1 X125.835 Y120.401 E.0262
G1 X125 Y120.416 E.02619
G1 X124.165 Y120.401 E.02619
G1 X123.333 Y120.325 E.0262
G1 X122.505 Y120.221 E.02617
G1 X121.687 Y120.055 E.02617
G1 X120.873 Y119.862 E.02623
G1 X119.29 Y119.329 E.05237
G1 X117.777 Y118.629 E.05227
