; generated by PrusaSlicer 2.6.0-beta2+win64 on 2023-05-23 at 16:03:02 UTC


;
;
; 

; external perimeters extrusion width = 0.45mm
; perimeters extrusion width = 0.45mm
; infill extrusion width = 0.45mm
; solid infill extrusion width = 0.45mm
; top infill extrusion width = 0.40mm
; support material extrusion width = 0.35mm
; first layer extrusion width = 0.42mm

M73 P0 R44
M73 Q0 S44
M201 X1000 Y1000 Z200 E5000 ; sets maximum accelerations, mm/sec^2
M203 X200 Y200 Z12 E120 ; sets maximum feedrates, mm / sec
M204 S1250 T1250 ; sets acceleration (S) and retract acceleration (R), mm/sec^2
M205 X8.00 Y8.00 Z0.40 E4.50 ; sets the jerk limits, mm/sec
M205 S0 T0 ; sets the minimum extruding and travel feed rate, mm/sec
;TYPE:Custom
M862.3 P "MK3S" ; printer model check
M862.1 P0.4 ; nozzle diameter check
M115 U3.11.0 ; tell printer latest fw version
G90 ; use absolute coordinates
M83 ; extruder relative mode
M104 S240 ; set extruder temp
M140 S85 ; set bed temp
M190 S85 ; wait for bed temp
M109 S240 ; wait for extruder temp
G28 W ; home all without mesh bed level
G80 ; mesh bed leveling
G1 Z0.2 F720
G1 Y-3 F1000 ; go outside print area
G92 E0
G1 X60 E9 F1000 ; intro line
G1 X100 E12.5 F1000 ; intro line
G92 E0
M221 S95

; Don't change E values below. Excessive value can damage the printer.
M907 E430 ; set extruder motor current
G21 ; set units to millimeters
G90 ; use absolute coordinates
M83 ; use relative distances for extrusion
M900 K0.08 ; Filament gcode LA 1.5
M900 K45 ; Filament gcode LA 1.0
M107
;LAYER_CHANGE
;Z:0.2
;HEIGHT:0.2
;BEFORE_LAYER_CHANGE
G92 E0.0
;0.2


G1 E-1 F2100
M73 P0 R43
G1 Z.2 F720
;AFTER_LAYER_CHANGE
;0.2
G1 Z.4
G1 X105.805 Y93.698 F10800
G1 Z.2 F720
G1 E1 F2100
M204 S800
;TYPE:Skirt/Brim
;WIDTH:0.42
G1 F1200
G1 X112.101 Y86.588 E.29777
G1 X112.748 Y86.074 E.02591
G1 X114.505 Y85.122 E.06266
G1 X117.306 Y83.763 E.09761
G1 X117.917 Y83.563 E.02016
G1 X121.337 Y82.941 E.10899
G1 X123.655 Y82.682 E.07313
G1 X126.333 Y82.682 E.08397
G1 X128.666 Y82.942 E.0736
G1 X132.083 Y83.563 E.10889
G1 X132.694 Y83.763 E.02016
G1 X135.383 Y85.065 E.09367
G1 X137.252 Y86.074 E.0666
G1 X137.876 Y86.563 E.02486
G1 X144.12 Y93.42 E.29078
G1 X144.811 Y94.604 E.04298
G1 X146.037 Y97.673 E.10362
G1 X146.769 Y100.255 E.08415
G1 X147.154 Y102.634 E.07556
G1 X147.276 Y104.783 E.06749
G1 X147.13 Y107.565 E.08735
G1 X146.75 Y109.829 E.07198
G1 X146.099 Y112.155 E.07573
G1 X145.2 Y114.397 E.07574
G1 X144.064 Y116.529 E.07574
G1 X142.703 Y118.525 E.07575
G1 X141.134 Y120.363 E.07577
G1 X139.375 Y122.019 E.07575
G1 X137.672 Y123.319 E.06718
G1 X135.265 Y124.769 E.08811
G1 X133.228 Y125.701 E.07024
G1 X130.795 Y126.582 E.08113
G1 X130.026 Y126.722 E.02451
G1 X120.495 Y126.879 E.29888
G1 X119.573 Y126.717 E.02935
G1 X116.649 Y125.651 E.09758
G1 X114.627 Y124.715 E.06986
G1 X112.655 Y123.542 E.07194
G1 X110.719 Y122.096 E.07576
G1 X109.704 Y121.167 E.04314
G1 X108.759 Y120.249 E.04131
G1 X107.205 Y118.403 E.07566
G1 X105.936 Y116.529 E.07096
G1 X104.8 Y114.397 E.07574
G1 X103.901 Y112.155 E.07574
G1 X103.423 Y110.49 E.05431
G1 X103.198 Y109.575 E.02954
G1 X102.831 Y107.19 E.07566
G1 X102.72 Y105.039 E.06753
G1 X102.864 Y102.475 E.08052
G1 X103.232 Y100.25 E.07071
G1 X103.836 Y98.042 E.07177
G1 X105.189 Y94.604 E.11584
G1 X105.617 Y93.91 E.02557
G1 X105.765 Y93.743 E.007
M204 S1000
;WIPE_START
G1 F8640
G1 X108.636 Y90.501 E-1
;WIPE_END
G1 Z.4 F720
G1 X137.186 Y98.314 F10800
G1 Z.2 F720
G1 E1 F2100
M204 S800
G1 F1200
G1 X137.354 Y97.739 E.01878
G1 X137.64 Y97.23 E.01831
G1 X138.79 Y96.103 E.05049
G1 X139.443 Y95.738 E.02346
G1 X140.025 Y95.599 E.01876
G1 X140.611 Y95.603 E.01837
G1 X141.19 Y95.736 E.01863
G1 X141.709 Y95.98 E.01798
G1 X142.219 Y96.407 E.02086
G1 X142.595 Y96.945 E.02058
G1 X143.338 Y98.815 E.06309
G1 X143.886 Y100.773 E.06375
G1 X144.241 Y102.922 E.06829
G1 X144.353 Y105.012 E.06562
G1 X144.236 Y107.124 E.06632
G1 X143.893 Y109.191 E.0657
G1 X143.349 Y111.15 E.06375
G1 X142.596 Y113.055 E.06423
G1 X141.609 Y114.932 E.06649
G1 X140.424 Y116.687 E.0664
G1 X139.056 Y118.301 E.06634
G1 X137.507 Y119.766 E.06685
G1 X135.832 Y121.035 E.06589
G1 X134.075 Y122.091 E.06427
G1 X132.226 Y122.949 E.06391
G1 X130.915 Y123.408 E.04355
G1 X130.336 Y123.454 E.01821
G1 X129.896 Y123.395 E.01392
G1 X129.462 Y123.259 E.01426
G1 X128.786 Y122.832 E.02507
G1 X128.445 Y122.499 E.01494
G1 X128.056 Y121.824 E.02443
G1 X127.919 Y121.325 E.01622
G1 X127.921 Y119.654 E.05239
G1 X128.098 Y119.029 E.02037
G1 X128.504 Y118.376 E.02411
G1 X129.155 Y117.83 E.02664
G1 X130.817 Y117.11 E.05679
G1 X132.113 Y116.397 E.04638
G1 X133.317 Y115.55 E.04616
G1 X134.421 Y114.578 E.04612
G1 X135.413 Y113.49 E.04616
G1 X136.279 Y112.3 E.04615
G1 X137.013 Y111.019 E.04629
G1 X137.596 Y109.678 E.04585
G1 X138.033 Y108.267 E.04631
G1 X138.313 Y106.822 E.04615
G1 X138.433 Y105.355 E.04615
G1 X138.392 Y103.884 E.04614
M73 Q0 S43
G1 X138.19 Y102.426 E.04615
G1 X137.828 Y100.995 E.04628
G1 X137.241 Y99.401 E.05326
G1 X137.189 Y98.374 E.03224
M204 S1000
G1 X137.558 Y98.385 F10800
M204 S800
G1 F1200
G1 X137.694 Y97.903 E.0157
G1 X137.955 Y97.439 E.01669
G1 X139.034 Y96.39 E.04718
G1 X139.559 Y96.098 E.01884
G1 X140.05 Y95.976 E.01586
G1 X140.55 Y95.976 E.01568
G1 X141.053 Y96.088 E.01616
G1 X141.49 Y96.287 E.01506
G1 X141.928 Y96.647 E.01778
G1 X142.253 Y97.106 E.01763
G1 X142.984 Y98.945 E.06205
G1 X143.52 Y100.865 E.0625
G1 X143.868 Y102.973 E.06699
G1 X143.976 Y105.021 E.0643
G1 X143.862 Y107.073 E.06444
G1 X143.527 Y109.1 E.06442
G1 X142.989 Y111.04 E.06312
G1 X142.249 Y112.907 E.06297
G1 X141.28 Y114.747 E.0652
G1 X140.118 Y116.467 E.06508
G1 X138.775 Y118.049 E.06507
G1 X137.271 Y119.472 E.06492
G1 X135.629 Y120.717 E.06461
G1 X133.89 Y121.762 E.06361
G1 X132.075 Y122.603 E.06272
G1 X130.858 Y123.035 E.04049
G1 X130.365 Y123.077 E.01551
G1 X129.963 Y123.024 E.01271
G1 X129.602 Y122.908 E.01189
G1 X129.007 Y122.527 E.02215
G1 X128.73 Y122.25 E.01228
G1 X128.411 Y121.696 E.02004
G1 X128.296 Y121.298 E.01299
G1 X128.298 Y119.682 E.05067
G1 X128.452 Y119.16 E.01706
G1 X128.77 Y118.645 E.01898
G1 X129.376 Y118.137 E.02479
G1 X130.982 Y117.449 E.05478
G1 X132.313 Y116.717 E.04763
G1 X133.551 Y115.847 E.04744
G1 X134.686 Y114.847 E.04743
G1 X135.705 Y113.729 E.04743
G1 X136.596 Y112.505 E.04747
G1 X137.35 Y111.188 E.04758
G1 X137.95 Y109.809 E.04715
G1 X138.4 Y108.359 E.0476
G1 X138.687 Y106.874 E.04742
G1 X138.81 Y105.365 E.04747
G1 X138.768 Y103.853 E.04743
G1 X138.56 Y102.354 E.04745
G1 X138.189 Y100.883 E.04757
G1 X137.604 Y99.297 E.053
G1 X137.561 Y98.445 E.02675
M204 S1000
G1 X137.929 Y98.458 F10800
M204 S800
G1 F1200
G1 X138.05 Y98.029 E.01398
G1 X138.268 Y97.651 E.01368
G1 X139.278 Y96.679 E.04395
G1 X139.678 Y96.456 E.01436
G1 X140.078 Y96.353 E.01295
G1 X140.49 Y96.349 E.01292
G1 X140.952 Y96.452 E.01484
G1 X141.274 Y96.597 E.01107
G1 X141.638 Y96.89 E.01465
G1 X141.912 Y97.268 E.01464
G1 X142.63 Y99.075 E.06097
G1 X143.154 Y100.956 E.06122
G1 X143.492 Y103.003 E.06505
G1 X143.599 Y105.011 E.06305
G1 X143.489 Y107.022 E.06315
G1 X143.161 Y109.009 E.06314
G1 X142.634 Y110.91 E.06185
G1 X141.902 Y112.759 E.06235
G1 X140.962 Y114.545 E.06328
G1 X139.823 Y116.231 E.0638
G1 X138.508 Y117.783 E.06378
G1 X137.035 Y119.178 E.06361
G1 X135.426 Y120.399 E.06333
G1 X133.704 Y121.434 E.06299
G1 X131.924 Y122.258 E.0615
G1 X130.797 Y122.662 E.03754
G1 X130.392 Y122.701 E.01276
G1 X130.031 Y122.652 E.01142
G1 X129.744 Y122.558 E.00947
G1 X129.232 Y122.223 E.01918
G1 X129.016 Y122.004 E.00964
G1 X128.765 Y121.564 E.01588
G1 X128.673 Y121.268 E.00972
G1 X128.675 Y119.712 E.04879
G1 X128.805 Y119.294 E.01373
G1 X129.036 Y118.914 E.01394
G1 X129.596 Y118.444 E.02292
G1 X131.146 Y117.789 E.05276
G1 X132.513 Y117.037 E.04892
G1 X133.785 Y116.144 E.04873
G1 X134.951 Y115.116 E.04874
G1 X135.998 Y113.967 E.04874
G1 X136.913 Y112.711 E.04872
G1 X137.688 Y111.357 E.04892
G1 X138.304 Y109.941 E.04842
G1 X138.766 Y108.451 E.04891
G1 X139.061 Y106.925 E.04873
G1 X139.188 Y105.376 E.04873
G1 X139.144 Y103.821 E.04878
G1 X138.931 Y102.281 E.04875
G1 X138.55 Y100.771 E.04883
G1 X137.968 Y99.193 E.05273
G1 X137.932 Y98.518 E.02119
M204 S1000
G1 X138.301 Y98.526 F10800
M204 S800
G1 F1200
G1 X138.39 Y98.195 E.01075
G1 X138.581 Y97.863 E.01201
G1 X139.52 Y96.969 E.04065
G1 X139.799 Y96.814 E.01001
G1 X140.112 Y96.729 E.01017
G1 X140.431 Y96.722 E.01
G1 X140.852 Y96.816 E.01353
G1 X141.057 Y96.907 E.00703
G1 X141.382 Y97.168 E.01307
G1 X141.57 Y97.428 E.01006
G1 X142.276 Y99.205 E.05995
G1 X142.788 Y101.047 E.05994
G1 X143.116 Y103.034 E.06314
G1 X143.222 Y105.001 E.06176
G1 X143.115 Y106.971 E.06186
G1 X142.795 Y108.918 E.06187
G1 X142.274 Y110.8 E.06123
G1 X141.556 Y112.61 E.06105
G1 X140.633 Y114.36 E.06203
M73 Q1 S43
G1 X139.517 Y116.011 E.06248
G1 X138.241 Y117.516 E.06187
M73 P1 R43
G1 X136.798 Y118.884 E.06234
G1 X135.223 Y120.081 E.06203
G1 X133.519 Y121.105 E.06233
G1 X131.773 Y121.912 E.06031
G1 X130.733 Y122.29 E.0347
G1 X130.419 Y122.324 E.0099
G1 X130.1 Y122.281 E.01009
G1 X129.89 Y122.21 E.00695
G1 X129.46 Y121.922 E.01623
G1 X129.306 Y121.762 E.00696
G1 X129.105 Y121.401 E.01296
G1 X129.042 Y121.188 E.00696
G1 X129.044 Y119.797 E.04361
G1 X129.157 Y119.43 E.01204
G1 X129.339 Y119.14 E.01074
G1 X129.769 Y118.781 E.01756
G1 X131.311 Y118.129 E.05249
G1 X132.713 Y117.358 E.05017
G1 X134.018 Y116.44 E.05003
G1 X135.216 Y115.385 E.05005
G1 X136.291 Y114.206 E.05003
G1 X137.23 Y112.916 E.05003
G1 X138.025 Y111.527 E.05018
G1 X138.658 Y110.072 E.04975
G1 X139.132 Y108.543 E.05019
G1 X139.435 Y106.976 E.05004
G1 X139.565 Y105.386 E.05002
G1 X139.521 Y103.79 E.05006
G1 X139.302 Y102.209 E.05004
G1 X138.91 Y100.66 E.0501
G1 X138.331 Y99.089 E.0525
G1 X138.304 Y98.586 E.01579
M204 S1000
G1 X138.673 Y98.594 F10800
M204 S800
G1 F1200
G1 X138.747 Y98.319 E.00893
G1 X138.89 Y98.08 E.00873
G1 X139.761 Y97.26 E.03751
G1 X139.92 Y97.172 E.0057
G1 X140.189 Y97.099 E.00874
G1 X140.371 Y97.095 E.00571
G1 X140.749 Y97.179 E.01214
G1 X140.875 Y97.237 E.00435
G1 X141.122 Y97.442 E.01006
G1 X141.228 Y97.589 E.00568
G1 X141.915 Y99.316 E.05828
G1 X142.422 Y101.138 E.0593
G1 X142.74 Y103.065 E.06124
G1 X142.845 Y104.991 E.06048
G1 X142.741 Y106.92 E.06057
G1 X142.429 Y108.828 E.06062
G1 X141.919 Y110.67 E.05993
G1 X141.209 Y112.462 E.06044
G1 X140.304 Y114.175 E.06074
G1 X139.222 Y115.775 E.06056
G1 X137.974 Y117.25 E.06058
G1 X136.562 Y118.59 E.06104
G1 X135.02 Y119.763 E.06075
G1 X133.351 Y120.767 E.06107
G1 X131.622 Y121.567 E.05973
G1 X130.626 Y121.928 E.03322
G1 X130.446 Y121.947 E.00568
G1 X130.171 Y121.91 E.0087
G1 X130.042 Y121.864 E.00429
G1 X129.693 Y121.625 E.01326
G1 X129.6 Y121.525 E.00428
G1 X129.448 Y121.244 E.01002
G1 X129.413 Y121.114 E.00422
G1 X129.414 Y119.875 E.03885
G1 X129.491 Y119.607 E.00874
G1 X129.643 Y119.366 E.00893
G1 X129.941 Y119.117 E.01218
G1 X131.476 Y118.469 E.05224
G1 X132.913 Y117.678 E.05143
G1 X134.252 Y116.737 E.05131
G1 X135.481 Y115.655 E.05134
G1 X136.583 Y114.445 E.05131
G1 X137.547 Y113.121 E.05135
G1 X138.363 Y111.696 E.05149
G1 X139.012 Y110.203 E.05104
G1 X139.498 Y108.635 E.05147
G1 X139.81 Y107.028 E.05133
G1 X139.943 Y105.396 E.05134
G1 X139.897 Y103.759 E.05135
G1 X139.672 Y102.137 E.05134
G1 X139.271 Y100.548 E.05138
G1 X138.695 Y98.985 E.05223
G1 X138.676 Y98.654 E.0104
M204 S1000
G1 X139.045 Y98.662 F10800
M204 S800
G1 F1200
G1 X139.103 Y98.447 E.00698
G1 X139.193 Y98.304 E.0053
G1 X140.041 Y97.53 E.036
G1 X140.311 Y97.468 E.00869
G1 X140.641 Y97.542 E.0106
G1 X140.859 Y97.713 E.00869
G1 X141.555 Y99.427 E.058
G1 X142.056 Y101.229 E.05864
G1 X142.364 Y103.096 E.05933
G1 X142.468 Y104.981 E.05919
G1 X142.367 Y106.87 E.05931
G1 X142.063 Y108.737 E.05931
G1 X141.559 Y110.56 E.0593
G1 X140.862 Y112.313 E.05915
G1 X139.976 Y113.989 E.05944
G1 X138.916 Y115.555 E.05929
G1 X137.693 Y116.998 E.05931
G1 X136.325 Y118.297 E.05915
G1 X134.817 Y119.446 E.05944
G1 X133.183 Y120.429 E.05979
G1 X131.471 Y121.221 E.05914
G1 X130.519 Y121.565 E.03174
G1 X130.246 Y121.54 E.0086
G1 X129.931 Y121.332 E.01184
G1 X129.784 Y121.05 E.00997
G1 X129.784 Y119.945 E.03465
G1 X129.828 Y119.781 E.00532
G1 X129.946 Y119.592 E.00699
G1 X130.113 Y119.454 E.00679
G1 X131.64 Y118.809 E.05197
G1 X133.113 Y117.999 E.05271
G1 X134.486 Y117.034 E.05262
G1 X135.745 Y115.924 E.05263
G1 X136.876 Y114.683 E.05265
G1 X137.864 Y113.326 E.05263
G1 X138.699 Y111.868 E.05268
G1 X139.367 Y110.333 E.05249
G1 X139.865 Y108.727 E.05272
G1 X140.184 Y107.079 E.05263
G1 X140.32 Y105.406 E.05263
G1 X140.273 Y103.728 E.05263
G1 X140.043 Y102.065 E.05264
G1 X139.632 Y100.436 E.05268
G1 X139.058 Y98.88 E.052
G1 X139.049 Y98.722 E.00496
M204 S1000
G1 X139.418 Y98.72 F10800
M204 S800
G1 F1200
G1 X139.473 Y98.559 E.00533
G1 X140.207 Y97.875 E.03146
G1 X140.297 Y97.851 E.00292
G1 X140.491 Y97.894 E.00623
G1 X140.562 Y97.955 E.00293
G1 X141.194 Y99.538 E.05344
G1 X141.69 Y101.321 E.05803
G1 X141.99 Y103.147 E.05802
G1 X142.091 Y104.992 E.05794
G1 X141.991 Y106.839 E.058
G1 X141.692 Y108.666 E.05805
G1 X141.198 Y110.449 E.05801
G1 X140.516 Y112.164 E.05787
G1 X139.648 Y113.804 E.05818
G1 X138.61 Y115.335 E.058
G1 X137.412 Y116.746 E.05804
G1 X136.073 Y118.016 E.05786
G1 X134.596 Y119.139 E.05818
G1 X133.016 Y120.092 E.05785
G1 X131.321 Y120.875 E.05854
G1 X130.456 Y121.187 E.02883
G1 X130.364 Y121.175 E.00291
G1 X130.204 Y121.063 E.00612
G1 X130.161 Y120.981 E.0029
G1 X130.161 Y119.976 E.03151
G1 X130.242 Y119.826 E.00535
G1 X130.285 Y119.791 E.00174
G1 X131.805 Y119.148 E.05175
G1 X133.312 Y118.319 E.05393
G1 X134.72 Y117.33 E.05395
G1 X136.01 Y116.193 E.05392
G1 X137.169 Y114.922 E.05393
G1 X138.181 Y113.532 E.05391
G1 X139.036 Y112.038 E.05397
G1 X139.721 Y110.463 E.05385
G1 X140.231 Y108.819 E.05397
G1 X140.558 Y107.13 E.05394
G1 X140.698 Y105.416 E.05392
G1 X140.65 Y103.696 E.05395
G1 X140.414 Y101.993 E.05391
G1 X139.993 Y100.324 E.05397
G1 X139.423 Y98.78 E.0516
M204 S1000
;WIPE_START
G1 F8640
G1 X139.473 Y98.559 E-.05232
G1 X140.207 Y97.875 E-.23166
G1 X140.297 Y97.851 E-.02151
G1 X140.491 Y97.894 E-.04588
G1 X140.562 Y97.955 E-.02161
G1 X141.194 Y99.538 E-.39357
G1 X141.465 Y100.512 E-.23345
;WIPE_END
G1 Z.4 F720
G1 X133.917 Y92.983 F10800
G1 Z.2 F720
G1 E1 F2100
M204 S800
G1 F1200
G1 X133.341 Y93.53 E.02491
G1 X132.521 Y93.927 E.02857
G1 X131.669 Y94.013 E.02685
G1 X131.104 Y93.891 E.01812
G1 X130.278 Y93.482 E.0289
G1 X129.852 Y93.069 E.0186
G1 X129.48 Y92.468 E.02216
G1 X129.299 Y91.762 E.02285
G1 X129.299 Y89.144 E.08209
G1 X129.434 Y88.548 E.01916
G1 X129.719 Y87.993 E.01956
G1 X130.267 Y87.42 E.02486
G1 X131.019 Y87.001 E.02699
G1 X131.517 Y86.888 E.01601
G1 X132.247 Y86.892 E.02289
G1 X132.707 Y87.02 E.01497
G1 X134.075 Y87.683 E.04766
G1 X134.923 Y88.181 E.03083
G1 X135.255 Y88.529 E.01508
G1 X135.612 Y89.118 E.0216
G1 X135.746 Y89.571 E.01481
G1 X135.808 Y90.36 E.02481
G1 X135.728 Y90.802 E.01408
G1 X135.58 Y91.211 E.01364
G1 X135.313 Y91.656 E.01627
G1 X133.96 Y92.942 E.05853
M204 S1000
G1 X133.702 Y92.67 F10800
M204 S800
G1 F1200
G1 X133.103 Y93.236 E.02584
G1 X132.446 Y93.556 E.02291
G1 X131.714 Y93.638 E.02309
G1 X131.249 Y93.542 E.01489
G1 X130.475 Y93.159 E.02708
G1 X130.136 Y92.82 E.01503
G1 X129.818 Y92.297 E.01919
G1 X129.676 Y91.739 E.01805
G1 X129.676 Y89.167 E.08064
G1 X129.795 Y88.659 E.01636
G1 X130.04 Y88.192 E.01654
G1 X130.478 Y87.733 E.01989
G1 X131.134 Y87.361 E.02365
G1 X131.541 Y87.265 E.01311
G1 X132.174 Y87.263 E.01985
G1 X132.559 Y87.368 E.01251
G1 X133.905 Y88.02 E.04689
G1 X134.671 Y88.463 E.02774
G1 X134.946 Y88.746 E.01237
G1 X135.259 Y89.253 E.01868
G1 X135.372 Y89.625 E.01219
G1 X135.432 Y90.321 E.0219
G1 X135.368 Y90.69 E.01174
G1 X135.232 Y91.065 E.01251
G1 X135.005 Y91.438 E.01369
G1 X133.746 Y92.628 E.05432
M204 S1000
G1 X133.489 Y92.355 F10800
M204 S800
G1 F1200
G1 X132.865 Y92.942 E.02686
G1 X132.367 Y93.187 E.0174
G1 X131.754 Y93.262 E.01936
G1 X131.388 Y93.191 E.01169
G1 X130.714 Y92.866 E.02346
G1 X130.445 Y92.603 E.0118
G1 X130.155 Y92.126 E.0175
G1 X130.053 Y91.716 E.01325
G1 X130.053 Y89.19 E.0792
G1 X130.155 Y88.774 E.01343
