; generated by PrusaSlicer 2.6.1+win64 on 2023-09-23 at 15:09:15 UTC


;
;
; 

; external perimeters extrusion width = 0.45mm
; perimeters extrusion width = 0.45mm
; infill extrusion width = 0.45mm
; solid infill extrusion width = 0.45mm
; top infill extrusion width = 0.40mm
; support material extrusion width = 0.35mm
; first layer extrusion width = 0.42mm

; external perimeters extrusion width = 0.45mm
; perimeters extrusion width = 0.45mm
; infill extrusion width = 0.45mm
; solid infill extrusion width = 0.45mm
; top infill extrusion width = 0.40mm
; support material extrusion width = 0.35mm
; first layer extrusion width = 0.42mm

; external perimeters extrusion width = 0.45mm
; perimeters extrusion width = 0.45mm
; infill extrusion width = 0.45mm
; solid infill extrusion width = 0.45mm
; top infill extrusion width = 0.40mm
; support material extrusion width = 0.35mm
; first layer extrusion width = 0.42mm

; external perimeters extrusion width = 0.45mm
; perimeters extrusion width = 0.45mm
; infill extrusion width = 0.45mm
; solid infill extrusion width = 0.45mm
; top infill extrusion width = 0.40mm
; support material extrusion width = 0.35mm
; first layer extrusion width = 0.42mm

M73 P0 R98
M73 Q0 S100
M201 X1000 Y1000 Z200 E5000 ; sets maximum accelerations, mm/sec^2
M203 X200 Y200 Z12 E120 ; sets maximum feedrates, mm / sec
M204 S1250 T1250 ; sets acceleration (S) and retract acceleration (R), mm/sec^2
M205 X8.00 Y8.00 Z0.40 E4.50 ; sets the jerk limits, mm/sec
M205 S0 T0 ; sets the minimum extruding and travel feed rate, mm/sec
;TYPE:Custom
M862.3 P "MK3S" ; printer model check
M862.1 P0.4 ; nozzle diameter check
M115 U3.12.2 ; tell printer latest fw version
G90 ; use absolute coordinates
M83 ; extruder relative mode
M104 S240 ; set extruder temp
M140 S85 ; set bed temp
M190 S85 ; wait for bed temp
M109 S240 ; wait for extruder temp
G28 W ; home all without mesh bed level
G80 ; mesh bed leveling

G1 Z0.2 F720
G1 Y-3 F1000 ; go outside print area
G92 E0
G1 X60 E9 F1000 ; intro line
G1 X100 E12.5 F1000 ; intro line

G92 E0
M221 S95

; Don't change E values below. Excessive value can damage the printer.
M907 E430 ; set extruder motor current
G21 ; set units to millimeters
G90 ; use absolute coordinates
M83 ; use relative distances for extrusion
M900 K0.08 ; Filament gcode LA 1.5
M900 K45 ; Filament gcode LA 1.0
M107
;LAYER_CHANGE
;Z:0.2
;HEIGHT:0.2
;BEFORE_LAYER_CHANGE
G92 E0.0
;0.2


G1 E-1 F2100
G1 Z.2 F720
;AFTER_LAYER_CHANGE
;0.2
G1 Z.4
G1 X94.744 Y68.914 F10800
G1 Z.2 F720
G1 E1 F2100
M204 S800
;TYPE:Skirt/Brim
;WIDTH:0.42
G1 F1200
G1 X95.317 Y68.309 E.02613
G1 X97.154 Y66.952 E.07161
G1 X97.711 Y66.647 E.01991
G1 X119.909 Y58.086 E.74597
G1 X120.764 Y57.927 E.02727
G1 X131.456 Y57.935 E.33524
G1 X160.377 Y60.265 E.90974
G1 X161.648 Y60.761 E.04278
G1 X162.438 Y61.873 E.04277
G1 X162.563 Y62.635 E.02421
G1 X162.563 Y105.435 E1.34196
G1 X162.186 Y106.72 E.04199
G1 X133.819 Y150.858 E1.64508
G1 X132.783 Y151.746 E.04278
G1 X131.819 Y151.95 E.03089
G1 X121.625 Y151.95 E.31963
G1 X120.318 Y151.559 E.04277
G1 X119.523 Y150.682 E.03711
G1 X94.627 Y103.473 E1.67342
G1 X94.352 Y102.364 E.03583
G1 X94.352 Y70.221 E1.00782
G1 X94.727 Y68.971 E.04092
M204 S1000
; printing object Back_Right_Bracket_rev1 id:1 copy 0
;WIPE_START
M73 Q0 S99
G1 F8640
G1 X95.317 Y68.309 E-.20476
G1 X97.154 Y66.952 E-.52735
G1 X97.711 Y66.647 E-.14663
G1 X98.201 Y66.458 E-.12126
;WIPE_END
G1 Z.4 F720
G1 X115.257 Y115.003 F10800
G1 Z.2 F720
G1 E1 F2100
M204 S800
;TYPE:Support material
G1 F1200
G1 X115.257 Y115.873 E.02728
G1 X115.514 Y116.149 E.01182
G1 X116.748 Y116.238 E.03879
G1 X117.738 Y116.453 E.03176
G1 X118.687 Y116.807 E.03176
G1 X119.552 Y117.279 E.0309
G1 X120.387 Y117.9 E.03263
G1 X121.103 Y118.616 E.03175
G1 X121.406 Y119.02 E.01583
G1 X121.263 Y119.581 E.01815
G1 X114.704 Y119.581 E.20565
G1 X114.704 Y114.964 E.14476
G1 X115.201 Y114.999 E.01562
M204 S1000
;WIPE_START
G1 F8640
G1 X114.704 Y114.964 E-.11504
G1 X114.704 Y118.797 E-.88496
;WIPE_END
G1 Z.4 F720
G1 X120.798 Y119.411 F10800
G1 Z.2 F720
G1 E1 F2100
M204 S800
G1 F1200
G1 X120.798 Y118.791 E.01944
G1 X120.379 Y118.372 E.01858
G1 X120.379 Y119.242 E.02728
G1 X119.96 Y119.242 E.01314
G1 X119.96 Y118.004 E.03882
G1 X119.541 Y117.69 E.01642
G1 X119.541 Y119.242 E.04866
G1 X119.122 Y119.242 E.01314
G1 X119.122 Y117.431 E.05678
G1 X118.703 Y117.203 E.01496
G1 X118.703 Y119.242 E.06393
G1 X118.284 Y119.242 E.01314
G1 X118.284 Y117.019 E.0697
G1 X117.865 Y116.863 E.01402
G1 X117.865 Y119.242 E.07459
G1 X117.446 Y119.242 E.01314
G1 X117.446 Y116.737 E.07854
G1 X117.027 Y116.646 E.01344
G1 X117.027 Y119.242 E.0814
G1 X116.608 Y119.242 E.01314
G1 X116.608 Y116.568 E.08384
G1 X116.189 Y116.538 E.01317
G1 X116.189 Y119.242 E.08478
G1 X115.77 Y119.242 E.01314
G1 X115.77 Y116.508 E.08572
G1 X115.351 Y116.472 E.01319
G1 X115.351 Y119.411 E.09215
M204 S1000
;WIPE_START
G1 F8640
G1 X115.351 Y116.472 E-.67862
G1 X115.77 Y116.508 E-.0971
G1 X115.77 Y117.479 E-.22428
;WIPE_END
G1 Z.4 F720
G1 X129.486 Y109.716 F10800
G1 Z.2 F720
G1 E1 F2100
M204 S800
;TYPE:Support material interface
;WIDTH:0.35
G1 F1200
G1 X129.183 Y109.716 E.00774
G1 X129.183 Y109.761 E.00115
G1 X129.64 Y109.761 E.01167
G1 X129.64 Y109.716 E.00115
G1 X130.147 Y109.716 E.01295
G1 X130.147 Y109.761 E.00115
G1 X130.654 Y109.761 E.01295
G1 X130.654 Y109.716 E.00115
G1 X131.161 Y109.716 E.01295
G1 X131.161 Y109.858 E.00363
G1 X131.312 Y110.009 E.00545
G1 X131.312 Y145.737 E.91227
G1 X131.161 Y145.888 E.00545
G1 X131.161 Y146.63 E.01895
G1 X131.668 Y146.63 E.01295
G1 X131.668 Y109.716 E.94255
G1 X132.175 Y109.716 E.01295
G1 X132.175 Y146.63 E.94255
G1 X132.682 Y146.63 E.01295
G1 X132.682 Y109.716 E.94255
G1 X133.189 Y109.716 E.01295
G1 X133.189 Y146.63 E.94255
G1 X133.696 Y146.63 E.01295
G1 X133.696 Y109.716 E.94255
M204 S1000
;WIPE_START
G1 F8640
G1 X133.696 Y114.047 E-1
;WIPE_END
G1 Z.4 F720
G1 X131.819 Y109.353 F10800
G1 Z.2 F720
G1 E1 F2100
M204 S800
;TYPE:Support material
;WIDTH:0.42
G1 F1200
G1 X128.819 Y109.353 E.09406
G1 X128.819 Y109.704 E.01101
G1 X115.538 Y109.704 E.41642
G1 X115.257 Y109.985 E.01246
G1 X115.257 Y111.576 E.04988
G1 X114.704 Y112.129 E.02452
G1 X114.704 Y106.773 E.16793
G1 X131.819 Y106.773 E.53663
G1 X131.819 Y109.296 E.07911
M204 S1000
G1 X131.273 Y109.183 F10800
M204 S800
G1 F1200
G1 X131.273 Y107.112 E.06493
G1 X130.854 Y107.112 E.01314
G1 X130.854 Y109.013 E.0596
G1 X130.435 Y109.013 E.01314
G1 X130.435 Y107.112 E.0596
G1 X130.016 Y107.112 E.01314
G1 X130.016 Y109.013 E.0596
G1 X129.597 Y109.013 E.01314
G1 X129.597 Y107.112 E.0596
G1 X129.178 Y107.112 E.01314
G1 X129.178 Y109.013 E.0596
G1 X128.759 Y109.013 E.01314
G1 X128.759 Y107.112 E.0596
G1 X128.34 Y107.112 E.01314
G1 X128.34 Y109.365 E.07064
G1 X127.921 Y109.365 E.01314
G1 X127.921 Y107.112 E.07064
G1 X127.502 Y107.112 E.01314
G1 X127.502 Y109.365 E.07064
G1 X127.083 Y109.365 E.01314
G1 X127.083 Y107.112 E.07064
G1 X126.664 Y107.112 E.01314
G1 X126.664 Y109.365 E.07064
G1 X126.245 Y109.365 E.01314
G1 X126.245 Y107.112 E.07064
G1 X125.826 Y107.112 E.01314
G1 X125.826 Y109.365 E.07064
G1 X125.407 Y109.365 E.01314
G1 X125.407 Y107.112 E.07064
G1 X124.988 Y107.112 E.01314
G1 X124.988 Y109.365 E.07064
G1 X124.569 Y109.365 E.01314
G1 X124.569 Y107.112 E.07064
G1 X124.15 Y107.112 E.01314
G1 X124.15 Y109.365 E.07064
G1 X123.731 Y109.365 E.01314
G1 X123.731 Y107.112 E.07064
G1 X123.312 Y107.112 E.01314
G1 X123.312 Y109.365 E.07064
G1 X122.893 Y109.365 E.01314
G1 X122.893 Y107.112 E.07064
G1 X122.474 Y107.112 E.01314
G1 X122.474 Y109.365 E.07064
G1 X122.055 Y109.365 E.01314
G1 X122.055 Y107.112 E.07064
G1 X121.636 Y107.112 E.01314
G1 X121.636 Y109.365 E.07064
G1 X121.217 Y109.365 E.01314
G1 X121.217 Y107.112 E.07064
G1 X120.798 Y107.112 E.01314
G1 X120.798 Y109.365 E.07064
G1 X120.379 Y109.365 E.01314
G1 X120.379 Y107.112 E.07064
G1 X119.96 Y107.112 E.01314
G1 X119.96 Y109.365 E.07064
G1 X119.541 Y109.365 E.01314
G1 X119.541 Y107.112 E.07064
G1 X119.122 Y107.112 E.01314
G1 X119.122 Y109.365 E.07064
G1 X118.703 Y109.365 E.01314
G1 X118.703 Y107.112 E.07064
G1 X118.284 Y107.112 E.01314
G1 X118.284 Y109.365 E.07064
G1 X117.865 Y109.365 E.01314
G1 X117.865 Y107.112 E.07064
G1 X117.446 Y107.112 E.01314
G1 X117.446 Y109.365 E.07064
G1 X117.027 Y109.365 E.01314
G1 X117.027 Y107.112 E.07064
G1 X116.608 Y107.112 E.01314
G1 X116.608 Y109.365 E.07064
G1 X116.189 Y109.365 E.01314
G1 X116.189 Y107.112 E.07064
G1 X115.77 Y107.112 E.01314
G1 X115.77 Y109.365 E.07064
G1 X115.398 Y109.365 E.01166
G1 X115.351 Y109.411 E.00206
G1 X115.351 Y106.943 E.07738
M204 S1000
;WIPE_START
G1 F8640
G1 X115.351 Y109.411 E-.56987
G1 X115.398 Y109.365 E-.01519
G1 X115.77 Y109.365 E-.0859
G1 X115.77 Y107.94 E-.32904
;WIPE_END
G1 Z.4 F720
G1 X130.913 Y110.124 F10800
G1 Z.2 F720
G1 E1 F2100
M204 S800
G1 F1200
G1 X130.948 Y110.159 E.00155
G1 X130.948 Y111.579 E.04452
G1 X130.718 Y111.579 E.00721
G1 X130.718 Y110.124 E.04562
G1 X130.857 Y110.124 E.00436
M204 S1000
;WIPE_START
G1 F8640
G1 X130.718 Y110.124 E-.0321
G1 X130.718 Y111.579 E-.33596
G1 X130.948 Y111.579 E-.05311
G1 X130.948 Y110.159 E-.32788
G1 X130.913 Y110.124 E-.01143
;WIPE_END
G1 E-.23952 F2100
G1 Z.4 F720
G1 X130.948 Y145.587 F10800
G1 Z.2 F720
G1 E1 F2100
M204 S800
G1 F1200
G1 X130.913 Y145.622 E.00155
G1 X130.718 Y145.622 E.00611
G1 X130.718 Y144.151 E.04612
G1 X130.948 Y144.151 E.00721
G1 X130.948 Y145.53 E.04324
M204 S1000
G1 X131.048 Y145.985 F10800
M204 S800
;TYPE:Support material interface
;WIDTH:0.35
G1 F1200
G1 X130.654 Y145.985 E.01006
G1 X130.654 Y146.63 E.01647
G1 X130.147 Y146.63 E.01295
G1 X130.147 Y145.985 E.01647
G1 X129.64 Y145.985 E.01295
G1 X129.64 Y146.63 E.01647
G1 X129.183 Y146.63 E.01167
G1 X129.183 Y145.985 E.01647
G1 X129.486 Y145.985 E.00774
M204 S1000
;WIPE_START
G1 F8640
G1 X129.183 Y145.985 E-.06996
G1 X129.183 Y146.63 E-.14893
G1 X129.64 Y146.63 E-.10552
G1 X129.64 Y145.985 E-.14893
G1 X130.147 Y145.985 E-.11707
G1 X130.147 Y146.63 E-.14893
G1 X130.654 Y146.63 E-.11707
G1 X130.654 Y146.008 E-.14359
;WIPE_END
G1 Z.4 F720
G1 X122.839 Y145.745 F10800
G1 Z.2 F720
G1 E1 F2100
M204 S800
;TYPE:Support material
;WIDTH:0.42
G1 F1200
G1 X123.12 Y146.026 E.01246
G1 X128.819 Y146.026 E.17869
G1 X128.819 Y146.993 E.03032
G1 X131.819 Y146.993 E.09406
G1 X131.819 Y149.573 E.08089
G1 X121.625 Y149.573 E.31963
G1 X121.625 Y144.152 E.16997
G1 X122.839 Y144.151 E.03806
G1 X122.839 Y145.689 E.04822
M204 S1000
G1 X131.273 Y149.403 F10800
M204 S800
G1 F1200
G1 X131.273 Y147.333 E.0649
G1 X130.854 Y147.333 E.01314
G1 X130.854 Y149.234 E.0596
G1 X130.435 Y149.234 E.01314
G1 X130.435 Y147.333 E.0596
G1 X130.016 Y147.333 E.01314
G1 X130.016 Y149.234 E.0596
G1 X129.597 Y149.234 E.01314
G1 X129.597 Y147.333 E.0596
G1 X129.178 Y147.333 E.01314
G1 X129.178 Y149.234 E.0596
G1 X128.759 Y149.234 E.01314
G1 X128.759 Y147.333 E.0596
G1 X128.48 Y147.333 E.00875
G1 X128.48 Y146.366 E.03032
G1 X128.34 Y146.366 E.00439
M73 P0 R97
G1 X128.34 Y149.234 E.08992
G1 X127.921 Y149.234 E.01314
G1 X127.921 Y146.366 E.08992
G1 X127.502 Y146.366 E.01314
G1 X127.502 Y149.234 E.08992
G1 X127.083 Y149.234 E.01314
G1 X127.083 Y146.366 E.08992
G1 X126.664 Y146.366 E.01314
G1 X126.664 Y149.234 E.08992
G1 X126.245 Y149.234 E.01314
G1 X126.245 Y146.366 E.08992
G1 X125.826 Y146.366 E.01314
G1 X125.826 Y149.234 E.08992
G1 X125.407 Y149.234 E.01314
G1 X125.407 Y146.366 E.08992
G1 X124.988 Y146.366 E.01314
G1 X124.988 Y149.234 E.08992
G1 X124.569 Y149.234 E.01314
G1 X124.569 Y146.366 E.08992
G1 X124.15 Y146.366 E.01314
G1 X124.15 Y149.234 E.08992
G1 X123.731 Y149.234 E.01314
G1 X123.731 Y146.366 E.08992
G1 X123.312 Y146.366 E.01314
G1 X123.312 Y149.234 E.08992
G1 X122.893 Y149.234 E.01314
G1 X122.893 Y146.279 E.09265
G1 X122.5 Y145.886 E.01743
G1 X122.5 Y144.491 E.04374
G1 X122.474 Y144.491 E.00082
G1 X122.474 Y149.234 E.14871
G1 X122.055 Y149.234 E.01314
G1 X122.055 Y144.321 E.15404
M204 S1000
;WIPE_START
G1 F8640
G1 X122.055 Y148.652 E-1
;WIPE_END
G1 Z.4 F720
G1 X124.86 Y144.005 F10800
G1 Z.2 F720
G1 E1 F2100
M204 S800
;TYPE:Perimeter
;WIDTH:0.419999
G1 F1200
G1 X124.86 Y123.258 E.65051
G1 X124.778 Y122.061 E.03762
G1 X124.748 Y121.863 E.00628
G1 X124.485 Y120.704 E.03726
G1 X124.072 Y119.563 E.03805
G1 X123.46 Y118.414 E.04082
G1 X122.691 Y117.365 E.04078
G1 X121.781 Y116.435 E.0408
G1 X120.747 Y115.644 E.04082
G1 X119.611 Y115.009 E.04081
G1 X118.397 Y114.542 E.04078
G1 X117.278 Y114.285 E.036
G1 X117.278 Y111.725 E.08027
G1 X128.697 Y111.725 E.35803
G1 X128.697 Y144.005 E1.01212
G1 X124.92 Y144.005 E.11842
M204 S1000
G1 X124.483 Y144.382 F10800
M204 S800
G1 F1200
G1 X124.483 Y123.258 E.66233
G1 X124.402 Y122.088 E.03677
M73 P1 R97
G1 X124.117 Y120.787 E.04176
M73 Q1 S99
G1 X123.663 Y119.572 E.04067
G1 X123.057 Y118.482 E.0391
G1 X122.301 Y117.489 E.03913
G1 X121.412 Y116.614 E.03911
G1 X120.408 Y115.874 E.03911
G1 X119.308 Y115.284 E.03914
G1 X118.136 Y114.857 E.03911
G1 X116.901 Y114.6 E.03955
G1 X116.901 Y111.348 E.10196
G1 X129.074 Y111.348 E.38168
G1 X129.074 Y144.382 E1.03576
G1 X124.543 Y144.382 E.14207
M204 S1000
G1 X124.106 Y144.759 F10800
M204 S800
G1 F1200
G1 X124.106 Y123.258 E.67415
G1 X124.013 Y122.03 E.03861
G1 X123.75 Y120.871 E.03726
G1 X123.366 Y119.826 E.03491
G1 X122.799 Y118.776 E.03742
G1 X122.088 Y117.817 E.03743
G1 X121.247 Y116.968 E.03747
G1 X120.227 Y116.204 E.03996
G1 X119.177 Y115.637 E.03742
G1 X118.056 Y115.226 E.03744
G1 X116.968 Y114.989 E.03491
G1 X116.524 Y114.951 E.01397
G1 X116.524 Y110.971 E.12479
G1 X129.451 Y110.971 E.40532
G1 X129.451 Y144.759 E1.0594
G1 X124.166 Y144.759 E.16571
M204 S1000
G1 X123.729 Y145.136 F10800
M204 S800
;TYPE:External perimeter
G1 F1200
G1 X123.729 Y123.258 E.68597
G1 X123.645 Y122.113 E.036
G1 X123.382 Y120.954 E.03726
G1 X123.012 Y119.958 E.03331
G1 X122.468 Y118.956 E.03575
G1 X121.786 Y118.043 E.03573
G1 X120.981 Y117.235 E.03576
G1 X120.069 Y116.55 E.03576
G1 X119.045 Y115.991 E.03658
G1 X117.976 Y115.594 E.03575
G1 X116.888 Y115.357 E.03491
G1 X116.147 Y115.302 E.0233
G1 X116.147 Y110.594 E.14762
G1 X129.828 Y110.594 E.42896
G1 X129.828 Y145.136 E1.08304
G1 X123.789 Y145.136 E.18935
M204 S1000
G1 X123.752 Y144.737 F10800
;WIPE_START
G1 F8640
G1 X123.777 Y140.805 E-1
;WIPE_END
G1 Z.4 F720
G1 X127.758 Y111.895 F10800
G1 Z.2 F720
G1 E1 F2100
M204 S800
;TYPE:Solid infill
;WIDTH:0.423397
G1 F1200
G1 X128.357 Y112.495 E.02682
G1 X128.357 Y113.033 E.01702
G1 X127.389 Y112.065 E.04331
G1 X126.851 Y112.065 E.01702
G1 X128.357 Y113.571 E.06738
G1 X128.357 Y114.109 E.01702
G1 X126.313 Y112.065 E.09145
G1 X125.775 Y112.065 E.01702
G1 X128.357 Y114.647 E.11552
G1 X128.357 Y115.185 E.01702
G1 X125.237 Y112.065 E.13959
G1 X124.699 Y112.065 E.01702
G1 X128.357 Y115.723 E.16366
G1 X128.357 Y116.261 E.01702
G1 X124.161 Y112.065 E.18773
G1 X123.623 Y112.065 E.01702
G1 X128.357 Y116.799 E.2118
G1 X128.357 Y117.338 E.01705
G1 X123.085 Y112.065 E.2359
G1 X122.546 Y112.065 E.01705
G1 X128.357 Y117.876 E.25999
G1 X128.357 Y118.414 E.01702
G1 X122.008 Y112.065 E.28406
G1 X121.47 Y112.065 E.01702
G1 X128.357 Y118.952 E.30813
G1 X128.357 Y119.49 E.01702
G1 X120.932 Y112.065 E.3322
G1 X120.394 Y112.065 E.01702
G1 X128.357 Y120.028 E.35627
G1 X128.357 Y120.566 E.01702
G1 X119.856 Y112.065 E.38034
G1 X119.318 Y112.065 E.01702
G1 X128.357 Y121.104 E.40442
G1 X128.357 Y121.642 E.01702
M73 Q1 S98
G1 X118.78 Y112.065 E.42849
G1 X118.242 Y112.065 E.01702
G1 X128.357 Y122.18 E.45256
G1 X128.357 Y122.718 E.01702
G1 X117.704 Y112.065 E.47663
G1 X117.618 Y112.065 E.00272
G1 X117.618 Y112.517 E.0143
G1 X119.858 Y114.757 E.10022
G1 X119.564 Y114.615 E.01033
G1 X118.952 Y114.389 E.02064
G1 X117.618 Y113.055 E.05968
G1 X117.618 Y113.593 E.01702
G1 X118.385 Y114.361 E.03434
M204 S1000
;WIPE_START
G1 F8640
G1 X117.618 Y113.593 E-.25062
G1 X117.618 Y113.055 E-.12423
G1 X118.952 Y114.389 E-.43561
G1 X119.564 Y114.615 E-.15064
G1 X119.716 Y114.688 E-.0389
;WIPE_END
G1 Z.4 F720
G1 X123.82 Y118.719 F10800
G1 Z.2 F720
G1 E1 F2100
M204 S800
G1 F1200
G1 X128.357 Y123.256 E.20299
G1 X128.357 Y123.794 E.01702
