; generated by PrusaSlicer 2.6.1+win64 on 2023-09-23 at 15:19:53 UTC


;
;
; 

; external perimeters extrusion width = 0.45mm
; perimeters extrusion width = 0.45mm
; infill extrusion width = 0.45mm
; solid infill extrusion width = 0.45mm
; top infill extrusion width = 0.40mm
; support material extrusion width = 0.35mm
; first layer extrusion width = 0.42mm

; external perimeters extrusion width = 0.45mm
; perimeters extrusion width = 0.45mm
; infill extrusion width = 0.45mm
; solid infill extrusion width = 0.45mm
; top infill extrusion width = 0.40mm
; support material extrusion width = 0.35mm
; first layer extrusion width = 0.42mm

; external perimeters extrusion width = 0.45mm
; perimeters extrusion width = 0.45mm
; infill extrusion width = 0.45mm
; solid infill extrusion width = 0.45mm
; top infill extrusion width = 0.40mm
; support material extrusion width = 0.35mm
; first layer extrusion width = 0.42mm

; external perimeters extrusion width = 0.45mm
; perimeters extrusion width = 0.45mm
; infill extrusion width = 0.45mm
; solid infill extrusion width = 0.45mm
; top infill extrusion width = 0.40mm
; support material extrusion width = 0.35mm
; first layer extrusion width = 0.42mm

M73 P0 R108
M73 Q0 S109
M201 X1000 Y1000 Z200 E5000 ; sets maximum accelerations, mm/sec^2
M203 X200 Y200 Z12 E120 ; sets maximum feedrates, mm / sec
M204 S1250 T1250 ; sets acceleration (S) and retract acceleration (R), mm/sec^2
M205 X8.00 Y8.00 Z0.40 E4.50 ; sets the jerk limits, mm/sec
M205 S0 T0 ; sets the minimum extruding and travel feed rate, mm/sec
;TYPE:Custom
M862.3 P "MK3S" ; printer model check
M862.1 P0.4 ; nozzle diameter check
M115 U3.12.2 ; tell printer latest fw version
G90 ; use absolute coordinates
M83 ; extruder relative mode
M104 S240 ; set extruder temp
M140 S85 ; set bed temp
M190 S85 ; wait for bed temp
M109 S240 ; wait for extruder temp
G28 W ; home all without mesh bed level
G80 ; mesh bed leveling

G1 Z0.2 F720
G1 Y-3 F1000 ; go outside print area
G92 E0
G1 X60 E9 F1000 ; intro line
G1 X100 E12.5 F1000 ; intro line

G92 E0
M221 S95

; Don't change E values below. Excessive value can damage the printer.
M907 E430 ; set extruder motor current
G21 ; set units to millimeters
G90 ; use absolute coordinates
M83 ; use relative distances for extrusion
M900 K0.08 ; Filament gcode LA 1.5
M900 K45 ; Filament gcode LA 1.0
M107
;LAYER_CHANGE
;Z:0.2
;HEIGHT:0.2
;BEFORE_LAYER_CHANGE
G92 E0.0
;0.2


G1 E-1 F2100
G1 Z.2 F720
;AFTER_LAYER_CHANGE
;0.2
G1 Z.4
G1 X94.744 Y68.914 F10800
G1 Z.2 F720
G1 E1 F2100
M204 S800
;TYPE:Skirt/Brim
;WIDTH:0.42
G1 F1200
G1 X95.317 Y68.309 E.02613
G1 X97.154 Y66.952 E.07161
G1 X97.711 Y66.647 E.01991
G1 X119.909 Y58.086 E.74597
G1 X120.764 Y57.927 E.02727
M73 P0 R107
G1 X131.492 Y57.938 E.33637
G1 X155.799 Y60.269 E.76563
G1 X157.063 Y60.783 E.04278
G1 X157.698 Y61.572 E.03176
G1 X160.005 Y66.186 E.16174
G1 X160.256 Y67.249 E.03425
G1 X160.256 Y105.435 E1.1973
G1 X159.885 Y106.71 E.04163
G1 X131.825 Y150.848 E1.6399
G1 X130.794 Y151.741 E.04277
G1 X129.819 Y151.95 E.03126
G1 X117.011 Y151.95 E.40159
G1 X115.704 Y151.559 E.04277
G1 X114.827 Y150.511 E.04285
G1 X94.545 Y103.303 E1.611
G1 X94.352 Y102.364 E.03006
G1 X94.352 Y70.221 E1.00782
G1 X94.727 Y68.971 E.04092
M204 S1000
; printing object Back_Right_Bracket_rev1 id:1 copy 0
;WIPE_START
G1 F8640
G1 X95.317 Y68.309 E-.20476
G1 X97.154 Y66.952 E-.52735
G1 X97.711 Y66.647 E-.14663
G1 X98.201 Y66.458 E-.12126
;WIPE_END
G1 Z.4 F720
G1 X122.387 Y109.716 F10800
G1 Z.2 F720
G1 E1 F2100
M204 S800
;TYPE:Support material interface
;WIDTH:0.35
G1 F1200
G1 X122.262 Y109.716 E.00319
G1 X122.262 Y146.63 E.94255
G1 X122.541 Y146.63 E.00712
G1 X122.541 Y109.716 E.94255
G1 X123.048 Y109.716 E.01295
G1 X123.048 Y109.761 E.00115
G1 X123.555 Y109.761 E.01295
G1 X123.555 Y109.716 E.00115
G1 X124.062 Y109.716 E.01295
G1 X124.062 Y109.761 E.00115
G1 X124.569 Y109.761 E.01295
G1 X124.569 Y109.716 E.00115
M204 S1000
;WIPE_START
G1 F8640
G1 X124.569 Y109.761 E-.01039
G1 X124.062 Y109.761 E-.11707
G1 X124.062 Y109.716 E-.01039
G1 X123.555 Y109.716 E-.11707
G1 X123.555 Y109.761 E-.01039
G1 X123.048 Y109.761 E-.11707
G1 X123.048 Y109.716 E-.01039
G1 X122.541 Y109.716 E-.11707
G1 X122.541 Y111.839 E-.49016
;WIPE_END
G1 Z.4 F720
G1 X129.819 Y111.387 F10800
G1 Z.2 F720
G1 E1 F2100
M204 S800
;TYPE:Support material
;WIDTH:0.42
G1 F1200
G1 X132.127 Y111.387 E.07237
G1 X132.127 Y119.581 E.25692
G1 X129.105 Y119.581 E.09475
G1 X129.105 Y109.985 E.30088
G1 X128.824 Y109.704 E.01246
G1 X124.933 Y109.704 E.122
G1 X124.933 Y109.353 E.01101
G1 X121.898 Y109.353 E.09516
G1 X121.898 Y146.993 E1.18018
G1 X124.933 Y146.993 E.09516
G1 X124.933 Y146.36 E.01985
G1 X128.798 Y146.656 E.12154
G1 X129.105 Y146.371 E.01313
G1 X129.105 Y145.176 E.03747
G1 X129.819 Y145.23 E.02245
G1 X129.819 Y149.573 E.13617
G1 X117.011 Y149.573 E.40159
G1 X117.011 Y106.773 E1.34196
G1 X129.819 Y106.773 E.40159
G1 X129.819 Y111.33 E.14288
M204 S1000
G1 X131.692 Y119.411 F10800
M204 S800
G1 F1200
G1 X131.692 Y111.726 E.24096
G1 X131.273 Y111.726 E.01314
G1 X131.273 Y119.242 E.23566
G1 X130.854 Y119.242 E.01314
G1 X130.854 Y111.726 E.23566
G1 X130.435 Y111.726 E.01314
G1 X130.435 Y119.242 E.23566
G1 X130.016 Y119.242 E.01314
G1 X130.016 Y111.726 E.23566
G1 X129.597 Y111.726 E.01314
G1 X129.597 Y119.242 E.23566
G1 X129.445 Y119.242 E.00477
G1 X129.445 Y109.845 E.29464
G1 X129.178 Y109.578 E.01184
G1 X129.178 Y107.112 E.07732
G1 X128.759 Y107.112 E.01314
G1 X128.759 Y109.365 E.07064
G1 X128.34 Y109.365 E.01314
G1 X128.34 Y107.112 E.07064
G1 X127.921 Y107.112 E.01314
G1 X127.921 Y109.365 E.07064
G1 X127.502 Y109.365 E.01314
G1 X127.502 Y107.112 E.07064
G1 X127.083 Y107.112 E.01314
G1 X127.083 Y109.365 E.07064
G1 X126.664 Y109.365 E.01314
G1 X126.664 Y107.112 E.07064
G1 X126.245 Y107.112 E.01314
G1 X126.245 Y109.365 E.07064
G1 X125.826 Y109.365 E.01314
G1 X125.826 Y107.112 E.07064
G1 X125.407 Y107.112 E.01314
G1 X125.407 Y109.365 E.07064
G1 X125.272 Y109.365 E.00423
G1 X125.272 Y109.013 E.01104
G1 X124.988 Y109.013 E.0089
G1 X124.988 Y107.112 E.0596
G1 X124.569 Y107.112 E.01314
G1 X124.569 Y109.013 E.0596
G1 X124.15 Y109.013 E.01314
G1 X124.15 Y107.112 E.0596
G1 X123.731 Y107.112 E.01314
G1 X123.731 Y109.013 E.0596
G1 X123.312 Y109.013 E.01314
G1 X123.312 Y107.112 E.0596
G1 X122.893 Y107.112 E.01314
G1 X122.893 Y109.013 E.0596
G1 X122.474 Y109.013 E.01314
G1 X122.474 Y107.112 E.0596
G1 X122.055 Y107.112 E.01314
G1 X122.055 Y109.183 E.06493
M204 S1000
;WIPE_START
G1 F8640
G1 X122.055 Y107.112 E-.4782
G1 X122.474 Y107.112 E-.09675
G1 X122.474 Y108.953 E-.42505
;WIPE_END
G1 Z.4 F720
G1 X129.178 Y149.403 F10800
G1 Z.2 F720
G1 E1 F2100
M204 S800
G1 F1200
G1 X129.178 Y146.767 E.08265
G1 X128.919 Y147.006 E.01105
G1 X128.759 Y146.994 E.00503
G1 X128.759 Y149.234 E.07023
G1 X128.34 Y149.234 E.01314
G1 X128.34 Y146.962 E.07124
G1 X127.921 Y146.929 E.01318
G1 X127.921 Y149.234 E.07227
G1 X127.502 Y149.234 E.01314
G1 X127.502 Y146.897 E.07327
G1 X127.083 Y146.865 E.01318
G1 X127.083 Y149.234 E.07428
G1 X126.664 Y149.234 E.01314
G1 X126.664 Y146.833 E.07528
G1 X126.245 Y146.801 E.01318
G1 X126.245 Y149.234 E.07629
G1 X125.826 Y149.234 E.01314
G1 X125.826 Y146.769 E.07729
G1 X125.407 Y146.736 E.01318
G1 X125.407 Y149.234 E.07832
G1 X124.988 Y149.234 E.01314
G1 X124.988 Y147.333 E.0596
G1 X124.569 Y147.333 E.01314
G1 X124.569 Y149.234 E.0596
G1 X124.15 Y149.234 E.01314
G1 X124.15 Y147.333 E.0596
G1 X123.731 Y147.333 E.01314
G1 X123.731 Y149.234 E.0596
G1 X123.312 Y149.234 E.01314
G1 X123.312 Y147.333 E.0596
G1 X122.893 Y147.333 E.01314
G1 X122.893 Y149.234 E.0596
G1 X122.474 Y149.234 E.01314
G1 X122.474 Y147.333 E.0596
G1 X122.055 Y147.333 E.01314
G1 X122.055 Y149.234 E.0596
G1 X121.636 Y149.234 E.01314
G1 X121.636 Y107.112 E1.32071
G1 X121.217 Y107.112 E.01314
G1 X121.217 Y149.234 E1.32071
G1 X120.798 Y149.234 E.01314
M73 Q0 S108
G1 X120.798 Y107.112 E1.32071
G1 X120.379 Y107.112 E.01314
G1 X120.379 Y149.234 E1.32071
G1 X119.96 Y149.234 E.01314
G1 X119.96 Y107.112 E1.32071
G1 X119.541 Y107.112 E.01314
G1 X119.541 Y149.234 E1.32071
G1 X119.122 Y149.234 E.01314
G1 X119.122 Y107.112 E1.32071
G1 X118.703 Y107.112 E.01314
G1 X118.703 Y149.234 E1.32071
G1 X118.284 Y149.234 E.01314
G1 X118.284 Y107.112 E1.32071
G1 X117.865 Y107.112 E.01314
G1 X117.865 Y149.234 E1.32071
G1 X117.446 Y149.234 E.01314
G1 X117.446 Y106.943 E1.326
M204 S1000
;WIPE_START
G1 F8640
M73 P1 R107
M73 Q1 S108
G1 X117.446 Y111.274 E-1
;WIPE_END
G1 Z.4 F720
G1 X132.127 Y142.652 F10800
G1 Z.2 F720
G1 E1 F2100
M204 S800
G1 F1200
G1 X129.105 Y142.652 E.09475
G1 X129.105 Y134.458 E.25692
G1 X132.127 Y134.458 E.09475
G1 X132.127 Y142.595 E.25513
M204 S1000
G1 X131.692 Y142.482 F10800
M204 S800
M73 P1 R106
G1 F1200
G1 X131.692 Y134.797 E.24096
G1 X131.273 Y134.797 E.01314
G1 X131.273 Y142.312 E.23563
G1 X130.854 Y142.312 E.01314
G1 X130.854 Y134.797 E.23563
G1 X130.435 Y134.797 E.01314
G1 X130.435 Y142.312 E.23563
G1 X130.016 Y142.312 E.01314
G1 X130.016 Y134.797 E.23563
G1 X129.597 Y134.797 E.01314
G1 X129.597 Y142.482 E.24096
M204 S1000
;WIPE_START
G1 F8640
G1 X129.597 Y138.151 E-1
;WIPE_END
G1 Z.4 F720
G1 X124.569 Y146.275 F10800
G1 Z.2 F720
G1 E1 F2100
M204 S800
;TYPE:Support material interface
;WIDTH:0.35
G1 F1200
G1 X124.569 Y146.63 E.00906
G1 X124.062 Y146.63 E.01295
G1 X124.062 Y146.236 E.01006
G1 X123.555 Y146.197 E.01298
G1 X123.555 Y146.63 E.01106
G1 X123.048 Y146.63 E.01295
G1 X123.048 Y146.158 E.01205
G1 X122.827 Y146.141 E.00566
G1 X122.786 Y146.097 E.00154
M204 S1000
G1 X123.195 Y145.805 F10800
M204 S800
;TYPE:Support material
;WIDTH:0.42
G1 F1200
G1 X122.997 Y145.79 E.00623
G1 X122.965 Y145.755 E.00149
G1 X122.965 Y110.159 E1.11609
G1 X123 Y110.124 E.00155
G1 X123.195 Y110.124 E.00611
G1 X123.195 Y145.748 E1.11697
M204 S1000
;WIPE_START
G1 F8640
G1 X123.195 Y141.417 E-1
;WIPE_END
G1 Z.4 F720
G1 X127.084 Y144.498 F10800
G1 Z.2 F720
G1 E1 F2100
M204 S800
;TYPE:Perimeter
;WIDTH:0.419999
G1 F1200
G1 X125.217 Y144.354 E.05871
G1 X125.217 Y111.725 E1.02306
G1 X127.084 Y111.725 E.05854
G1 X127.084 Y144.438 E1.02569
M204 S1000
G1 X127.461 Y144.905 F10800
M204 S800
G1 F1200
G1 X124.839 Y144.703 E.08245
G1 X124.839 Y111.348 E1.04582
G1 X127.461 Y111.348 E.08221
G1 X127.461 Y144.845 E1.05027
M204 S1000
G1 X127.838 Y145.312 F10800
M204 S800
G1 F1200
G1 X124.462 Y145.053 E.10616
G1 X124.462 Y110.971 E1.06862
G1 X127.838 Y110.971 E.10585
G1 X127.838 Y145.252 E1.07485
M204 S1000
G1 X128.215 Y145.719 F10800
M204 S800
;TYPE:External perimeter
G1 F1200
G1 X124.085 Y145.402 E.12987
G1 X124.085 Y110.594 E1.09138
G1 X128.215 Y110.594 E.12949
G1 X128.215 Y145.659 E1.09944
M204 S1000
G1 X127.871 Y145.515 F10800
;WIPE_START
G1 F8640
G1 X124.085 Y145.402 E-.95547
G1 X124.085 Y145.209 E-.04453
;WIPE_END
G1 Z.4 F720
G1 X126.145 Y111.895 F10800
G1 Z.2 F720
G1 E1 F2100
M204 S800
;TYPE:Solid infill
;WIDTH:0.423458
G1 F1200
G1 X126.745 Y112.495 E.02685
G1 X126.745 Y113.033 E.01702
G1 X125.776 Y112.065 E.04334
G1 X125.556 Y112.065 E.00696
G1 X125.556 Y112.382 E.01003
G1 X126.745 Y113.571 E.05321
G1 X126.745 Y114.109 E.01702
G1 X125.556 Y112.921 E.05318
G1 X125.556 Y113.459 E.01702
G1 X126.745 Y114.648 E.05321
G1 X126.745 Y115.186 E.01702
G1 X125.556 Y113.997 E.05321
G1 X125.556 Y114.535 E.01702
G1 X126.745 Y115.724 E.05321
G1 X126.745 Y116.262 E.01702
G1 X125.556 Y115.073 E.05321
G1 X125.556 Y115.611 E.01702
G1 X126.745 Y116.8 E.05321
G1 X126.745 Y117.338 E.01702
G1 X125.556 Y116.15 E.05318
G1 X125.556 Y116.688 E.01702
G1 X126.745 Y117.877 E.05321
G1 X126.745 Y118.415 E.01702
G1 X125.556 Y117.226 E.05321
G1 X125.556 Y117.764 E.01702
G1 X126.745 Y118.953 E.05321
G1 X126.745 Y119.491 E.01702
G1 X125.556 Y118.302 E.05321
G1 X125.556 Y118.84 E.01702
G1 X126.745 Y120.029 E.05321
G1 X126.745 Y120.567 E.01702
G1 X125.556 Y119.379 E.05318
G1 X125.556 Y119.917 E.01702
G1 X126.745 Y121.106 E.05321
G1 X126.745 Y121.644 E.01702
G1 X125.556 Y120.455 E.05321
G1 X125.556 Y120.993 E.01702
G1 X126.745 Y122.182 E.05321
G1 X126.745 Y122.72 E.01702
G1 X125.556 Y121.531 E.05321
G1 X125.556 Y122.069 E.01702
G1 X126.745 Y123.258 E.05321
G1 X126.745 Y123.796 E.01702
G1 X125.556 Y122.608 E.05318
G1 X125.556 Y123.146 E.01702
G1 X126.745 Y124.335 E.05321
G1 X126.745 Y124.873 E.01702
G1 X125.556 Y123.684 E.05321
G1 X125.556 Y124.222 E.01702
G1 X126.745 Y125.411 E.05321
G1 X126.745 Y125.949 E.01702
G1 X125.556 Y124.76 E.05321
G1 X125.556 Y125.298 E.01702
G1 X126.745 Y126.487 E.05321
G1 X126.745 Y127.025 E.01702
G1 X125.556 Y125.836 E.05321
G1 X125.556 Y126.375 E.01705
G1 X126.745 Y127.563 E.05318
G1 X126.745 Y128.102 E.01705
G1 X125.556 Y126.913 E.05321
G1 X125.556 Y127.451 E.01702
G1 X126.745 Y128.64 E.05321
G1 X126.745 Y129.178 E.01702
G1 X125.556 Y127.989 E.05321
G1 X125.556 Y128.527 E.01702
G1 X126.745 Y129.716 E.05321
G1 X126.745 Y130.254 E.01702
G1 X125.556 Y129.065 E.05321
G1 X125.556 Y129.604 E.01705
G1 X126.745 Y130.792 E.05318
G1 X126.745 Y131.331 E.01705
G1 X125.556 Y130.142 E.05321
G1 X125.556 Y130.68 E.01702
G1 X126.745 Y131.869 E.05321
G1 X126.745 Y132.407 E.01702
G1 X125.556 Y131.218 E.05321
G1 X125.556 Y131.756 E.01702
G1 X126.745 Y132.945 E.05321
G1 X126.745 Y133.483 E.01702
G1 X125.556 Y132.294 E.05321
G1 X125.556 Y132.833 E.01705
G1 X126.745 Y134.021 E.05318
G1 X126.745 Y134.56 E.01705
G1 X125.556 Y133.371 E.05321
G1 X125.556 Y133.909 E.01702
G1 X126.745 Y135.098 E.05321
G1 X126.745 Y135.636 E.01702
G1 X125.556 Y134.447 E.05321
G1 X125.556 Y134.985 E.01702
G1 X126.745 Y136.174 E.05321
G1 X126.745 Y136.712 E.01702
G1 X125.556 Y135.523 E.05321
G1 X125.556 Y136.062 E.01705
G1 X126.745 Y137.25 E.05318
G1 X126.745 Y137.789 E.01705
G1 X125.556 Y136.6 E.05321
G1 X125.556 Y137.138 E.01702
G1 X126.745 Y138.327 E.05321
G1 X126.745 Y138.865 E.01702
G1 X125.556 Y137.676 E.05321
G1 X125.556 Y138.214 E.01702
G1 X126.745 Y139.403 E.05321
G1 X126.745 Y139.941 E.01702
G1 X125.556 Y138.752 E.05321
G1 X125.556 Y139.291 E.01705
G1 X126.745 Y140.479 E.05318
G1 X126.745 Y141.018 E.01705
G1 X125.556 Y139.829 E.05321
G1 X125.556 Y140.367 E.01702
G1 X126.745 Y141.556 E.05321
G1 X126.745 Y142.094 E.01702
G1 X125.556 Y140.905 E.05321
G1 X125.556 Y141.443 E.01702
G1 X126.745 Y142.632 E.05321
G1 X126.745 Y143.17 E.01702
G1 X125.556 Y141.981 E.05321
G1 X125.556 Y142.52 E.01705
G1 X126.745 Y143.708 E.05318
G1 X126.745 Y144.131 E.01338
G1 X126.62 Y144.122 E.00397
G1 X125.556 Y143.058 E.04761
G1 X125.556 Y143.596 E.01702
G1 X126.221 Y144.261 E.02976
M204 S1000
; stop printing object Back_Right_Bracket_rev1 id:1 copy 0
; printing object Left_Side_Bracket_rev0-2 id:3 copy 0
;WIPE_START
G1 F8640
G1 X125.556 Y143.596 E-.21715
G1 X125.556 Y143.058 E-.12423
G1 X126.62 Y144.122 E-.34744
G1 X126.745 Y144.131 E-.02894
G1 X126.745 Y143.708 E-.09767
G1 X126.18 Y143.143 E-.18457
;WIPE_END
G1 Z.4 F720
G1 X98.271 Y96.359 F10800
G1 Z.2 F720
G1 E1 F2100
M204 S800
;TYPE:Perimeter
;WIDTH:0.419999
G1 F1200
G1 X98.452 Y96.778 E.01431
G1 X99 Y97.204 E.02176
G1 X99.508 Y97.306 E.01625
G1 X104.788 Y97.306 E.16555
G1 X104.788 Y100.823 E.11027
G1 X98.271 Y100.823 E.20434
G1 X98.271 Y96.419 E.13808
M204 S1000
;WIPE_START
G1 F8640
G1 X98.452 Y96.778 E-.09283
G1 X99 Y97.204 E-.16027
G1 X99.508 Y97.306 E-.11964
G1 X102.225 Y97.306 E-.62726
;WIPE_END
G1 Z.4 F720
G1 X98.282 Y73.857 F10800
G1 Z.2 F720
G1 E1 F2100
M204 S800
G1 F1200
G1 X98.271 Y73.893 E.00118
G1 X98.271 Y71.001 E.09068
G1 X99.075 Y70.406 E.03136
G1 X104.776 Y70.406 E.17875
G1 X104.776 Y72.823 E.07578
G1 X99.493 Y72.823 E.16564
G1 X98.988 Y72.93 E.01619
G1 X98.447 Y73.358 E.02163
G1 X98.301 Y73.8 E.0146
M204 S1000
G1 X98.61 Y73.886 F10800
M204 S800
;WIDTH:0.518201
G1 F1200
G1 X98.578 Y73.956 E.00304
;WIDTH:0.567302
G1 X98.492 Y74.143 E.00897
G1 X98.492 Y95.986 E.95241
;WIDTH:0.576989
G1 X98.502 Y96.162 E.00783
G1 X98.565 Y96.26 E.00517
;WIDTH:0.537742
G1 X98.628 Y96.357 E.00476
;WIDTH:0.498494
G1 X98.691 Y96.454 E.00438
;WIDTH:0.459247
G1 X98.754 Y96.552 E.00403
;WIDTH:0.419999
G1 X99.145 Y96.856 E.01553
G1 X99.508 Y96.929 E.01161
G1 X105.165 Y96.929 E.17737
