; generated by PrusaSlicer 2.6.1+win64 on 2023-09-24 at 08:27:07 UTC


;
;
; 

; external perimeters extrusion width = 0.45mm
; perimeters extrusion width = 0.45mm
; infill extrusion width = 0.45mm
; solid infill extrusion width = 0.45mm
; top infill extrusion width = 0.40mm
; support material extrusion width = 0.35mm
; first layer extrusion width = 0.42mm

; external perimeters extrusion width = 0.45mm
; perimeters extrusion width = 0.45mm
; infill extrusion width = 0.45mm
; solid infill extrusion width = 0.45mm
; top infill extrusion width = 0.40mm
; support material extrusion width = 0.35mm
; first layer extrusion width = 0.42mm

M73 P0 R91
M73 Q0 S92
M201 X1000 Y1000 Z200 E5000 ; sets maximum accelerations, mm/sec^2
M203 X200 Y200 Z12 E120 ; sets maximum feedrates, mm / sec
M204 S1250 T1250 ; sets acceleration (S) and retract acceleration (R), mm/sec^2
M205 X8.00 Y8.00 Z0.40 E4.50 ; sets the jerk limits, mm/sec
M205 S0 T0 ; sets the minimum extruding and travel feed rate, mm/sec
;TYPE:Custom
M862.3 P "MK3S" ; printer model check
M862.1 P0.4 ; nozzle diameter check
M115 U3.12.2 ; tell printer latest fw version
G90 ; use absolute coordinates
M83 ; extruder relative mode
M104 S240 ; set extruder temp
M140 S85 ; set bed temp
M190 S85 ; wait for bed temp
M109 S240 ; wait for extruder temp
G28 W ; home all without mesh bed level
G80 ; mesh bed leveling

G1 Z0.2 F720
G1 Y-3 F1000 ; go outside print area
G92 E0
G1 X60 E9 F1000 ; intro line
G1 X100 E12.5 F1000 ; intro line

G92 E0
M221 S95

; Don't change E values below. Excessive value can damage the printer.
M907 E430 ; set extruder motor current
G21 ; set units to millimeters
G90 ; use absolute coordinates
M83 ; use relative distances for extrusion
M900 K0.08 ; Filament gcode LA 1.5
M900 K45 ; Filament gcode LA 1.0
M107
;LAYER_CHANGE
;Z:0.2
;HEIGHT:0.2
;BEFORE_LAYER_CHANGE
G92 E0.0
;0.2


G1 E-1 F2100
G1 Z.2 F720
;AFTER_LAYER_CHANGE
;0.2
G1 Z.4
G1 X104.086 Y72.903 F10800
G1 Z.2 F720
G1 E1 F2100
M204 S800
;TYPE:Skirt/Brim
;WIDTH:0.42
G1 F1200
G1 X105.083 Y71.971 E.04279
G1 X106.14 Y71.723 E.03404
G1 X147.171 Y71.723 E1.2865
G1 X148.481 Y72.117 E.04289
G1 X154.608 Y76.164 E.23023
G1 X155.483 Y77.212 E.04281
G1 X155.675 Y78.122 E.02916
G1 X155.968 Y105.068 E.84492
G1 X155.969 Y131.852 E.83979
G1 X155.577 Y133.159 E.04278
G1 X154.902 Y133.836 E.02998
G1 X148.775 Y137.883 E.23023
G1 X147.464 Y138.277 E.04292
G1 X106.433 Y138.277 E1.2865
G1 X105.126 Y137.886 E.04277
G1 X104.38 Y137.097 E.03405
G1 X99.268 Y128.329 E.31823
G1 X94.578 Y119.013 E.32702
G1 X94.326 Y117.999 E.03276
G1 X94.032 Y104.959 E.40896
G1 X94.031 Y92.055 E.4046
G1 X94.285 Y90.987 E.03442
G1 X98.905 Y81.8 E.32242
G1 X104.056 Y72.955 E.32093
M204 S1000
; printing object Left_MG996R_Back_Plate_rev1 id:0 copy 0
;WIPE_START
G1 F8640
G1 X105.083 Y71.971 E-.32842
G1 X106.14 Y71.723 E-.25069
G1 X107.963 Y71.723 E-.42089
;WIPE_END
G1 Z.4 F720
G1 X110.559 Y83.401 F10800
G1 Z.2 F720
G1 E1 F2100
M204 S800
;TYPE:Support material
G1 F1200
G1 X110.784 Y83.46 E.00729
G1 X110.996 Y83.555 E.00728
G1 X111.188 Y83.685 E.00727
G1 X111.355 Y83.846 E.00727
G1 X111.493 Y84.033 E.00729
G1 X111.598 Y84.24 E.00728
G1 X111.666 Y84.462 E.00728
G1 X111.695 Y84.692 E.00727
G1 X111.685 Y84.924 E.00728
G1 X111.637 Y85.151 E.00727
G1 X111.55 Y85.366 E.00727
G1 X111.428 Y85.564 E.00729
G1 X111.275 Y85.738 E.00726
G1 X111.094 Y85.884 E.00729
G1 X110.892 Y85.997 E.00726
G1 X110.673 Y86.074 E.00728
G1 X110.444 Y86.113 E.00728
G1 X110.212 Y86.113 E.00727
G1 X109.983 Y86.074 E.00728
G1 X109.765 Y85.997 E.00725
G1 X109.562 Y85.884 E.00728
G1 X109.381 Y85.738 E.00729
G1 X109.228 Y85.564 E.00726
G1 X109.106 Y85.366 E.00729
G1 X109.02 Y85.151 E.00726
G1 X108.971 Y84.924 E.00728
G1 X108.961 Y84.692 E.00728
G1 X108.991 Y84.462 E.00727
G1 X109.059 Y84.24 E.00728
G1 X109.163 Y84.033 E.00726
G1 X109.301 Y83.846 E.00729
G1 X109.469 Y83.685 E.0073
G1 X109.661 Y83.555 E.00727
G1 X109.872 Y83.46 E.00726
G1 X110.097 Y83.401 E.00729
G1 X110.328 Y83.382 E.00727
G1 X110.503 Y83.397 E.00551
M204 S1000
G1 X111.027 Y85.72 F10800
M204 S800
G1 F1200
G1 X111.027 Y84.001 E.0539
G1 X110.829 Y83.853 E.00775
G1 X110.608 Y83.765 E.00746
G1 X110.608 Y85.737 E.06183
G1 X110.415 Y85.774 E.00616
G1 X110.189 Y85.765 E.00709
G1 X110.189 Y83.734 E.06368
G1 X109.986 Y83.781 E.00653
G1 X109.77 Y83.891 E.0076
G1 X109.77 Y85.611 E.05393
G1 X109.617 Y85.492 E.00608
G1 X109.502 Y85.361 E.00547
G1 X109.411 Y85.213 E.00545
G1 X109.351 Y85.065 E.00501
G1 X109.351 Y84.064 E.03139
M204 S1000
;WIPE_START
G1 F8640
G1 X109.351 Y85.065 E-.23113
G1 X109.411 Y85.213 E-.03688
G1 X109.502 Y85.361 E-.04012
G1 X109.617 Y85.492 E-.04025
G1 X109.77 Y85.611 E-.04476
G1 X109.77 Y83.891 E-.39715
G1 X109.986 Y83.781 E-.05597
G1 X110.189 Y83.734 E-.04811
G1 X110.189 Y84.191 E-.10563
;WIPE_END
G1 Z.4 F720
G1 X100.548 Y96.432 F10800
G1 Z.2 F720
G1 E1 F2100
M204 S800
G1 F1200
G1 X100.829 Y96.713 E.01246
G1 X101.364 Y96.713 E.01677
G1 X101.635 Y96.693 E.00852
G1 X101.927 Y96.629 E.00937
G1 X102.206 Y96.521 E.00938
G1 X102.466 Y96.372 E.0094
G1 X103.077 Y95.886 E.02448
G1 X103.482 Y95.661 E.01453
G1 X103.92 Y95.507 E.01456
G1 X104.376 Y95.426 E.01452
G1 X104.84 Y95.423 E.01455
G1 X105.298 Y95.496 E.01454
G1 X105.737 Y95.644 E.01453
G1 X106.146 Y95.862 E.01453
G1 X106.513 Y96.145 E.01453
G1 X106.829 Y96.485 E.01455
G1 X107.083 Y96.872 E.01451
G1 X107.271 Y97.297 E.01457
G1 X107.387 Y97.753 E.01475
G1 X107.419 Y98.034 E.00887
G1 X107.425 Y99.036 E.03142
G1 X107.659 Y99.27 E.01038
G1 X105.942 Y99.27 E.05384
G1 X105.942 Y102.326 E.09582
G1 X108.998 Y102.326 E.09582
G1 X108.998 Y99.27 E.09582
G1 X108.803 Y99.27 E.00611
G1 X108.949 Y99.157 E.00579
G1 X109.034 Y98.801 E.01148
G1 X109.128 Y98.591 E.00721
G1 X109.248 Y98.409 E.00684
G1 X109.394 Y98.249 E.00679
G1 X109.58 Y98.104 E.00739
G1 X109.779 Y97.997 E.00708
G1 X109.992 Y97.924 E.00706
G1 X110.215 Y97.886 E.00709
G1 X110.441 Y97.886 E.00709
G1 X110.664 Y97.924 E.00709
G1 X110.878 Y97.997 E.00709
G1 X111.077 Y98.104 E.00708
G1 X111.263 Y98.249 E.00739
G1 X111.409 Y98.409 E.00679
G1 X111.528 Y98.591 E.00682
G1 X111.622 Y98.801 E.00721
G1 X111.706 Y99.151 E.01129
G1 X111.853 Y99.27 E.00593
G1 X110.577 Y99.27 E.04001
G1 X110.577 Y102.326 E.09582
G1 X113.633 Y102.326 E.09582
G1 X113.633 Y99.849 E.07766
G1 X112.153 Y99.849 E.0464
G1 X112.118 Y99.814 E.00155
G1 X112.118 Y99.365 E.01408
G1 X136.355 Y99.356 E.75993
G1 X144.588 Y99.359 E.25814
G1 X144.588 Y99.814 E.01427
G1 X144.553 Y99.849 E.00155
G1 X143.027 Y99.849 E.04785
G1 X143.027 Y102.326 E.07766
G1 X146.083 Y102.326 E.09582
G1 X146.083 Y99.27 E.09582
G1 X144.85 Y99.27 E.03866
G1 X144.998 Y99.153 E.00592
G1 X145.08 Y98.812 E.011
G1 X145.157 Y98.632 E.00614
G1 X145.274 Y98.441 E.00702
G1 X145.374 Y98.318 E.00497
G1 X145.574 Y98.143 E.00833
G1 X145.757 Y98.031 E.00673
G1 X145.955 Y97.948 E.00673
G1 X146.164 Y97.898 E.00674
G1 X146.397 Y97.88 E.00733
G1 X148.877 Y97.88 E.07776
G1 X149.158 Y97.599 E.01246
G1 X149.158 Y94.372 E.10118
G1 X153.298 Y94.372 E.12981
G1 X153.298 Y104.906 E.33029
G1 X96.409 Y104.906 E1.78371
G1 X96.409 Y92.055 E.40293
G1 X100.548 Y92.055 E.12978
G1 X100.548 Y96.375 E.13545
M204 S1000
;WIPE_START
G1 F8640
G1 X100.548 Y92.055 E-.9975
G1 X100.537 Y92.055 E-.0025
;WIPE_END
G1 Z.4 F720
G1 X152.925 Y104.736 F10800
G1 Z.2 F720
G1 E1 F2100
M204 S800
G1 F1200
G1 X152.925 Y94.712 E.3143
G1 X152.506 Y94.712 E.01314
G1 X152.506 Y104.566 E.30897
G1 X152.087 Y104.566 E.01314
G1 X152.087 Y94.712 E.30897
G1 X151.668 Y94.712 E.01314
G1 X151.668 Y104.566 E.30897
G1 X151.249 Y104.566 E.01314
G1 X151.249 Y94.712 E.30897
G1 X150.83 Y94.712 E.01314
G1 X150.83 Y104.566 E.30897
G1 X150.411 Y104.566 E.01314
G1 X150.411 Y94.712 E.30897
G1 X149.992 Y94.712 E.01314
G1 X149.992 Y104.566 E.30897
G1 X149.573 Y104.566 E.01314
G1 X149.573 Y94.712 E.30897
G1 X149.498 Y94.712 E.00235
G1 X149.498 Y97.739 E.09491
G1 X149.154 Y98.083 E.01525
G1 X149.154 Y104.566 E.20327
G1 X148.735 Y104.566 E.01314
G1 X148.735 Y98.219 E.19901
G1 X148.316 Y98.219 E.01314
G1 X148.316 Y104.566 E.19901
G1 X147.897 Y104.566 E.01314
G1 X147.897 Y98.219 E.19901
G1 X147.478 Y98.219 E.01314
G1 X147.478 Y104.566 E.19901
G1 X147.059 Y104.566 E.01314
G1 X147.059 Y98.219 E.19901
G1 X146.64 Y98.219 E.01314
G1 X146.64 Y104.566 E.19901
G1 X146.221 Y104.566 E.01314
G1 X146.221 Y102.665 E.0596
G1 X145.802 Y102.665 E.01314
G1 X145.802 Y104.566 E.0596
G1 X145.383 Y104.566 E.01314
G1 X145.383 Y102.665 E.0596
G1 X144.964 Y102.665 E.01314
G1 X144.964 Y104.566 E.0596
G1 X144.545 Y104.566 E.01314
G1 X144.545 Y102.665 E.0596
G1 X144.126 Y102.665 E.01314
G1 X144.126 Y104.566 E.0596
G1 X143.707 Y104.566 E.01314
G1 X143.707 Y102.665 E.0596
G1 X143.288 Y102.665 E.01314
G1 X143.288 Y104.566 E.0596
G1 X142.869 Y104.566 E.01314
G1 X142.869 Y102.665 E.0596
G1 X142.687 Y102.665 E.00571
G1 X142.687 Y99.698 E.09303
G1 X142.45 Y99.698 E.00743
G1 X142.45 Y104.566 E.15263
G1 X142.031 Y104.566 E.01314
G1 X142.031 Y99.697 E.15266
G1 X141.612 Y99.697 E.01314
G1 X141.612 Y104.566 E.15266
G1 X141.193 Y104.566 E.01314
G1 X141.193 Y99.697 E.15266
G1 X140.774 Y99.697 E.01314
G1 X140.774 Y104.566 E.15266
G1 X140.355 Y104.566 E.01314
G1 X140.355 Y99.697 E.15266
G1 X139.936 Y99.697 E.01314
G1 X139.936 Y104.566 E.15266
G1 X139.517 Y104.566 E.01314
G1 X139.517 Y99.697 E.15266
G1 X139.098 Y99.696 E.01314
G1 X139.098 Y104.566 E.1527
G1 X138.679 Y104.566 E.01314
G1 X138.679 Y99.696 E.1527
G1 X138.26 Y99.696 E.01314
G1 X138.26 Y104.566 E.1527
G1 X137.842 Y104.566 E.01311
G1 X137.842 Y99.696 E.1527
G1 X137.423 Y99.696 E.01314
G1 X137.423 Y104.566 E.1527
G1 X137.004 Y104.566 E.01314
G1 X137.004 Y99.696 E.1527
G1 X136.585 Y99.696 E.01314
G1 X136.585 Y104.566 E.1527
G1 X136.166 Y104.566 E.01314
G1 X136.166 Y99.696 E.1527
G1 X135.747 Y99.697 E.01314
G1 X135.747 Y104.566 E.15266
G1 X135.328 Y104.566 E.01314
G1 X135.328 Y99.697 E.15266
G1 X134.909 Y99.698 E.01314
G1 X134.909 Y104.566 E.15263
G1 X134.49 Y104.566 E.01314
G1 X134.49 Y99.698 E.15263
G1 X134.071 Y99.699 E.01314
G1 X134.071 Y104.566 E.1526
G1 X133.652 Y104.566 E.01314
M73 Q0 S91
G1 X133.652 Y99.699 E.1526
G1 X133.233 Y99.7 E.01314
G1 X133.233 Y104.566 E.15257
G1 X132.814 Y104.566 E.01314
G1 X132.814 Y99.7 E.15257
G1 X132.395 Y99.701 E.01314
G1 X132.395 Y104.566 E.15254
G1 X131.976 Y104.566 E.01314
G1 X131.976 Y99.701 E.15254
G1 X131.557 Y99.702 E.01314
G1 X131.557 Y104.566 E.15251
G1 X131.138 Y104.566 E.01314
G1 X131.138 Y99.702 E.15251
G1 X130.719 Y99.703 E.01314
G1 X130.719 Y104.566 E.15248
G1 X130.3 Y104.566 E.01314
G1 X130.3 Y99.703 E.15248
G1 X129.881 Y99.704 E.01314
G1 X129.881 Y104.566 E.15244
G1 X129.462 Y104.566 E.01314
G1 X129.462 Y99.704 E.15244
G1 X129.043 Y99.704 E.01314
G1 X129.043 Y104.566 E.15244
G1 X128.624 Y104.566 E.01314
G1 X128.624 Y99.704 E.15244
G1 X128.205 Y99.704 E.01314
G1 X128.205 Y104.566 E.15244
G1 X127.786 Y104.566 E.01314
G1 X127.786 Y99.704 E.15244
G1 X127.367 Y99.704 E.01314
G1 X127.367 Y104.566 E.15244
G1 X126.948 Y104.566 E.01314
G1 X126.948 Y99.704 E.15244
G1 X126.529 Y99.704 E.01314
G1 X126.529 Y104.566 E.15244
G1 X126.11 Y104.566 E.01314
G1 X126.11 Y99.704 E.15244
G1 X125.691 Y99.704 E.01314
G1 X125.691 Y104.566 E.15244
G1 X125.272 Y104.566 E.01314
G1 X125.272 Y99.704 E.15244
G1 X124.853 Y99.704 E.01314
G1 X124.853 Y104.566 E.15244
M73 P0 R90
G1 X124.434 Y104.566 E.01314
G1 X124.434 Y99.704 E.15244
G1 X124.015 Y99.704 E.01314
G1 X124.015 Y104.566 E.15244
G1 X123.596 Y104.566 E.01314
G1 X123.596 Y99.704 E.15244
G1 X123.177 Y99.704 E.01314
G1 X123.177 Y104.566 E.15244
G1 X122.758 Y104.566 E.01314
G1 X122.758 Y99.704 E.15244
G1 X122.339 Y99.704 E.01314
G1 X122.339 Y104.566 E.15244
G1 X121.92 Y104.566 E.01314
G1 X121.92 Y99.704 E.15244
G1 X121.501 Y99.704 E.01314
G1 X121.501 Y104.566 E.15244
G1 X121.082 Y104.566 E.01314
G1 X121.082 Y99.704 E.15244
G1 X120.663 Y99.704 E.01314
G1 X120.663 Y104.566 E.15244
G1 X120.244 Y104.566 E.01314
G1 X120.244 Y99.704 E.15244
G1 X119.825 Y99.704 E.01314
G1 X119.825 Y104.566 E.15244
G1 X119.407 Y104.566 E.01311
M73 P1 R90
M73 Q1 S91
G1 X119.407 Y99.704 E.15244
G1 X118.988 Y99.704 E.01314
G1 X118.988 Y104.566 E.15244
G1 X118.569 Y104.566 E.01314
G1 X118.569 Y99.704 E.15244
G1 X118.15 Y99.705 E.01314
G1 X118.15 Y104.566 E.15241
G1 X117.731 Y104.566 E.01314
G1 X117.731 Y99.705 E.15241
G1 X117.312 Y99.705 E.01314
G1 X117.312 Y104.566 E.15241
G1 X116.893 Y104.566 E.01314
G1 X116.893 Y99.705 E.15241
G1 X116.474 Y99.705 E.01314
G1 X116.474 Y104.566 E.15241
G1 X116.055 Y104.566 E.01314
G1 X116.055 Y99.705 E.15241
G1 X115.636 Y99.705 E.01314
G1 X115.636 Y104.566 E.15241
G1 X115.217 Y104.566 E.01314
G1 X115.217 Y99.705 E.15241
G1 X114.798 Y99.705 E.01314
G1 X114.798 Y104.566 E.15241
G1 X114.379 Y104.566 E.01314
G1 X114.379 Y99.705 E.15241
G1 X113.973 Y99.705 E.01273
G1 X113.96 Y104.566 E.15241
G1 X113.541 Y104.566 E.01314
G1 X113.541 Y102.665 E.0596
G1 X113.122 Y102.665 E.01314
G1 X113.122 Y104.566 E.0596
G1 X112.703 Y104.566 E.01314
G1 X112.703 Y102.665 E.0596
G1 X112.284 Y102.665 E.01314
G1 X112.284 Y104.566 E.0596
G1 X111.865 Y104.566 E.01314
G1 X111.865 Y102.665 E.0596
G1 X111.446 Y102.665 E.01314
G1 X111.446 Y104.566 E.0596
G1 X111.027 Y104.566 E.01314
G1 X111.027 Y102.665 E.0596
G1 X110.608 Y102.665 E.01314
G1 X110.608 Y104.566 E.0596
G1 X110.189 Y104.566 E.01314
G1 X110.189 Y98.235 E.1985
G1 X110.413 Y98.226 E.00703
G1 X110.608 Y98.263 E.00622
G1 X110.608 Y98.931 E.02094
G1 X111.027 Y98.931 E.01314
G1 X111.027 Y98.281 E.02038
M204 S1000
;WIPE_START
G1 F8640
G1 X111.027 Y98.931 E-.15009
G1 X110.608 Y98.931 E-.09675
G1 X110.608 Y98.263 E-.15424
G1 X110.413 Y98.226 E-.04583
G1 X110.189 Y98.235 E-.05176
G1 X110.189 Y100.406 E-.50133
;WIPE_END
G1 Z.4 F720
G1 X146.221 Y99.1 F10800
G1 Z.2 F720
G1 E1 F2100
M204 S800
G1 F1200
G1 X146.221 Y98.234 E.02715
G1 X146.061 Y98.272 E.00516
G1 X145.802 Y98.401 E.00907
G1 X145.802 Y99.1 E.02192
M204 S1000
G1 X109.77 Y104.736 F10800
M204 S800
G1 F1200
G1 X109.77 Y98.387 E.19907
G1 X109.619 Y98.504 E.00599
G1 X109.516 Y98.617 E.00479
G1 X109.43 Y98.748 E.00491
G1 X109.351 Y98.926 E.00611
G1 X109.351 Y104.566 E.17684
G1 X108.932 Y104.566 E.01314
G1 X108.932 Y102.665 E.0596
G1 X108.513 Y102.665 E.01314
G1 X108.513 Y104.566 E.0596
G1 X108.094 Y104.566 E.01314
G1 X108.094 Y102.665 E.0596
G1 X107.675 Y102.665 E.01314
G1 X107.675 Y104.566 E.0596
G1 X107.256 Y104.566 E.01314
G1 X107.256 Y102.665 E.0596
G1 X106.837 Y102.665 E.01314
G1 X106.837 Y104.566 E.0596
G1 X106.418 Y104.566 E.01314
G1 X106.418 Y102.665 E.0596
G1 X105.999 Y102.665 E.01314
G1 X105.999 Y104.566 E.0596
G1 X105.58 Y104.566 E.01314
G1 X105.58 Y95.949 E.27018
G1 X105.161 Y95.818 E.01376
G1 X105.161 Y104.566 E.27429
G1 X104.742 Y104.566 E.01314
G1 X104.742 Y95.763 E.27601
G1 X104.323 Y95.78 E.01315
G1 X104.323 Y104.566 E.27548
G1 X103.904 Y104.566 E.01314
G1 X103.904 Y95.872 E.27259
G1 X103.622 Y95.972 E.00938
G1 X103.485 Y96.048 E.00491
G1 X103.485 Y104.566 E.26708
G1 X103.066 Y104.566 E.01314
G1 X103.066 Y96.329 E.25827
G1 X102.647 Y96.659 E.01672
G1 X102.647 Y104.566 E.24792
G1 X102.228 Y104.566 E.01314
G1 X102.228 Y96.877 E.24108
G1 X102.016 Y96.957 E.0071
G1 X101.809 Y97.004 E.00666
G1 X101.809 Y104.566 E.2371
G1 X101.391 Y104.566 E.01311
G1 X101.391 Y97.052 E.2356
G1 X100.972 Y97.052 E.01314
G1 X100.972 Y104.566 E.2356
G1 X100.553 Y104.566 E.01314
G1 X100.553 Y96.916 E.23986
G1 X100.209 Y96.572 E.01525
G1 X100.209 Y92.394 E.131
G1 X100.134 Y92.394 E.00235
G1 X100.134 Y104.566 E.38164
G1 X99.715 Y104.566 E.01314
G1 X99.715 Y92.394 E.38164
G1 X99.296 Y92.394 E.01314
G1 X99.296 Y104.566 E.38164
G1 X98.877 Y104.566 E.01314
G1 X98.877 Y92.394 E.38164
G1 X98.458 Y92.394 E.01314
G1 X98.458 Y104.566 E.38164
G1 X98.039 Y104.566 E.01314
G1 X98.039 Y92.394 E.38164
G1 X97.62 Y92.394 E.01314
G1 X97.62 Y104.566 E.38164
G1 X97.201 Y104.566 E.01314
G1 X97.201 Y92.394 E.38164
G1 X96.782 Y92.394 E.01314
G1 X96.782 Y104.736 E.38697
M204 S1000
;WIPE_START
G1 F8640
G1 X96.782 Y100.405 E-1
;WIPE_END
G1 Z.4 F720
G1 X106.837 Y99.1 F10800
G1 Z.2 F720
G1 E1 F2100
M204 S800
G1 F1200
