; generated by PrusaSlicer 2.6.0+win64 on 2023-08-01 at 10:51:41 UTC


;
;
; 

; external perimeters extrusion width = 0.45mm
; perimeters extrusion width = 0.45mm
; infill extrusion width = 0.45mm
; solid infill extrusion width = 0.45mm
; top infill extrusion width = 0.40mm
; support material extrusion width = 0.35mm
; first layer extrusion width = 0.42mm

M73 P0 R75
M73 Q0 S76
M201 X1000 Y1000 Z200 E5000 ; sets maximum accelerations, mm/sec^2
M203 X200 Y200 Z12 E120 ; sets maximum feedrates, mm / sec
M204 S1250 T1250 ; sets acceleration (S) and retract acceleration (R), mm/sec^2
M205 X8.00 Y8.00 Z0.40 E4.50 ; sets the jerk limits, mm/sec
M205 S0 T0 ; sets the minimum extruding and travel feed rate, mm/sec
;TYPE:Custom
M862.3 P "MK3S" ; printer model check
M862.1 P0.4 ; nozzle diameter check
M115 U3.12.2 ; tell printer latest fw version
G90 ; use absolute coordinates
M83 ; extruder relative mode
M104 S230 ; set extruder temp
M140 S85 ; set bed temp
M190 S85 ; wait for bed temp
M109 S230 ; wait for extruder temp
G28 W ; home all without mesh bed level
G80 ; mesh bed leveling

G1 Z0.2 F720
G1 Y-3 F1000 ; go outside print area
G92 E0
G1 X60 E9 F1000 ; intro line
G1 X100 E12.5 F1000 ; intro line

G92 E0
M221 S95

; Don't change E values below. Excessive value can damage the printer.

M907 E538 ; set extruder motor current
G21 ; set units to millimeters
G90 ; use absolute coordinates
M83 ; use relative distances for extrusion
M900 K0.08 ; Filament gcode LA 1.5
M900 K45 ; Filament gcode LA 1.0
M107
;LAYER_CHANGE
;Z:0.2
;HEIGHT:0.2
;BEFORE_LAYER_CHANGE
G92 E0.0
;0.2


G1 E-1 F2100
M73 Q0 S75
G1 Z.2 F720
;AFTER_LAYER_CHANGE
;0.2
G1 Z.4
G1 X90.365 Y91.544 F10800
G1 Z.2 F720
G1 E1 F2100
M204 S800
;TYPE:Skirt/Brim
;WIDTH:0.42
G1 F1200
G1 X91.41 Y90.667 E.04277
G1 X92.35 Y90.474 E.03009
G1 X157.65 Y90.474 E2.04744
G1 X158.957 Y90.865 E.04277
G1 X159.833 Y91.911 E.04278
G1 X160.027 Y92.851 E.03009
G1 X160.027 Y109.251 E.51421
G1 X159.635 Y110.558 E.04278
G1 X158.393 Y111.509 E.04905
G1 X134.468 Y119.355 E.78946
G1 X133.13 Y119.526 E.04229
G1 X116.87 Y119.526 E.50982
G1 X115.532 Y119.355 E.04229
G1 X91.607 Y111.509 E.78946
G1 X90.488 Y110.728 E.04279
G1 X89.973 Y109.251 E.04904
G1 X89.973 Y92.851 E.51421
G1 X90.347 Y91.601 E.04091
M204 S1000
; printing object AD002_Housing_rev0 id:0 copy 0
;WIPE_START
G1 F8640
G1 X91.41 Y90.667 E-.32674
G1 X92.35 Y90.474 E-.22158
G1 X94.306 Y90.474 E-.45168
;WIPE_END
G1 Z.4 F720
G1 X117.495 Y110.788 F10800
G1 Z.2 F720
G1 E1 F2100
M204 S800
;TYPE:Support material
G1 F1200
G1 X117.895 Y110.91 E.01311
G1 X118.269 Y111.099 E.01314
G1 X118.606 Y111.348 E.01314
G1 X118.895 Y111.65 E.01311
G1 X119.13 Y111.997 E.01314
G1 X119.302 Y112.378 E.01311
G1 X119.408 Y112.784 E.01316
G1 X119.443 Y113.201 E.01312
G1 X119.408 Y113.618 E.01312
G1 X119.302 Y114.023 E.01313
G1 X119.13 Y114.404 E.01311
G1 X118.895 Y114.751 E.01314
G1 X118.606 Y115.054 E.01313
G1 X118.269 Y115.302 E.01312
G1 X117.895 Y115.491 E.01314
G1 X117.495 Y115.614 E.01312
G1 X117.08 Y115.667 E.01312
G1 X116.661 Y115.649 E.01315
G1 X116.252 Y115.561 E.01312
G1 X115.864 Y115.405 E.01311
G1 X115.507 Y115.185 E.01315
G1 X115.193 Y114.909 E.01311
G1 X114.93 Y114.583 E.01313
G1 X114.726 Y114.217 E.01314
G1 X114.586 Y113.823 E.01311
G1 X114.516 Y113.41 E.01313
G1 X114.516 Y112.991 E.01314
G1 X114.586 Y112.579 E.0131
G1 X114.726 Y112.184 E.01314
G1 X114.93 Y111.819 E.01311
G1 X115.193 Y111.493 E.01313
G1 X115.507 Y111.216 E.01313
G1 X115.864 Y110.997 E.01313
G1 X116.252 Y110.841 E.01311
G1 X116.661 Y110.752 E.01312
G1 X117.08 Y110.735 E.01315
G1 X117.439 Y110.781 E.01135
M204 S1000
G1 X118.715 Y114.694 F10800
M204 S800
G1 F1200
G1 X118.715 Y111.99 E.08478
G1 X118.63 Y111.864 E.00477
G1 X118.381 Y111.604 E.01129
G1 X118.296 Y111.541 E.00332
G1 X118.296 Y114.86 E.10406
G1 X118.091 Y115.012 E.008
G1 X117.877 Y115.12 E.00752
G1 X117.877 Y111.281 E.12037
G1 X117.768 Y111.226 E.00383
G1 X117.458 Y111.132 E.01016
G1 X117.458 Y115.27 E.12974
G1 X117.039 Y115.325 E.01325
G1 X117.039 Y111.076 E.13322
G1 X116.62 Y111.108 E.01318
G1 X116.62 Y115.293 E.13122
G1 X116.352 Y115.235 E.0086
G1 X116.201 Y115.175 E.00509
G1 X116.201 Y111.227 E.12379
G1 X116.017 Y111.301 E.00622
G1 X115.783 Y111.445 E.00861
G1 X115.783 Y114.956 E.11008
G1 X115.439 Y114.673 E.01397
G1 X115.364 Y114.58 E.00375
G1 X115.364 Y111.822 E.08648
G1 X115.212 Y112.009 E.00756
G1 X115.036 Y112.324 E.01131
G1 X114.945 Y112.584 E.00864
G1 X114.945 Y114.261 E.05258
M204 S1000
;WIPE_START
G1 F8640
G1 X114.945 Y112.584 E-.38722
G1 X115.036 Y112.324 E-.06361
G1 X115.212 Y112.009 E-.08332
G1 X115.364 Y111.822 E-.05564
G1 X115.364 Y113.599 E-.41021
;WIPE_END
G1 Z.4 F720
G1 X133.545 Y110.788 F10800
G1 Z.2 F720
G1 E1 F2100
M204 S800
G1 F1200
G1 X133.945 Y110.91 E.01311
G1 X134.319 Y111.099 E.01314
G1 X134.656 Y111.348 E.01314
G1 X134.945 Y111.65 E.01311
G1 X135.18 Y111.997 E.01314
G1 X135.352 Y112.378 E.01311
G1 X135.458 Y112.784 E.01316
G1 X135.493 Y113.201 E.01312
G1 X135.458 Y113.618 E.01312
G1 X135.352 Y114.023 E.01313
G1 X135.18 Y114.404 E.01311
G1 X134.945 Y114.751 E.01314
G1 X134.656 Y115.054 E.01313
G1 X134.319 Y115.302 E.01312
G1 X133.945 Y115.491 E.01314
G1 X133.545 Y115.614 E.01312
G1 X133.13 Y115.667 E.01312
G1 X132.711 Y115.649 E.01315
G1 X132.302 Y115.561 E.01312
G1 X131.914 Y115.405 E.01311
G1 X131.557 Y115.185 E.01315
G1 X131.243 Y114.909 E.01311
G1 X130.98 Y114.583 E.01313
G1 X130.776 Y114.217 E.01314
G1 X130.636 Y113.823 E.01311
G1 X130.566 Y113.41 E.01313
G1 X130.566 Y112.991 E.01314
G1 X130.636 Y112.579 E.0131
G1 X130.776 Y112.184 E.01314
G1 X130.98 Y111.819 E.01311
G1 X131.243 Y111.493 E.01313
G1 X131.557 Y111.216 E.01313
G1 X131.914 Y110.997 E.01313
G1 X132.302 Y110.841 E.01311
G1 X132.711 Y110.752 E.01312
G1 X133.13 Y110.735 E.01315
G1 X133.489 Y110.781 E.01135
M204 S1000
G1 X135.055 Y114.268 F10800
M204 S800
G1 F1200
G1 X135.055 Y112.585 E.05277
G1 X135.031 Y112.492 E.00301
M73 P0 R74
G1 X134.882 Y112.163 E.01132
G1 X134.636 Y111.818 E.01329
G1 X134.636 Y114.583 E.08669
G1 X134.431 Y114.798 E.00931
G1 X134.217 Y114.956 E.00834
G1 X134.217 Y111.446 E.11005
G1 X134.141 Y111.389 E.00298
G1 X133.799 Y111.22 E.01196
G1 X133.799 Y115.181 E.12419
G1 X133.473 Y115.281 E.01069
G1 X133.38 Y115.293 E.00294
G1 X133.38 Y111.109 E.13119
G1 X133.115 Y111.075 E.00838
G1 X132.961 Y111.082 E.00483
G1 X132.961 Y115.32 E.13288
G1 X132.755 Y115.311 E.00647
G1 X132.542 Y115.265 E.00683
G1 X132.542 Y111.136 E.12946
G1 X132.402 Y111.166 E.00449
G1 X132.123 Y111.279 E.00944
G1 X132.123 Y115.123 E.12053
G1 X131.704 Y114.862 E.01548
G1 X131.704 Y111.54 E.10416
G1 X131.489 Y111.728 E.00895
G1 X131.285 Y111.981 E.01019
G1 X131.285 Y114.69 E.08494
M204 S1000
;WIPE_START
G1 F8640
G1 X131.285 Y111.981 E-.62552
G1 X131.489 Y111.728 E-.07504
G1 X131.704 Y111.54 E-.06595
G1 X131.704 Y112.551 E-.23349
;WIPE_END
G1 Z.4 F720
G1 X153.862 Y97.883 F10800
G1 Z.2 F720
G1 E1 F2100
M204 S800
;TYPE:Perimeter
;WIDTH:0.419999
G1 F1200
G1 X153.862 Y93.638 E.1331
G1 X156.863 Y93.638 E.09409
G1 X156.86 Y98.129 E.14081
G1 X156.626 Y97.788 E.01297
G1 X156.162 Y97.405 E.01886
G1 X155.596 Y97.198 E.0189
G1 X155.247 Y97.164 E.01099
G1 X154.7 Y97.264 E.01744
G1 X154.171 Y97.552 E.01889
G1 X153.903 Y97.839 E.01231
M204 S1000
;WIPE_START
G1 F8640
G1 X153.862 Y93.638 E-.97007
G1 X153.992 Y93.638 E-.02993
;WIPE_END
G1 Z.4 F720
G1 X153.862 Y100.019 F10800
G1 Z.2 F720
G1 E1 F2100
M204 S800
G1 F1200
G1 X154.027 Y100.224 E.00825
G1 X154.523 Y100.566 E.01889
G1 X155.104 Y100.725 E.01889
G1 X155.705 Y100.68 E.0189
G1 X156.256 Y100.438 E.01887
G1 X156.696 Y100.026 E.0189
G1 X156.863 Y99.736 E.01049
G1 X156.863 Y108.464 E.27366
G1 X141.966 Y108.464 E.46708
G1 X140.993 Y108.547 E.03062
G1 X140.082 Y108.779 E.02948
G1 X139.22 Y109.153 E.02946
G1 X138.428 Y109.661 E.0295
G1 X137.682 Y110.345 E.03173
G1 X137.138 Y111.02 E.02718
G1 X136.712 Y111.756 E.02666
G1 X136.583 Y112.099 E.01149
G1 X136.507 Y111.863 E.00777
G1 X136.263 Y111.337 E.01818
G1 X135.901 Y110.816 E.01989
G1 X135.405 Y110.326 E.02186
G1 X134.943 Y109.994 E.01784
G1 X134.373 Y109.716 E.01988
G1 X133.761 Y109.538 E.01998
G1 X133.113 Y109.467 E.02044
G1 X132.503 Y109.501 E.01916
G1 X131.885 Y109.643 E.01988
G1 X131.3 Y109.886 E.01986
G1 X130.765 Y110.226 E.01988
G1 X130.295 Y110.65 E.01985
G1 X129.903 Y111.148 E.01987
G1 X129.601 Y111.706 E.01989
G1 X129.398 Y112.306 E.01986
G1 X129.307 Y112.836 E.01686
G1 X129.3 Y113.239 E.01264
G1 X129.34 Y113.718 E.01507
G1 X128.985 Y113.372 E.01554
G1 X128.013 Y112.725 E.03661
G1 X127.13 Y112.332 E.0303
G1 X126.011 Y112.046 E.03621
G1 X124.953 Y111.965 E.03327
G1 X123.896 Y112.061 E.03328
G1 X122.87 Y112.332 E.03327
G1 X121.987 Y112.725 E.0303
G1 X121.076 Y113.32 E.03412
G1 X120.664 Y113.716 E.01792
G1 X120.707 Y113.116 E.01886
G1 X120.649 Y112.522 E.01871
G1 X120.481 Y111.911 E.01987
G1 X120.142 Y111.231 E.02382
G1 X119.851 Y110.816 E.01589
G1 X119.407 Y110.365 E.01984
G1 X118.893 Y109.994 E.01988
G1 X118.323 Y109.716 E.01988
G1 X117.711 Y109.538 E.01998
G1 X117.063 Y109.467 E.02044
G1 X116.453 Y109.501 E.01916
G1 X115.835 Y109.643 E.01988
G1 X115.25 Y109.886 E.01986
G1 X114.715 Y110.226 E.01988
G1 X114.245 Y110.65 E.01985
G1 X113.852 Y111.149 E.01992
G1 X113.591 Y111.62 E.01688
G1 X113.419 Y112.105 E.01613
G1 X113.211 Y111.623 E.01646
G1 X112.81 Y110.945 E.0247
G1 X112.383 Y110.424 E.02112
G1 X111.974 Y110.016 E.01811
G1 X111.499 Y109.606 E.01967
G1 X110.7 Y109.111 E.02947
G1 X109.832 Y108.75 E.02948
G1 X108.917 Y108.533 E.02948
G1 X108.034 Y108.464 E.02777
G1 X93.137 Y108.464 E.46708
G1 X93.137 Y99.757 E.273
G1 X93.477 Y100.224 E.01811
G1 X93.973 Y100.566 E.01889
G1 X94.554 Y100.725 E.01889
G1 X95.155 Y100.68 E.0189
G1 X95.706 Y100.438 E.01887
G1 X96.138 Y100.035 E.01852
G1 X96.146 Y105.57 E.17355
G1 X96.238 Y105.794 E.00759
G1 X96.426 Y105.965 E.00797
G1 X96.704 Y106.038 E.00901
G1 X119.834 Y106.038 E.72522
G1 X120.562 Y106.034 E.02283
G1 X120.803 Y105.948 E.00802
G1 X120.988 Y105.752 E.00845
G1 X121.062 Y105.472 E.00908
G1 X121.062 Y100.019 E.17097
G1 X121.371 Y100.35 E.0142
G1 X121.9 Y100.638 E.01889
G1 X122.495 Y100.733 E.01889
G1 X123.088 Y100.624 E.0189
G1 X123.559 Y100.372 E.01675
G1 X123.948 Y99.964 E.01768
G1 X124.173 Y99.491 E.01642
G1 X124.262 Y98.951 E.01716
G1 X124.173 Y98.41 E.01719
G1 X123.948 Y97.938 E.01639
G1 X123.568 Y97.537 E.01732
G1 X123.088 Y97.277 E.01712
G1 X122.495 Y97.168 E.0189
G1 X121.9 Y97.264 E.0189
G1 X121.371 Y97.552 E.01889
G1 X121.062 Y97.883 E.0142
G1 X121.062 Y93.638 E.1331
G1 X128.938 Y93.638 E.24695
G1 X128.938 Y97.88 E.133
G1 X128.876 Y97.788 E.00348
G1 X128.412 Y97.405 E.01886
G1 X127.846 Y97.198 E.0189
G1 X127.497 Y97.164 E.01099
G1 X126.95 Y97.264 E.01744
G1 X126.421 Y97.552 E.01889
G1 X126.277 Y97.678 E.006
G1 X125.957 Y98.091 E.01638
G1 X125.766 Y98.631 E.01796
G1 X125.755 Y99.157 E.0165
G1 X125.864 Y99.563 E.01318
G1 X126.018 Y99.902 E.01167
G1 X126.377 Y100.32 E.01728
G1 X126.809 Y100.587 E.01592
G1 X127.354 Y100.725 E.01763
G1 X127.955 Y100.68 E.0189
G1 X128.506 Y100.438 E.01887
G1 X128.938 Y100.035 E.01852
G1 X128.938 Y105.472 E.17047
G1 X128.953 Y105.6 E.00404
G1 X129.083 Y105.851 E.00886
G1 X129.256 Y105.981 E.00679
G1 X129.504 Y106.038 E.00798
G1 X153.296 Y106.038 E.74598
G1 X153.574 Y105.965 E.00901
G1 X153.762 Y105.794 E.00797
G1 X153.835 Y105.645 E.0052
G1 X153.862 Y105.472 E.00549
G1 X153.862 Y100.079 E.16909
M204 S1000
;WIPE_START
G1 F8640
G1 X154.027 Y100.224 E-.05072
G1 X154.523 Y100.566 E-.13911
G1 X155.104 Y100.725 E-.13909
G1 X155.705 Y100.68 E-.13916
G1 X156.256 Y100.438 E-.13896
G1 X156.696 Y100.026 E-.13918
G1 X156.863 Y99.736 E-.07727
G1 X156.863 Y100.5 E-.17651
;WIPE_END
G1 Z.4 F720
G1 X153.983 Y98.429 F10800
G1 Z.2 F720
G1 E1 F2100
M204 S800
;TYPE:External perimeter
;WIDTH:0.441223
G1 F1200
G1 X154.061 Y98.236 E.00689
;WIDTH:0.419999
G1 X154.369 Y97.873 E.01493
G1 X154.78 Y97.632 E.01494
G1 X155.283 Y97.543 E.01602
G1 X155.485 Y97.558 E.00635
G1 X155.88 Y97.679 E.01295
G1 X156.314 Y97.999 E.01691
G1 X156.571 Y98.4 E.01493
;WIDTH:0.465958
G1 X156.649 Y98.631 E.00858
;WIDTH:0.511916
G1 X156.726 Y98.862 E.0095
;WIDTH:0.53196
G1 X156.699 Y99.301 E.01789
G1 X156.607 Y99.456 E.00733
;WIDTH:0.49464
G1 X156.515 Y99.611 E.00677
;WIDTH:0.45732
G1 X156.424 Y99.766 E.00619
;WIDTH:0.419999
G1 X156.087 Y100.102 E.01492
G1 X155.657 Y100.306 E.01492
G1 X155.183 Y100.356 E.01494
G1 X154.72 Y100.245 E.01493
G1 X154.321 Y99.987 E.0149
G1 X154.03 Y99.61 E.01493
;WIDTH:0.429848
G1 X153.877 Y99.157 E.01538
;WIDTH:0.441223
G1 X153.883 Y98.678 E.01587
G1 X153.961 Y98.484 E.00692
M204 S1000
G1 X153.843 Y98.276 F10800
;WIPE_START
G1 F8640
G1 X154.061 Y98.236 E-.06174
G1 X154.369 Y97.873 E-.10992
G1 X154.78 Y97.632 E-.11001
G1 X155.283 Y97.543 E-.11795
G1 X155.485 Y97.558 E-.04677
G1 X155.88 Y97.679 E-.09539
G1 X156.314 Y97.999 E-.12451
G1 X156.571 Y98.4 E-.10998
G1 X156.649 Y98.631 E-.0563
G1 X156.726 Y98.862 E-.05622
G1 X156.699 Y99.301 E-.10156
G1 X156.678 Y99.337 E-.00965
;WIPE_END
G1 Z.4 F720
G1 X127.51 Y97.543 F10800
G1 Z.2 F720
G1 E1 F2100
M204 S800
;WIDTH:0.419999
G1 F1200
G1 X127.735 Y97.558 E.00707
G1 X128.187 Y97.708 E.01493
G1 X128.564 Y97.999 E.01493
G1 X128.821 Y98.4 E.01493
;WIDTH:0.424267
G1 X128.932 Y98.859 E.01497
;WIDTH:0.437643
G1 X128.888 Y99.34 E.01585
G1 X128.674 Y99.766 E.01565
;WIDTH:0.419999
G1 X128.337 Y100.102 E.01492
G1 X127.907 Y100.306 E.01492
G1 X127.433 Y100.356 E.01494
G1 X126.97 Y100.245 E.01493
G1 X126.571 Y99.987 E.0149
G1 X126.28 Y99.61 E.01493
G1 X126.132 Y99.116 E.01617
G1 X126.143 Y98.681 E.01364
G1 X126.311 Y98.236 E.01491
G1 X126.619 Y97.873 E.01493
G1 X127.03 Y97.632 E.01494
G1 X127.451 Y97.547 E.01347
M204 S1000
G1 X127.608 Y97.34 F10800
;WIPE_START
G1 F8640
G1 X127.735 Y97.558 E-.06563
G1 X128.187 Y97.708 E-.10997
G1 X128.564 Y97.999 E-.10997
G1 X128.821 Y98.4 E-.10998
G1 X128.932 Y98.859 E-.10904
G1 X128.888 Y99.34 E-.11153
G1 X128.674 Y99.766 E-.11008
G1 X128.337 Y100.102 E-.10988
G1 X127.907 Y100.306 E-.1099
G1 X127.674 Y100.331 E-.05402
;WIPE_END
G1 Z.4 F720
G1 X123.854 Y98.773 F10800
G1 Z.2 F720
G1 E1 F2100
M204 S800
G1 F1200
G1 X123.871 Y99.079 E.00961
G1 X123.83 Y99.336 E.00816
G1 X123.624 Y99.766 E.01495
G1 X123.287 Y100.102 E.01492
G1 X122.857 Y100.306 E.01492
G1 X122.383 Y100.356 E.01494
G1 X121.92 Y100.245 E.01493
G1 X121.521 Y99.987 E.0149
G1 X121.23 Y99.61 E.01493
;WIDTH:0.42985
G1 X121.077 Y99.157 E.01538
;WIDTH:0.441226
G1 X121.083 Y98.678 E.01587
G1 X121.261 Y98.236 E.01578
;WIDTH:0.419999
G1 X121.569 Y97.873 E.01493
G1 X121.98 Y97.632 E.01494
G1 X122.447 Y97.543 E.01491
G1 X122.918 Y97.614 E.01493
G1 X123.338 Y97.838 E.01492
G1 X123.651 Y98.171 E.01433
G1 X123.845 Y98.62 E.01534
G1 X123.85 Y98.713 E.00292
M204 S1000
G1 X124.138 Y98.886 F10800
;WIPE_START
G1 F8640
G1 X123.871 Y99.079 E-.08465
G1 X123.83 Y99.336 E-.06009
G1 X123.624 Y99.766 E-.11009
G1 X123.287 Y100.102 E-.10988
G1 X122.857 Y100.306 E-.1099
G1 X122.383 Y100.356 E-.11006
G1 X121.92 Y100.245 E-.10994
G1 X121.521 Y99.987 E-.10971
G1 X121.23 Y99.61 E-.10997
G1 X121.111 Y99.258 E-.08571
;WIPE_END
G1 Z.4 F720
G1 X130.6 Y110.877 F10800
G1 Z.2 F720
G1 E1 F2100
M204 S800
G1 F1200
G1 X131.014 Y110.509 E.01737
G1 X131.498 Y110.208 E.01787
G1 X132.026 Y109.993 E.01787
G1 X132.582 Y109.87 E.01785
G1 X133.129 Y109.844 E.01717
G1 X133.716 Y109.912 E.01853
G1 X134.263 Y110.077 E.01791
G1 X134.773 Y110.331 E.01786
G1 X135.181 Y110.629 E.01584
G1 X135.629 Y111.077 E.01987
G1 X135.951 Y111.548 E.01789
G1 X136.163 Y112.017 E.01614
;WIDTH:0.430624
G1 X136.32 Y112.627 E.02031
G1 X136.311 Y113.205 E.01864
;WIDTH:0.420104
G1 X136.239 Y113.746 E.01712
G1 X136.103 Y114.271 E.01701
;WIDTH:0.41933
G1 X135.877 Y114.776 E.01732
G1 X135.57 Y115.235 E.01728
;WIDTH:0.419174
G1 X135.189 Y115.636 E.01731
;WIDTH:0.419057
G1 X134.747 Y115.966 E.01725
;WIDTH:0.418942
G1 X134.254 Y116.217 E.0173
;WIDTH:0.418831
G1 X133.727 Y116.381 E.01725
;WIDTH:0.418714
G1 X133.179 Y116.454 E.01727
;WIDTH:0.418604
G1 X132.627 Y116.433 E.01726
;WIDTH:0.418492
G1 X132.087 Y116.319 E.01724
;WIDTH:0.418386
