; generated by PrusaSlicer 2.6.0+win64 on 2023-09-06 at 15:42:57 UTC


;
;
; 

; external perimeters extrusion width = 0.65mm
; perimeters extrusion width = 0.65mm
; infill extrusion width = 0.65mm
; solid infill extrusion width = 0.65mm
; top infill extrusion width = 0.60mm
; first layer extrusion width = 0.65mm

M73 P0 R15
M73 Q0 S15
M201 X1000 Y1000 Z200 E5000 ; sets maximum accelerations, mm/sec^2
M203 X200 Y200 Z12 E120 ; sets maximum feedrates, mm / sec
M204 S1250 T1250 ; sets acceleration (S) and retract acceleration (R), mm/sec^2
M205 X8.00 Y8.00 Z0.40 E4.50 ; sets the jerk limits, mm/sec
M205 S0 T0 ; sets the minimum extruding and travel feed rate, mm/sec
;TYPE:Custom
M862.3 P "MK3S" ; printer model check
M862.1 P0.6 ; nozzle diameter check
M115 U3.12.2 ; tell printer latest fw version
G90 ; use absolute coordinates
M83 ; extruder relative mode
M104 S240 ; set extruder temp
M140 S85 ; set bed temp
M190 S85 ; wait for bed temp
M109 S240 ; wait for extruder temp
G28 W ; home all without mesh bed level
G80 ; mesh bed leveling

G1 Z0.2 F720
G1 Y-3 F1000 ; go outside print area
G92 E0
G1 X60 E9 F1000 ; intro line
G1 X100 E12.5 F1000 ; intro line

G92 E0
M221 S95
G21 ; set units to millimeters
G90 ; use absolute coordinates
M83 ; use relative distances for extrusion
M900 K0.04 ; Filament gcode LA 1.5
M900 K24 ; Filament gcode LA 1.0
M107
;LAYER_CHANGE
;Z:0.2
;HEIGHT:0.2
;BEFORE_LAYER_CHANGE
G92 E0.0
;0.2


G1 E-1 F2100
G1 Z.2 F720
;AFTER_LAYER_CHANGE
;0.2
G1 Z.4
G1 X91.41 Y94.125 F10800
G1 Z.2 F720
G1 E1 F1500
M204 S800
;TYPE:Skirt/Brim
;WIDTH:0.65
G1 F1200
G1 X92.469 Y93.163 E.07222
G1 X93.381 Y92.904 E.04786
G1 X122.707 Y90.154 E1.48684
G1 X127.049 Y90.143 E.21918
G1 X156.619 Y92.904 E1.49915
G1 X157.952 Y93.423 E.07221
M73 P1 R15
M73 Q1 S15
G1 X158.81 Y94.567 E.07218
G1 X158.983 Y95.5 E.0479
G1 X158.983 Y117.25 E1.09792
G1 X158.59 Y118.625 E.07219
G1 X157.531 Y119.587 E.07222
G1 X156.375 Y119.857 E.05992
G1 X93.625 Y119.857 E3.16755
G1 X92.249 Y119.465 E.07222
G1 X91.288 Y118.406 E.07219
G1 X91.017 Y117.25 E.05994
G1 X91.017 Y95.5 E1.09792
G1 X91.385 Y94.211 E.06767
M204 S1000
; printing object AD002_Housing_rev4-3 id:0 copy 0
;WIPE_START
G1 F8640
G1 X92.469 Y93.163 E-.34815
G1 X93.381 Y92.904 E-.21891
G1 X95.248 Y92.729 E-.43294
;WIPE_END
G1 Z.4 F720
G1 X126.828 Y96.6 F10800
G1 Z.2 F720
G1 E1 F1500
M204 S800
;TYPE:Perimeter
;WIDTH:0.617921
G1 F1200
G1 X126.388 Y96.584 E.02105
;WIDTH:0.649999
G1 X125.949 Y96.568 E.02217
G1 X123.688 Y96.581 E.11413
;WIDTH:0.624578
G1 X123.325 Y96.593 E.01757
G1 X123.613 Y96.431 E.01598
;WIDTH:0.649999
G1 X123.901 Y96.268 E.0167
G1 X124.083 Y95.721 E.0291
G1 X124.083 Y93.882 E.09283
G1 X125.917 Y93.882 E.09258
G1 X125.917 Y95.721 E.09283
G1 X126.099 Y96.268 E.0291
G1 X126.463 Y96.434 E.02019
;WIDTH:0.617921
G1 X126.746 Y96.563 E.01487
M204 S1000
;WIPE_START
G1 F8640
G1 X126.388 Y96.584 E-.08281
G1 X125.949 Y96.568 E-.10143
G1 X123.688 Y96.581 E-.52208
G1 X123.325 Y96.593 E-.08386
G1 X123.613 Y96.431 E-.0763
G1 X123.901 Y96.268 E-.07641
G1 X123.979 Y96.033 E-.05711
;WIPE_END
G1 Z.4 F720
G1 X120.84 Y97.425 F10800
G1 Z.2 F720
G1 E1 F1500
M204 S800
;WIDTH:0.718254
G1 F1200
G1 X120.695 Y97.367 E.00877
G1 X120.446 Y97.336 E.01409
;WIDTH:0.714381
G1 X96.954 Y97.336 E1.31161
;WIDTH:0.724068
G1 X96.79 Y97.345 E.0093
M73 P2 R15
M73 Q2 S15
G1 X96.634 Y97.42 E.0098
;WIDTH:0.693186
G1 X96.478 Y97.495 E.00936
;WIDTH:0.662303
G1 X96.178 Y97.802 E.02211
;WIDTH:0.649999
G1 X96.043 Y98.279 E.02502
G1 X96.043 Y116.118 E.90049
G1 X94.757 Y116.118 E.06492
G1 X94.757 Y96.632 E.98363
G1 X95.524 Y96.632 E.03872
;WIDTH:0.662303
G1 X96.239 Y96.638 E.03683
;WIDTH:0.688342
G1 X96.596 Y96.651 E.01917
;WIDTH:0.714381
G1 X96.954 Y96.664 E.02
G1 X120.446 Y96.664 E1.31161
;WIDTH:0.718254
G1 X120.933 Y96.646 E.02737
;WIDTH:0.678555
G1 X121.279 Y96.627 E.01831
;WIDTH:0.638856
G1 X121.626 Y96.607 E.01722
G1 X121.384 Y96.781 E.01477
;WIDTH:0.678555
G1 X121.142 Y96.955 E.01575
;WIDTH:0.718254
G1 X120.901 Y97.129 E.01669
G1 X120.858 Y97.336 E.01187
M204 S1000
;WIPE_START
G1 F8640
G1 X120.695 Y97.367 E-.03831
G1 X120.446 Y97.336 E-.05794
G1 X116.532 Y97.336 E-.90375
;WIPE_END
G1 Z.4 F720
G1 X128.567 Y100.717 F10800
G1 Z.2 F720
G1 E1 F1500
M204 S800
;WIDTH:0.649999
G1 F1200
G1 X128.643 Y100.692 E.00404
G1 X128.643 Y116.118 E.77869
G1 X121.357 Y116.118 E.36779
G1 X121.357 Y100.692 E.77869
G1 X121.779 Y100.832 E.02244
G1 X128.221 Y100.832 E.32518
G1 X128.481 Y100.745 E.01384
M204 S1000
;WIPE_START
G1 F8640
G1 X128.643 Y100.692 E-.03936
G1 X128.643 Y104.852 E-.96064
;WIPE_END
G1 Z.4 F720
G1 X129.16 Y97.425 F10800
G1 Z.2 F720
G1 E1 F1500
M204 S800
;WIDTH:0.718254
G1 F1200
G1 X129.099 Y97.129 E.01697
G1 X128.807 Y96.953 E.01915
;WIDTH:0.674117
G1 X128.514 Y96.776 E.01797
;WIDTH:0.62998
G1 X128.221 Y96.6 E.01668
G1 X128.619 Y96.622 E.01946
;WIDTH:0.674117
G1 X129.016 Y96.644 E.02087
;WIDTH:0.718254
G1 X129.554 Y96.664 E.03023
;WIDTH:0.714381
G1 X153.046 Y96.664 E1.31161
G1 X153.404 Y96.648 E.02001
;WIDTH:0.68219
G1 X153.761 Y96.632 E.019
;WIDTH:0.649999
G1 X155.243 Y96.632 E.07481
G1 X155.243 Y97.4 E.03877
G1 X155.243 Y116.118 E.94486
G1 X153.957 Y116.118 E.06492
M73 P3 R15
M73 Q3 S15
G1 X153.957 Y98.279 E.90049
G1 X153.822 Y97.802 E.02502
G1 X153.519 Y97.5 E.02159
;WIDTH:0.68219
G1 X153.283 Y97.418 E.01328
;WIDTH:0.714381
G1 X153.046 Y97.336 E.014
G1 X129.554 Y97.336 E1.31161
;WIDTH:0.718254
G1 X129.45 Y97.34 E.00584
G1 X129.247 Y97.399 E.01187
M204 S1000
G1 X129.221 Y98.279 F10800
M204 S800
;TYPE:External perimeter
;WIDTH:0.70896
G1 F1200
G1 X129.221 Y99.921 E.09094
;WIDTH:0.714006
G1 X129.233 Y100.312 E.02183
;WIDTH:0.683427
G1 X129.249 Y100.588 E.01472
;WIDTH:0.652847
G1 X129.25 Y101.254 E.03378
;WIDTH:0.649999
G1 X129.25 Y116.725 E.78096
G1 X120.75 Y116.725 E.42907
G1 X120.75 Y101.254 E.78096
;WIDTH:0.652847
G1 X120.751 Y100.587 E.03383
;WIDTH:0.680903
G1 X120.765 Y100.254 E.01768
;WIDTH:0.708959
G1 X120.779 Y98.279 E.10938
G1 X120.684 Y98.145 E.0091
;WIDTH:0.679479
G1 X120.589 Y98.011 E.00869
;WIDTH:0.649999
G1 X120.446 Y97.975 E.00744
G1 X96.954 Y97.975 E1.18585
G1 X96.796 Y98.019 E.00828
G1 X96.695 Y98.12 E.00721
G1 X96.65 Y98.279 E.00834
G1 X96.65 Y116.725 E.93113
G1 X94.15 Y116.725 E.1262
G1 X94.15 Y96.025 E1.04491
G1 X123.172 Y96.025 E1.465
G1 X123.415 Y95.904 E.0137
M73 Q4 S15
G1 X123.476 Y95.721 E.00974
G1 X123.476 Y93.275 E.12347
M73 P4 R15
G1 X126.524 Y93.275 E.15386
G1 X126.524 Y95.651 E.11994
G1 X126.585 Y95.904 E.01314
G1 X126.828 Y96.025 E.0137
G1 X155.85 Y96.025 E1.465
G1 X155.85 Y97.4 E.06941
G1 X155.85 Y116.725 E.9755
G1 X153.35 Y116.725 E.1262
G1 X153.35 Y98.279 E.93113
G1 X153.305 Y98.12 E.00834
G1 X153.204 Y98.019 E.00721
G1 X153.046 Y97.975 E.00828
G1 X129.554 Y97.975 E1.18585
G1 X129.411 Y98.011 E.00744
;WIDTH:0.67948
G1 X129.316 Y98.145 E.00869
;WIDTH:0.70896
G1 X129.273 Y98.205 E.00409
M204 S1000
;WIPE_START
G1 F8640
G1 X129.221 Y99.921 E-.39641
G1 X129.233 Y100.312 E-.09033
G1 X129.249 Y100.588 E-.06384
G1 X129.25 Y101.254 E-.15378
G1 X129.25 Y102.534 E-.29564
;WIPE_END
G1 Z.4 F720
G1 X128.554 Y99.921 F10800
G1 Z.2 F720
G1 E1 F1500
M204 S800
;WIDTH:0.714006
G1 F1200
G1 X128.552 Y99.979 E.00324
G1 X128.478 Y100.072 E.00663
;WIDTH:0.683427
G1 X128.404 Y100.165 E.00633
;WIDTH:0.652847
G1 X128.221 Y100.225 E.00977
;WIDTH:0.649999
G1 X121.779 Y100.225 E.32518
;WIDTH:0.652847
G1 X121.596 Y100.165 E.00977
;WIDTH:0.683426
G1 X121.522 Y100.072 E.00633
;WIDTH:0.714005
G1 X121.448 Y99.979 E.00663
G1 X121.446 Y99.921 E.00324
;WIDTH:0.708959
G1 X121.46 Y97.879 E.11309
;WIDTH:0.679479
G1 X121.475 Y97.479 E.02119
;WIDTH:0.649999
G1 X121.497 Y97.366 E.00581
G1 X121.726 Y97.18 E.01489
G1 X121.779 Y97.175 E.00269
G1 X128.221 Y97.175 E.32518
G1 X128.503 Y97.366 E.01719
;WIDTH:0.67948
G1 X128.529 Y97.822 E.02418
;WIDTH:0.70896
G1 X128.554 Y98.279 E.02535
G1 X128.554 Y99.831 E.08595
M204 S1000
G1 X128.604 Y99.952 F10800
;WIPE_START
G1 F8640
G1 X128.552 Y99.979 E-.03418
G1 X128.478 Y100.072 E-.02744
G1 X128.404 Y100.165 E-.02744
G1 X128.221 Y100.225 E-.04447
G1 X124.468 Y100.225 E-.86647
;WIPE_END
G1 Z.4 F720
M73 P4 R14
G1 X126.828 Y96.6 F10800
G1 Z.2 F720
G1 E1 F1500
M204 S800
;TYPE:Perimeter
;WIDTH:0.585842
G1 F1200
G1 X128.221 Y96.6 E.06289
M204 S1000
;WIPE_START
G1 F8640
G1 X126.828 Y96.6 E-.32165
;WIPE_END
G1 E-.67835 F2100
G1 Z.4 F720
G1 X121.626 Y96.607 F10800
G1 Z.2 F720
G1 E1 F1500
M204 S800
;WIDTH:0.599156
G1 F1200
G1 X121.779 Y96.6 E.00708
;WIDTH:0.585842
G1 X123.172 Y96.6 E.06289
;WIDTH:0.599156
G1 X123.325 Y96.593 E.00708
M204 S1000
;WIPE_START
G1 F8640
G1 X123.172 Y96.6 E-.03537
G1 X121.779 Y96.6 E-.32165
G1 X121.626 Y96.607 E-.03537
;WIPE_END
G1 E-.60761 F2100
G1 Z.4 F720
G1 X125.674 Y95.522 F10800
G1 Z.2 F720
G1 E1 F1500
M204 S800
;TYPE:Solid infill
;WIDTH:0.729944
G1 F1200
G1 X124.599 Y94.446 E.08689
G1 X124.599 Y95.418 E.05553
G1 X125.506 Y96.325 E.07328
M204 S1000
;WIPE_START
G1 F8640
G1 X124.599 Y95.418 E-.29618
G1 X124.599 Y94.446 E-.22444
G1 X125.674 Y95.522 E-.3512
;WIPE_END
G1 E-.12818 F2100
G1 Z.4 F720
G1 X128.4 Y102.318 F10800
G1 Z.2 F720
G1 E1 F1500
M204 S800
;WIDTH:0.657305
G1 F1200
G1 X127.431 Y101.348 E.07004
G1 X126.562 Y101.348 E.04439
G1 X128.127 Y102.913 E.11307
G1 X128.127 Y103.782 E.04439
G1 X125.693 Y101.348 E.17585
G1 X124.824 Y101.348 E.04439
G1 X128.127 Y104.651 E.23863
G1 X128.127 Y105.52 E.04439
M73 Q5 S15
G1 X123.955 Y101.348 E.30141
M73 P5 R14
G1 X123.086 Y101.348 E.04439
G1 X128.127 Y106.389 E.3642
G1 X128.127 Y107.258 E.04439
G1 X122.217 Y101.348 E.42698
G1 X121.873 Y101.348 E.01757
G1 X121.873 Y101.873 E.02682
G1 X128.127 Y108.126 E.4518
G1 X128.127 Y108.995 E.04439
G1 X121.873 Y102.742 E.4518
G1 X121.873 Y103.61 E.04434
G1 X128.127 Y109.864 E.45183
G1 X128.127 Y110.733 E.04439
G1 X121.873 Y104.479 E.45183
G1 X121.873 Y105.348 E.04439
G1 X128.127 Y111.602 E.45183
G1 X128.127 Y112.471 E.04439
G1 X121.873 Y106.217 E.45183
G1 X121.873 Y107.086 E.04439
G1 X128.127 Y113.34 E.45183
G1 X128.127 Y114.209 E.04439
G1 X121.873 Y107.955 E.45183
G1 X121.873 Y108.824 E.04439
M73 Q5 S14
G1 X128.127 Y115.077 E.4518
G1 X128.127 Y115.602 E.02682
G1 X127.783 Y115.602 E.01757
G1 X121.873 Y109.693 E.42694
G1 X121.873 Y110.561 E.04434
G1 X126.914 Y115.602 E.3642
G1 X126.045 Y115.602 E.04439
G1 X121.873 Y111.43 E.30141
G1 X121.873 Y112.299 E.04439
G1 X125.176 Y115.602 E.23863
G1 X124.307 Y115.602 E.04439
G1 X121.873 Y113.168 E.17585
G1 X121.873 Y114.037 E.04439
G1 X123.438 Y115.602 E.11307
G1 X122.569 Y115.602 E.04439
G1 X121.6 Y114.633 E.07001
M204 S1000
;WIPE_START
G1 F8640
G1 X122.569 Y115.602 E-.31642
G1 X123.438 Y115.602 E-.20065
G1 X121.959 Y114.123 E-.48293
;WIPE_END
G1 Z.4 F720
G1 X95.511 Y96.88 F10800
G1 Z.2 F720
G1 E1 F1500
M204 S800
;WIDTH:0.657872
G1 F1200
G1 X95.943 Y97.312 E.03124
G1 X95.729 Y97.533 E.01573
G1 X95.634 Y97.872 E.018
G1 X95.273 Y97.511 E.02611
G1 X95.273 Y98.381 E.04449
G1 X95.527 Y98.635 E.01837
G1 X95.527 Y99.505 E.04449
G1 X95.273 Y99.25 E.0184
G1 X95.273 Y100.12 E.04449
G1 X95.527 Y100.374 E.01837
G1 X95.527 Y101.244 E.04449
G1 X95.273 Y100.99 E.01837
G1 X95.273 Y101.859 E.04443
G1 X95.527 Y102.114 E.0184
G1 X95.527 Y102.983 E.04443
G1 X95.273 Y102.729 E.01837
G1 X95.273 Y103.599 E.04449
G1 X95.527 Y103.853 E.01837
G1 X95.527 Y104.723 E.04449
G1 X95.273 Y104.468 E.0184
G1 X95.273 Y105.338 E.04449
G1 X95.527 Y105.592 E.01837
G1 X95.527 Y106.462 E.04449
G1 X95.273 Y106.208 E.01837
G1 X95.273 Y107.077 E.04443
G1 X95.527 Y107.332 E.0184
G1 X95.527 Y108.201 E.04443
M73 Q6 S14
G1 X95.273 Y107.947 E.01837
M73 P6 R14
G1 X95.273 Y108.817 E.04449
G1 X95.527 Y109.071 E.01837
G1 X95.527 Y109.941 E.04449
G1 X95.273 Y109.687 E.01837
G1 X95.273 Y110.556 E.04443
G1 X95.527 Y110.81 E.01837
G1 X95.527 Y111.68 E.04449
G1 X95.273 Y111.426 E.01837
G1 X95.273 Y112.296 E.04449
G1 X95.527 Y112.55 E.01837
G1 X95.527 Y113.419 E.04443
G1 X95.273 Y113.165 E.01837
G1 X95.273 Y114.035 E.04449
G1 X95.527 Y114.289 E.01837
G1 X95.527 Y115.159 E.04449
G1 X94.999 Y114.631 E.03818
M204 S1000
;WIPE_START
G1 F8640
G1 X95.527 Y115.159 E-.17242
G1 X95.527 Y114.289 E-.20089
G1 X95.273 Y114.035 E-.08294
G1 X95.273 Y113.165 E-.20089
G1 X95.527 Y113.419 E-.08294
G1 X95.527 Y112.55 E-.20065
G1 X95.345 Y112.368 E-.05927
;WIPE_END
G1 Z.4 F720
G1 X153.762 Y96.875 F10800
G1 Z.2 F720
G1 E1 F1500
M204 S800
;WIDTH:0.655404
G1 F1200
G1 X154.727 Y97.84 E.0695
G1 X154.727 Y98.707 E.04415
G1 X154.473 Y98.452 E.01833
G1 X154.473 Y99.318 E.0441
G1 X154.727 Y99.573 E.01833
G1 X154.727 Y100.439 E.0441
G1 X154.473 Y100.185 E.01829
G1 X154.473 Y101.051 E.0441
G1 X154.727 Y101.305 E.01829
G1 X154.727 Y102.171 E.0441
G1 X154.473 Y101.917 E.01829
G1 X154.473 Y102.783 E.0441
G1 X154.727 Y103.037 E.01829
G1 X154.727 Y103.904 E.04415
G1 X154.473 Y103.649 E.01833
G1 X154.473 Y104.516 E.04415
G1 X154.727 Y104.77 E.01829
G1 X154.727 Y105.636 E.0441
G1 X154.473 Y105.382 E.01829
G1 X154.473 Y106.248 E.0441
G1 X154.727 Y106.502 E.01829
G1 X154.727 Y107.368 E.0441
G1 X154.473 Y107.114 E.01829
G1 X154.473 Y107.98 E.0441
G1 X154.727 Y108.235 E.01833
G1 X154.727 Y109.101 E.0441
G1 X154.473 Y108.846 E.01833
G1 X154.473 Y109.713 E.04415
G1 X154.727 Y109.967 E.01829
G1 X154.727 Y110.833 E.0441
G1 X154.473 Y110.579 E.01829
G1 X154.473 Y111.445 E.0441
G1 X154.727 Y111.699 E.01829
G1 X154.727 Y112.565 E.0441
G1 X154.473 Y112.311 E.01829
G1 X154.473 Y113.177 E.0441
G1 X154.727 Y113.432 E.01833
G1 X154.727 Y114.298 E.0441
G1 X154.473 Y114.044 E.01829
G1 X154.473 Y114.91 E.0441
G1 X155.001 Y115.437 E.03799
M204 S1000
; stop printing object AD002_Housing_rev4-3 id:0 copy 0
;LAYER_CHANGE
;Z:0.5
;HEIGHT:0.3
;BEFORE_LAYER_CHANGE
G92 E0.0
;0.5


;WIPE_START
G1 F8640
G1 X154.473 Y114.91 E-.17225
G1 X154.473 Y114.044 E-.19996
G1 X154.727 Y114.298 E-.08294
G1 X154.727 Y113.432 E-.19996
G1 X154.473 Y113.177 E-.08311
G1 X154.473 Y112.311 E-.19996
G1 X154.662 Y112.5 E-.06182
;WIPE_END
G1 Z.4 F720
G1 Z.5
;AFTER_LAYER_CHANGE
;0.5
M104 S250 ; set temperature
M140 S90 ; set bed temperature
; printing object AD002_Housing_rev4-3 id:0 copy 0
G1 Z.7
G1 X128.842 Y99.949 F10800
G1 Z.5 F720
G1 E1 F1500
M204 S800
;TYPE:Perimeter
;WIDTH:0.649999
G1 F2700
G1 X128.881 Y99.881 E.00573
G1 X128.864 Y100.588 E.05166
G1 X128.864 Y116.339 E1.15048
G1 X121.136 Y116.339 E.56447
G1 X121.136 Y100.588 E1.15048
G1 X121.119 Y99.881 E.05166
G1 X121.441 Y100.435 E.0468
G1 X121.968 Y100.611 E.04058
G1 X128.032 Y100.611 E.44292
G1 X128.559 Y100.435 E.04058
G1 X128.797 Y100.026 E.03456
M204 S1000
;WIPE_START
G1 F8640
G1 X128.881 Y99.881 E-.03869
G1 X128.864 Y100.588 E-.1633
G1 X128.864 Y104.044 E-.79801
;WIPE_END
G1 Z.7 F720
G1 X128.96 Y98.301 F10800
G1 Z.5 F720
G1 E1 F1500
M204 S800
G1 F2700
G1 X128.887 Y98.468 E.01331
G1 X128.911 Y97.668 E.05846
G1 X128.824 Y97.288 E.02847
G1 X128.535 Y96.948 E.03259
G1 X128.368 Y96.912 E.01248
;WIDTH:0.615524
G1 X128.2 Y96.877 E.0118
;WIDTH:0.581048
G1 X128.032 Y96.841 E.01107
;WIDTH:0.546572
G1 X127.194 Y96.841 E.0504
;WIDTH:0.581048
G1 X126.957 Y96.824 E.01531
;WIDTH:0.615524
G1 X126.72 Y96.807 E.01633
;WIDTH:0.649999
G1 X126.483 Y96.789 E.01736
G1 X123.517 Y96.794 E.21664
;WIDTH:0.640064
G1 X123.162 Y96.818 E.02555
;WIDTH:0.593318
G1 X122.806 Y96.841 E.02353
;WIDTH:0.546572
G1 X121.968 Y96.841 E.0504
;WIDTH:0.590007
G1 X121.719 Y96.898 E.01675
;WIDTH:0.633443
G1 X121.47 Y96.954 E.01811
;WIDTH:0.649999
G1 X121.176 Y97.288 E.0325
G1 X121.089 Y97.668 E.02847
G1 X121.112 Y98.468 E.05846
G1 X120.82 Y97.794 E.05365
G1 X120.625 Y97.67 E.01688
G1 X120.257 Y97.589 E.02752
G1 X97.143 Y97.589 E1.68828
G1 X96.991 Y97.603 E.01115
G1 X96.632 Y97.754 E.02845
G1 X96.344 Y98.102 E.03299
G1 X96.264 Y98.468 E.02736
G1 X96.264 Y116.339 E1.30533
G1 X94.064 Y116.339 E.16069
G1 X94.064 Y96.411 E1.45557
G1 X121.296 Y96.402 E1.98907
;WIDTH:0.633443
G1 X121.632 Y96.381 E.02389
;WIDTH:0.590007
G1 X121.968 Y96.359 E.02208
;WIDTH:0.554663
G1 X122.949 Y96.35 E.05999
;WIDTH:0.597363
G1 X123.139 Y96.291 E.01323
;WIDTH:0.640064
G1 X123.33 Y96.231 E.01438
;WIDTH:0.649999
G1 X123.616 Y95.87 E.03364
G1 X123.684 Y95.532 E.02518
G1 X123.684 Y93.661 E.13666
