; generated by PrusaSlicer 2.6.0+win64 on 2023-09-01 at 15:14:21 UTC


;
;
; 

; external perimeters extrusion width = 0.65mm
; perimeters extrusion width = 0.65mm
; infill extrusion width = 0.65mm
; solid infill extrusion width = 0.65mm
; top infill extrusion width = 0.60mm
; first layer extrusion width = 0.65mm

M73 P0 R15
M73 Q0 S15
M201 X1000 Y1000 Z200 E5000 ; sets maximum accelerations, mm/sec^2
M203 X200 Y200 Z12 E120 ; sets maximum feedrates, mm / sec
M204 S1250 T1250 ; sets acceleration (S) and retract acceleration (R), mm/sec^2
M205 X8.00 Y8.00 Z0.40 E4.50 ; sets the jerk limits, mm/sec
M205 S0 T0 ; sets the minimum extruding and travel feed rate, mm/sec
;TYPE:Custom
M862.3 P "MK3S" ; printer model check
M862.1 P0.6 ; nozzle diameter check
M115 U3.12.2 ; tell printer latest fw version
G90 ; use absolute coordinates
M83 ; extruder relative mode
M104 S240 ; set extruder temp
M140 S85 ; set bed temp
M190 S85 ; wait for bed temp
M109 S240 ; wait for extruder temp
G28 W ; home all without mesh bed level
G80 ; mesh bed leveling

G1 Z0.2 F720
G1 Y-3 F1000 ; go outside print area
G92 E0
G1 X60 E9 F1000 ; intro line
G1 X100 E12.5 F1000 ; intro line

G92 E0
M221 S95
G21 ; set units to millimeters
G90 ; use absolute coordinates
M83 ; use relative distances for extrusion
M900 K0.04 ; Filament gcode LA 1.5
M900 K24 ; Filament gcode LA 1.0
M107
;LAYER_CHANGE
;Z:0.2
;HEIGHT:0.2
;BEFORE_LAYER_CHANGE
G92 E0.0
;0.2


G1 E-1 F2100
G1 Z.2 F720
;AFTER_LAYER_CHANGE
;0.2
G1 Z.4
G1 X91.41 Y93 F10800
G1 Z.2 F720
G1 E1 F1500
M204 S800
;TYPE:Skirt/Brim
;WIDTH:0.65
G1 F1200
G1 X92.469 Y92.038 E.07222
G1 X93.625 Y91.768 E.05992
G1 X156.375 Y91.768 E3.16755
G1 X157.751 Y92.16 E.07222
M73 P1 R15
M73 Q1 S15
G1 X158.712 Y93.219 E.07219
G1 X158.982 Y94.375 E.05992
G1 X158.982 Y115.625 E1.07268
G1 X158.59 Y117 E.07217
G1 X157.531 Y117.962 E.07222
G1 X156.375 Y118.232 E.05992
G1 X93.625 Y118.232 E3.16755
G1 X92.249 Y117.84 E.07222
G1 X91.288 Y116.781 E.07219
G1 X91.017 Y115.625 E.05994
G1 X91.017 Y94.375 E1.07268
G1 X91.385 Y93.086 E.06767
M204 S1000
; printing object AD002_Housing_rev4 id:0 copy 0
;WIPE_START
G1 F8640
G1 X92.469 Y92.038 E-.34815
G1 X93.625 Y91.768 E-.27411
G1 X95.261 Y91.768 E-.37774
;WIPE_END
G1 Z.4 F720
G1 X96.786 Y113.731 F10800
G1 Z.2 F720
G1 E1 F1500
M204 S800
;TYPE:Perimeter
;WIDTH:0.714381
G1 F1200
G1 X96.954 Y113.789 E.00992
G1 X120.446 Y113.789 E1.31161
;WIDTH:0.724068
G1 X120.61 Y113.78 E.0093
G1 X120.802 Y113.677 E.01234
;WIDTH:0.687034
G1 X120.993 Y113.575 E.0116
;WIDTH:0.649999
G1 X121.287 Y113.197 E.02417
G1 X121.357 Y112.846 E.01807
G1 X121.357 Y95.507 E.87525
G1 X128.643 Y95.507 E.36779
M73 P2 R15
M73 Q2 S15
G1 X128.643 Y112.846 E.87525
G1 X128.713 Y113.197 E.01807
G1 X129.007 Y113.575 E.02417
;WIDTH:0.68219
G1 X129.28 Y113.682 E.01559
;WIDTH:0.714381
G1 X129.554 Y113.789 E.01642
G1 X153.046 Y113.789 E1.31161
;WIDTH:0.724068
G1 X153.21 Y113.78 E.0093
G1 X153.366 Y113.705 E.0098
;WIDTH:0.693186
G1 X153.522 Y113.63 E.00936
;WIDTH:0.662303
G1 X153.822 Y113.323 E.02211
;WIDTH:0.649999
G1 X153.943 Y113.004 E.01722
G1 X153.957 Y112.846 E.00801
G1 X153.957 Y95.507 E.87525
G1 X155.243 Y95.507 E.06492
G1 X155.243 Y96.15 E.03246
G1 X155.243 Y114.493 E.92593
G1 X154.476 Y114.493 E.03872
;WIDTH:0.662303
G1 X153.761 Y114.487 E.03683
;WIDTH:0.688342
G1 X153.404 Y114.474 E.01917
;WIDTH:0.714381
G1 X153.046 Y114.461 E.02
G1 X129.554 Y114.461 E1.31161
G1 X129.127 Y114.477 E.02386
;WIDTH:0.68219
G1 X128.701 Y114.493 E.02266
;WIDTH:0.649999
G1 X121.299 Y114.493 E.37364
;WIDTH:0.68219
G1 X120.873 Y114.477 E.02266
;WIDTH:0.714381
G1 X120.446 Y114.461 E.02386
G1 X96.954 Y114.461 E1.31161
G1 X96.596 Y114.477 E.02001
;WIDTH:0.68219
G1 X96.239 Y114.493 E.019
;WIDTH:0.649999
G1 X94.757 Y114.493 E.07481
G1 X94.757 Y95.507 E.95839
G1 X96.043 Y95.507 E.06492
G1 X96.043 Y112.846 E.87525
G1 X96.057 Y113.004 E.00801
M73 P3 R15
M73 Q3 S15
G1 X96.178 Y113.323 E.01722
G1 X96.481 Y113.625 E.02159
;WIDTH:0.68219
G1 X96.701 Y113.701 E.01237
M204 S1000
G1 X96.954 Y113.15 F10800
M204 S800
;TYPE:External perimeter
;WIDTH:0.649999
G1 F1200
G1 X120.446 Y113.15 E1.18585
G1 X120.629 Y113.089 E.00974
G1 X120.727 Y112.963 E.00806
G1 X120.75 Y112.846 E.00602
G1 X120.75 Y94.9 E.90589
G1 X129.25 Y94.9 E.42907
G1 X129.25 Y112.846 E.90589
G1 X129.273 Y112.963 E.00602
G1 X129.371 Y113.089 E.00806
G1 X129.554 Y113.15 E.00974
G1 X153.046 Y113.15 E1.18585
G1 X153.204 Y113.106 E.00828
G1 X153.305 Y113.005 E.00721
G1 X153.35 Y112.846 E.00834
G1 X153.35 Y94.9 E.90589
G1 X155.85 Y94.9 E.1262
G1 X155.85 Y115.1 E1.01967
G1 X94.15 Y115.1 E3.11454
G1 X94.15 Y94.9 E1.01967
M73 P4 R15
M73 Q4 S15
G1 X96.65 Y94.9 E.1262
G1 X96.65 Y112.846 E.90589
G1 X96.695 Y113.005 E.00834
G1 X96.796 Y113.106 E.00721
G1 X96.867 Y113.126 E.00372
M204 S1000
G1 X97.161 Y113.713 F10800
;WIPE_START
G1 F8640
G1 X101.198 Y113.13 E-1
;WIPE_END
G1 Z.4 F720
G1 X95.8 Y97.014 F10800
G1 Z.2 F720
G1 E1 F1500
M204 S800
;TYPE:Solid infill
;WIDTH:0.667174
G1 F1200
G1 X95.273 Y96.486 E.03872
G1 X95.273 Y97.369 E.04583
G1 X95.527 Y97.623 E.01865
G1 X95.527 Y98.506 E.04583
G1 X95.273 Y98.252 E.01865
G1 X95.273 Y99.135 E.04583
G1 X95.527 Y99.389 E.01865
G1 X95.527 Y100.272 E.04583
G1 X95.273 Y100.017 E.01868
G1 X95.273 Y100.9 E.04583
G1 X95.527 Y101.154 E.01865
G1 X95.527 Y102.037 E.04583
G1 X95.273 Y101.783 E.01865
G1 X95.273 Y102.666 E.04583
G1 X95.527 Y102.92 E.01865
G1 X95.527 Y103.803 E.04583
G1 X95.273 Y103.549 E.01865
G1 X95.273 Y104.432 E.04583
G1 X95.527 Y104.686 E.01865
G1 X95.527 Y105.569 E.04583
G1 X95.273 Y105.314 E.01868
G1 X95.273 Y106.197 E.04583
G1 X95.527 Y106.451 E.01865
G1 X95.527 Y107.334 E.04583
G1 X95.273 Y107.08 E.01865
G1 X95.273 Y107.963 E.04583
G1 X95.527 Y108.217 E.01865
G1 X95.527 Y109.1 E.04583
G1 X95.273 Y108.846 E.01865
G1 X95.273 Y109.728 E.04578
G1 X95.527 Y109.983 E.01868
G1 X95.527 Y110.866 E.04583
G1 X95.273 Y110.611 E.01868
G1 X95.273 Y111.494 E.04583
G1 X95.527 Y111.748 E.01865
G1 X95.527 Y112.631 E.04583
G1 X95.273 Y112.377 E.01865
G1 X95.273 Y113.26 E.04583
G1 X96.263 Y114.25 E.07267
M204 S1000
;WIPE_START
G1 F8640
G1 X95.273 Y113.26 E-.32328
G1 X95.273 Y112.377 E-.20389
G1 X95.527 Y112.631 E-.08294
G1 X95.527 Y111.748 E-.20389
G1 X95.273 Y111.494 E-.08294
G1 X95.273 Y111.048 E-.10306
;WIPE_END
G1 Z.4 F720
G1 X127.163 Y95.75 F10800
G1 Z.2 F720
G1 E1 F1500
M204 S800
;WIDTH:0.6547
G1 F1200
G1 X128.127 Y96.714 E.06935
G1 X128.127 Y97.579 E.044
G1 X126.571 Y96.023 E.11194
G1 X125.706 Y96.023 E.044
G1 X128.127 Y98.444 E.17417
G1 X128.127 Y99.309 E.044
M73 P4 R14
G1 X124.841 Y96.023 E.2364
G1 X123.975 Y96.023 E.04405
G1 X128.127 Y100.175 E.2987
G1 X128.127 Y101.04 E.044
G1 X123.11 Y96.023 E.36093
G1 X122.245 Y96.023 E.044
G1 X128.127 Y101.905 E.42315
G1 X128.127 Y102.77 E.044
G1 X121.873 Y96.516 E.44992
G1 X121.873 Y97.382 E.04405
G1 X128.127 Y103.635 E.44988
G1 X128.127 Y104.501 E.04405
G1 X121.873 Y98.247 E.44992
G1 X121.873 Y99.112 E.044
G1 X128.127 Y105.366 E.44992
G1 X128.127 Y106.231 E.044
M73 P5 R14
G1 X121.873 Y99.977 E.44992
G1 X121.873 Y100.842 E.044
M73 Q5 S15
G1 X128.127 Y107.096 E.44992
G1 X128.127 Y107.961 E.044
G1 X121.873 Y101.707 E.44992
G1 X121.873 Y102.573 E.04405
G1 X128.127 Y108.826 E.44988
G1 X128.127 Y109.692 E.04405
G1 X121.873 Y103.438 E.44992
G1 X121.873 Y104.303 E.044
G1 X128.127 Y110.557 E.44992
G1 X128.127 Y111.422 E.044
G1 X121.873 Y105.168 E.44992
G1 X121.873 Y106.033 E.044
G1 X128.127 Y112.287 E.44992
G1 X128.127 Y112.868 E.02956
G1 X128.198 Y113.224 E.01847
G1 X121.873 Y106.899 E.45502
G1 X121.873 Y107.764 E.044
G1 X128.086 Y113.977 E.44697
G1 X127.221 Y113.977 E.044
G1 X121.873 Y108.629 E.38474
G1 X121.873 Y109.494 E.044
G1 X126.356 Y113.977 E.32251
G1 X125.491 Y113.977 E.044
G1 X121.873 Y110.359 E.26028
G1 X121.873 Y111.225 E.04405
G1 X124.625 Y113.977 E.19798
G1 X123.76 Y113.977 E.044
G1 X121.873 Y112.09 E.13575
G1 X121.873 Y112.867 E.03953
G1 X121.859 Y112.94 E.00378
G1 X122.895 Y113.977 E.07457
G1 X122.03 Y113.977 E.044
G1 X121.436 Y113.383 E.04273
M204 S1000
;WIPE_START
G1 F8640
G1 X122.03 Y113.977 E-.19397
G1 X122.895 Y113.977 E-.19973
G1 X121.859 Y112.94 E-.33846
G1 X121.873 Y112.867 E-.01716
G1 X121.873 Y112.09 E-.17941
G1 X122.091 Y112.308 E-.07127
;WIPE_END
G1 Z.4 F720
G1 X154.2 Y96.217 F10800
G1 Z.2 F720
G1 E1 F1500
M204 S800
;WIDTH:0.669237
G1 F1200
G1 X154.727 Y96.745 E.03885
G1 X154.727 Y97.63 E.04609
G1 X154.473 Y97.376 E.01871
G1 X154.473 Y98.262 E.04614
G1 X154.727 Y98.516 E.01871
G1 X154.727 Y99.402 E.04614
G1 X154.473 Y99.148 E.01871
G1 X154.473 Y100.033 E.04609
G1 X154.727 Y100.288 E.01874
G1 X154.727 Y101.173 E.04609
G1 X154.473 Y100.919 E.01871
G1 X154.473 Y101.805 E.04614
G1 X154.727 Y102.059 E.01871
G1 X154.727 Y102.945 E.04614
G1 X154.473 Y102.691 E.01871
G1 X154.473 Y103.576 E.04609
G1 X154.727 Y103.831 E.01874
G1 X154.727 Y104.716 E.04609
G1 X154.473 Y104.462 E.01871
G1 X154.473 Y105.348 E.04614
G1 X154.727 Y105.602 E.01871
G1 X154.727 Y106.488 E.04614
G1 X154.473 Y106.234 E.01871
G1 X154.473 Y107.119 E.04609
G1 X154.727 Y107.374 E.01874
G1 X154.727 Y108.259 E.04609
G1 X154.473 Y108.005 E.01871
G1 X154.473 Y108.891 E.04614
G1 X154.727 Y109.145 E.01871
G1 X154.727 Y110.031 E.04614
G1 X154.473 Y109.777 E.01871
G1 X154.473 Y110.662 E.04609
G1 X154.727 Y110.917 E.01874
G1 X154.727 Y111.802 E.04609
G1 X154.473 Y111.548 E.01871
G1 X154.473 Y112.434 E.04614
G1 X154.727 Y112.688 E.01871
G1 X154.727 Y113.574 E.04614
G1 X154.398 Y113.245 E.02423
G1 X154.264 Y113.599 E.01971
G1 X154.069 Y113.801 E.01462
G1 X154.513 Y114.246 E.03274
M204 S1000
; stop printing object AD002_Housing_rev4 id:0 copy 0
;LAYER_CHANGE
;Z:0.5
;HEIGHT:0.3
;BEFORE_LAYER_CHANGE
G92 E0.0
;0.5


;WIPE_START
G1 F8640
G1 X154.069 Y113.801 E-.14515
G1 X154.264 Y113.599 E-.06483
G1 X154.398 Y113.245 E-.0874
G1 X154.727 Y113.574 E-.10743
G1 X154.727 Y112.688 E-.20458
G1 X154.473 Y112.434 E-.08294
G1 X154.473 Y111.548 E-.20458
G1 X154.727 Y111.802 E-.08294
M73 P6 R14
G1 X154.727 Y111.715 E-.02015
;WIPE_END
M73 Q5 S14
G1 Z.4 F720
G1 Z.5
;AFTER_LAYER_CHANGE
;0.5
M104 S250 ; set temperature
M140 S90 ; set bed temperature
; printing object AD002_Housing_rev4 id:0 copy 0
G1 Z.7
G1 X96.589 Y113.32 F10800
G1 Z.5 F720
M73 Q6 S14
G1 E1 F1500
M204 S800
;TYPE:Perimeter
;WIDTH:0.649999
G1 F2700
G1 X96.632 Y113.371 E.00487
G1 X97.143 Y113.536 E.03922
G1 X120.257 Y113.536 E1.68828
G1 X120.671 Y113.432 E.03118
G1 X120.96 Y113.184 E.02782
G1 X121.1 Y112.903 E.02293
G1 X121.136 Y112.657 E.01816
G1 X121.136 Y95.286 E1.26881
G1 X128.864 Y95.286 E.56447
G1 X128.864 Y112.657 E1.26881
G1 X128.9 Y112.903 E.01816
G1 X129.04 Y113.184 E.02293
G1 X129.329 Y113.432 E.02782
G1 X129.743 Y113.536 E.03118
G1 X152.857 Y113.536 E1.68828
G1 X153.009 Y113.522 E.01115
G1 X153.368 Y113.371 E.02845
G1 X153.656 Y113.023 E.03299
G1 X153.736 Y112.657 E.02736
G1 X153.736 Y95.286 E1.26881
G1 X155.936 Y95.286 E.16069
G1 X155.936 Y114.714 E1.41905
G1 X94.064 Y114.714 E4.51923
G1 X94.064 Y95.286 E1.41905
G1 X96.264 Y95.286 E.16069
G1 X96.264 Y112.657 E1.26881
G1 X96.344 Y113.023 E.02736
G1 X96.532 Y113.25 E.02153
M204 S1000
G1 X96.972 Y112.895 F10800
M204 S800
;TYPE:External perimeter
G1 F2100
G1 X97.143 Y112.95 E.01312
G1 X120.308 Y112.946 E1.69201
G1 X120.491 Y112.833 E.01571
G1 X120.55 Y112.657 E.01356
G1 X120.55 Y94.7 E1.31161
G1 X129.45 Y94.7 E.65007
G1 X129.45 Y112.657 E1.31161
G1 X129.462 Y112.739 E.00605
G1 X129.605 Y112.916 E.01662
G1 X129.743 Y112.95 E.01038
G1 X152.857 Y112.95 E1.68828
G1 X153.028 Y112.895 E.01312
G1 X153.123 Y112.779 E.01095
G1 X153.15 Y112.657 E.00913
G1 X153.15 Y94.7 E1.31161
G1 X156.522 Y94.7 E.2463
M73 P7 R14
G1 X156.522 Y115.3 E1.50466
M73 Q7 S14
G1 X93.478 Y115.3 E4.60484
G1 X93.478 Y94.7 E1.50466
G1 X96.85 Y94.7 E.2463
G1 X96.85 Y112.657 E1.31161
G1 X96.854 Y112.708 E.00374
G1 X96.924 Y112.819 E.00959
M204 S1000
G1 X96.964 Y113.074 F10800
;WIPE_START
G1 F8640
G1 X97.143 Y112.95 E-.05892
G1 X101.219 Y112.949 E-.94108
;WIPE_END
G1 Z.7 F720
G1 X121.599 Y95.671 F10800
G1 Z.5 F720
G1 E1 F1500
;TYPE:Solid infill
;WIDTH:0.574381
G1 F4200
G1 X121.554 Y95.626 E.00405
G1 X121.492 Y95.642 E.00407
G1 X121.476 Y95.704 E.00407
G1 X121.521 Y95.749 E.00405
G1 X121.583 Y95.733 E.00407
;WIDTH:0.61219
G1 X121.858 Y95.758 E.01887
;WIDTH:0.649999
G1 X122.134 Y95.783 E.02024
G1 X121.633 Y96.284 E.05175
G1 X121.633 Y97.112 E.06048
G1 X122.962 Y95.783 E.13728
G1 X123.791 Y95.783 E.06055
G1 X121.633 Y97.941 E.22291
G1 X121.633 Y98.769 E.06048
G1 X124.619 Y95.783 E.30844
G1 X125.447 Y95.783 E.06048
G1 X121.633 Y99.597 E.39397
G1 X121.633 Y100.425 E.06048
G1 X126.275 Y95.783 E.4795
G1 X127.103 Y95.783 E.06048
G1 X121.633 Y101.253 E.56503
G1 X121.633 Y102.081 E.06048
G1 X127.931 Y95.783 E.65056
G1 X128.55 Y95.645 E.04632
;WIDTH:0.574381
G1 X128.505 Y95.6 E.00405
G1 X128.443 Y95.617 E.00409
G1 X128.427 Y95.678 E.00401
G1 X128.472 Y95.723 E.00405
G1 X128.533 Y95.707 E.00401
;WIDTH:0.61219
G1 X128.45 Y95.942 E.01703
;WIDTH:0.649999
G1 X128.367 Y96.176 E.01814
G1 X121.633 Y102.91 E.6956
G1 X121.633 Y103.738 E.06048
G1 X128.367 Y97.005 E.69555
G1 X128.367 Y97.833 E.06048
G1 X121.633 Y104.566 E.69555
G1 X121.633 Y105.394 E.06048
G1 X128.367 Y98.661 E.69555
G1 X128.367 Y99.489 E.06048
G1 X121.633 Y106.222 E.69555
G1 X121.633 Y107.051 E.06055
G1 X128.367 Y100.317 E.6956
G1 X128.367 Y101.146 E.06055
G1 X121.633 Y107.879 E.69555
G1 X121.633 Y108.707 E.06048
G1 X128.367 Y101.974 E.69555
G1 X128.367 Y102.802 E.06048
G1 X121.633 Y109.535 E.69555
G1 X121.633 Y110.363 E.06048
G1 X128.367 Y103.63 E.69555
G1 X128.367 Y104.458 E.06048
G1 X121.633 Y111.192 E.6956
G1 X121.633 Y112.02 E.06048
G1 X128.367 Y105.287 E.69555
;WIPE_START
G1 F8640
G1 X125.304 Y108.349 E-1
;WIPE_END
G1 Z.7 F720
G1 X129.621 Y114.115 F10800
G1 Z.5 F720
G1 E1 F1500
;WIDTH:0.854145
G1 F3798.603
G1 X129.754 Y114.125 E.01314
;WIDTH:0.833212
G1 F3902.023
G1 X152.853 Y114.125 E2.21503
;WIDTH:0.855255
G1 F3793.272
M73 P8 R14
G1 X153.107 Y114.114 E.02508
;WIPE_START
G1 F8640
G1 X152.853 Y114.125 E-.0587
G1 X148.776 Y114.125 E-.9413
;WIPE_END
G1 Z.7 F720
G1 X154.233 Y95.783 F10800
G1 Z.5 F720
M73 Q8 S14
G1 E1 F1500
;WIDTH:0.649999
G1 F4200
G1 X154.233 Y112.653 E1.23221
G1 X154.13 Y113.164 E.03807
G1 X154.069 Y113.288 E.01009
G1 X153.711 Y113.723 E.04115
;WIDTH:0.693558
G1 X153.579 Y113.811 E.01245
;WIDTH:0.737117
G1 X153.448 Y113.899 E.01324
;WIDTH:0.780675
G1 F4188.221
G1 X153.317 Y113.987 E.0141
;WIDTH:0.824234
G1 F3948.132
G1 X153.185 Y114.075 E.01504
;WIDTH:0.855255
G1 F3793.272
G1 X153.107 Y114.114 E.0086
G1 X153.221 Y114.134 E.01142
;WIDTH:0.815239
G1 F3995.427
G1 X153.336 Y114.154 E.01093
;WIDTH:0.775223
G1 F4200
G1 X153.451 Y114.174 E.01035
;WIDTH:0.735208
G1 X153.566 Y114.194 E.00977
;WIDTH:0.695192
G1 X153.681 Y114.214 E.00918
;WIDTH:0.655177
G1 X154.507 Y114.217 E.06087
;WIDTH:0.649999
G1 X155.439 Y114.217 E.06807
G1 X155.439 Y95.783 E1.34645
G1 X154.526 Y95.783 E.06669
G1 X154.836 Y96.386 E.04952
;WIDTH:0.684069
G1 X154.836 Y112.653 E1.25729
;WIDTH:0.723672
G1 X154.816 Y112.87 E.01792
;WIDTH:0.763275
G1 X154.796 Y113.087 E.019
;WIDTH:0.802878
G1 F4062.3
G1 X154.777 Y113.304 E.02006
;WIDTH:0.838152
G1 F3877.116
G1 X154.759 Y113.412 E.01057
;WIDTH:0.873425
G1 F3708.08
G1 X154.741 Y113.519 E.01095
;WIPE_START
G1 F8640
G1 X154.759 Y113.412 E-.02505
G1 X154.777 Y113.304 E-.02528
G1 X154.796 Y113.087 E-.0503
G1 X154.816 Y112.87 E-.05032
G1 X154.836 Y112.653 E-.05032
G1 X154.836 Y109.194 E-.79873
;WIPE_END
G1 Z.7 F720
G1 X95.767 Y96.076 F10800
G1 Z.5 F720
G1 E1 F1500
;WIDTH:0.649999
G1 F4200
G1 X95.767 Y112.653 E1.21081
G1 X95.87 Y113.164 E.03807
G1 X95.931 Y113.288 E.01009
G1 X96.287 Y113.72 E.04089
G1 X96.423 Y113.813 E.01203
;WIDTH:0.690411
G1 X96.546 Y113.873 E.01069
;WIDTH:0.730823
G1 X96.668 Y113.934 E.01134
;WIDTH:0.771235
G1 X96.791 Y113.994 E.01207
;WIDTH:0.811647
G1 F4014.634
G1 X96.914 Y114.055 E.0128
;WIDTH:0.852059
G1 F3808.663
G1 X97.036 Y114.116 E.0134
G1 X96.901 Y114.136 E.01341
;WIDTH:0.811647
G1 F4014.634
G1 X96.766 Y114.156 E.01272
;WIDTH:0.771235
G1 F4200
G1 X96.63 Y114.176 E.01212
;WIDTH:0.730823
