; generated by PrusaSlicer 2.6.0+win64 on 2023-09-05 at 07:40:14 UTC


;
;
; 

; external perimeters extrusion width = 0.65mm
; perimeters extrusion width = 0.65mm
; infill extrusion width = 0.65mm
; solid infill extrusion width = 0.65mm
; top infill extrusion width = 0.60mm
; first layer extrusion width = 0.65mm

; external perimeters extrusion width = 0.65mm
; perimeters extrusion width = 0.65mm
; infill extrusion width = 0.65mm
; solid infill extrusion width = 0.65mm
; top infill extrusion width = 0.60mm
; first layer extrusion width = 0.65mm

M73 P0 R19
M73 Q0 S19
M201 X1000 Y1000 Z200 E5000 ; sets maximum accelerations, mm/sec^2
M203 X200 Y200 Z12 E120 ; sets maximum feedrates, mm / sec
M204 S1250 T1250 ; sets acceleration (S) and retract acceleration (R), mm/sec^2
M205 X8.00 Y8.00 Z0.40 E4.50 ; sets the jerk limits, mm/sec
M205 S0 T0 ; sets the minimum extruding and travel feed rate, mm/sec
;TYPE:Custom
M862.3 P "MK3S" ; printer model check
M862.1 P0.6 ; nozzle diameter check
M115 U3.12.2 ; tell printer latest fw version
G90 ; use absolute coordinates
M83 ; extruder relative mode
M104 S240 ; set extruder temp
M140 S85 ; set bed temp
M190 S85 ; wait for bed temp
M109 S240 ; wait for extruder temp
G28 W ; home all without mesh bed level
G80 ; mesh bed leveling

G1 Z0.2 F720
G1 Y-3 F1000 ; go outside print area
G92 E0
G1 X60 E9 F1000 ; intro line
G1 X100 E12.5 F1000 ; intro line

G92 E0
M221 S95
G21 ; set units to millimeters
G90 ; use absolute coordinates
M83 ; use relative distances for extrusion
M900 K0.04 ; Filament gcode LA 1.5
M900 K24 ; Filament gcode LA 1.0
M107
;LAYER_CHANGE
;Z:0.2
;HEIGHT:0.2
;BEFORE_LAYER_CHANGE
G92 E0.0
;0.2


G1 E-1 F2100
G1 Z.2 F720
;AFTER_LAYER_CHANGE
;0.2
G1 Z.4
G1 X91.41 Y94.375 F10800
G1 Z.2 F720
G1 E1 F1500
M204 S800
;TYPE:Skirt/Brim
;WIDTH:0.65
G1 F1200
G1 X92.469 Y93.413 E.07222
G1 X93.381 Y93.154 E.04786
G1 X122.707 Y90.404 E1.48684
G1 X127.293 Y90.404 E.2315
G1 X156.619 Y93.154 E1.48684
G1 X157.952 Y93.673 E.07221
G1 X158.81 Y94.817 E.07218
G1 X158.983 Y95.75 E.0479
G1 X158.983 Y117 E1.07268
G1 X158.59 Y118.375 E.07219
M73 Q1 S19
G1 X157.531 Y119.337 E.07222
M73 P1 R19
G1 X156.375 Y119.607 E.05992
G1 X93.625 Y119.607 E3.16755
G1 X92.249 Y119.215 E.07222
G1 X91.288 Y118.156 E.07219
G1 X91.017 Y117 E.05994
G1 X91.017 Y95.75 E1.07268
G1 X91.385 Y94.461 E.06767
M204 S1000
; printing object AD002_Housing_rev4-1 id:0 copy 0
;WIPE_START
G1 F8640
G1 X92.469 Y93.413 E-.34815
G1 X93.381 Y93.154 E-.21891
G1 X95.248 Y92.979 E-.43294
;WIPE_END
G1 Z.4 F720
G1 X126.828 Y96.85 F10800
G1 Z.2 F720
G1 E1 F1500
M204 S800
;TYPE:Perimeter
;WIDTH:0.617923
G1 F1200
G1 X126.388 Y96.834 E.02105
;WIDTH:0.649999
G1 X125.949 Y96.818 E.02217
G1 X123.688 Y96.831 E.11413
;WIDTH:0.624585
G1 X123.325 Y96.843 E.01757
G1 X123.613 Y96.681 E.01598
;WIDTH:0.649999
G1 X123.901 Y96.518 E.0167
G1 X124.083 Y95.971 E.0291
G1 X124.083 Y94.132 E.09283
G1 X125.917 Y94.132 E.09258
G1 X125.917 Y95.971 E.09283
G1 X126.099 Y96.518 E.0291
G1 X126.463 Y96.684 E.02019
;WIDTH:0.617923
G1 X126.746 Y96.813 E.01487
M204 S1000
;WIPE_START
G1 F8640
G1 X126.388 Y96.834 E-.08281
G1 X125.949 Y96.818 E-.10143
G1 X123.688 Y96.831 E-.52208
G1 X123.325 Y96.843 E-.08386
G1 X123.613 Y96.681 E-.0763
G1 X123.901 Y96.518 E-.07641
G1 X123.979 Y96.283 E-.05711
;WIPE_END
G1 Z.4 F720
G1 X120.978 Y97.729 F10800
G1 Z.2 F720
G1 E1 F1500
M204 S800
;WIDTH:0.729155
G1 F1200
G1 X120.79 Y97.643 E.0118
G1 X120.446 Y97.586 E.0199
;WIDTH:0.714391
G1 X96.954 Y97.586 E1.31163
;WIDTH:0.724079
G1 X96.79 Y97.595 E.0093
G1 X96.634 Y97.67 E.0098
;WIDTH:0.693192
G1 X96.478 Y97.745 E.00936
;WIDTH:0.662304
G1 X96.178 Y98.052 E.02211
;WIDTH:0.649999
G1 X96.043 Y98.529 E.02502
G1 X96.043 Y115.868 E.87525
G1 X94.757 Y115.868 E.06492
G1 X94.757 Y96.882 E.95839
G1 X95.524 Y96.882 E.03872
;WIDTH:0.662304
G1 X96.239 Y96.888 E.03683
;WIDTH:0.688348
G1 X96.596 Y96.901 E.01917
;WIDTH:0.714391
G1 X96.954 Y96.914 E.02
G1 X120.446 Y96.914 E1.31163
;WIDTH:0.729155
G1 X120.721 Y96.922 E.0157
G1 X121.073 Y96.9 E.02012
;WIDTH:0.685829
G1 X121.424 Y96.878 E.0188
;WIDTH:0.642503
G1 X121.776 Y96.857 E.01758
;WIDTH:0.649113
G1 X121.565 Y96.924 E.01116
;WIDTH:0.699049
G1 X121.354 Y96.991 E.01208
;WIDTH:0.729155
G1 X121.042 Y97.388 E.02881
G1 X120.995 Y97.64 E.01463
M204 S1000
;WIPE_START
G1 F8640
G1 X120.79 Y97.643 E-.04734
G1 X120.446 Y97.586 E-.08051
G1 X116.669 Y97.586 E-.87215
;WIPE_END
G1 Z.4 F720
G1 X121.772 Y101.03 F10800
G1 Z.2 F720
G1 E1 F1500
M204 S800
;WIDTH:0.649999
G1 F1200
G1 X121.929 Y101.082 E.00835
G1 X128.071 Y101.082 E.31004
G1 X128.618 Y100.9 E.0291
M73 Q2 S19
G1 X128.643 Y100.859 E.00242
M73 P2 R19
G1 X128.643 Y115.868 E.75764
G1 X121.357 Y115.868 E.36779
G1 X121.357 Y100.859 E.75764
G1 X121.382 Y100.9 E.00242
G1 X121.687 Y101.001 E.01622
M204 S1000
;WIPE_START
G1 F8640
G1 X121.929 Y101.082 E-.05893
G1 X126.005 Y101.082 E-.94107
;WIPE_END
G1 Z.4 F720
G1 X129.513 Y97.588 F10800
G1 Z.2 F720
G1 E1 F1500
M204 S800
;WIDTH:0.724079
G1 F1200
G1 X129.39 Y97.595 E.00698
;WIDTH:0.729156
G1 X129.032 Y97.734 E.02191
G1 X128.958 Y97.388 E.02019
G1 X128.655 Y96.979 E.02904
G1 X128.461 Y96.936 E.01134
;WIDTH:0.681384
G1 X128.266 Y96.893 E.0106
;WIDTH:0.633612
G1 X128.071 Y96.85 E.00981
G1 X128.273 Y96.874 E.00999
;WIDTH:0.681384
G1 X128.474 Y96.898 E.01075
;WIDTH:0.729156
G1 X128.675 Y96.922 E.01155
G1 X129.554 Y96.914 E.05016
;WIDTH:0.714391
G1 X153.046 Y96.914 E1.31163
G1 X153.404 Y96.898 E.02001
;WIDTH:0.682195
G1 X153.761 Y96.882 E.019
;WIDTH:0.649999
G1 X155.243 Y96.882 E.07481
G1 X155.243 Y97.65 E.03877
G1 X155.243 Y115.868 E.91962
G1 X153.957 Y115.868 E.06492
G1 X153.957 Y98.529 E.87525
G1 X153.822 Y98.052 E.02502
G1 X153.519 Y97.75 E.02159
;WIDTH:0.682195
G1 X153.283 Y97.668 E.01328
;WIDTH:0.714391
G1 X153.046 Y97.586 E.014
G1 X129.603 Y97.586 E1.30889
M204 S1000
G1 X129.554 Y98.225 F10800
M204 S800
;TYPE:External perimeter
;WIDTH:0.649999
G1 F1200
M73 P2 R18
G1 X129.444 Y98.246 E.00565
;WIDTH:0.694656
G1 X129.357 Y98.34 E.00694
;WIDTH:0.739313
G1 X129.27 Y98.434 E.00742
;WIDTH:0.783969
G1 X129.183 Y98.529 E.00794
G1 X129.183 Y100.171 E.10118
;WIDTH:0.789583
G1 X129.203 Y100.504 E.02071
;WIDTH:0.743055
G1 X129.227 Y100.708 E.01196
;WIDTH:0.696527
G1 X129.25 Y100.912 E.01116
;WIDTH:0.649999
G1 X129.25 Y116.475 E.7856
G1 X120.75 Y116.475 E.42907
G1 X120.75 Y100.913 E.78555
;WIDTH:0.694656
G1 X120.772 Y100.665 E.01349
;WIDTH:0.739313
G1 X120.795 Y100.418 E.01436
;WIDTH:0.78397
G1 X120.817 Y100.171 E.01528
G1 X120.817 Y98.529 E.10118
G1 X120.749 Y98.444 E.00671
;WIDTH:0.739313
G1 X120.681 Y98.359 E.0063
;WIDTH:0.694656
G1 X120.613 Y98.275 E.00586
;WIDTH:0.649999
G1 X120.446 Y98.225 E.0088
G1 X96.954 Y98.225 E1.18585
G1 X96.796 Y98.269 E.00828
G1 X96.695 Y98.37 E.00721
G1 X96.65 Y98.529 E.00834
G1 X96.65 Y116.475 E.90589
G1 X94.15 Y116.475 E.1262
G1 X94.15 Y96.275 E1.01967
G1 X123.172 Y96.275 E1.465
M73 P3 R18
M73 Q3 S19
G1 X123.415 Y96.154 E.0137
G1 X123.476 Y95.971 E.00974
G1 X123.476 Y93.525 E.12347
G1 X126.524 Y93.525 E.15386
G1 X126.524 Y95.901 E.11994
G1 X126.585 Y96.154 E.01314
G1 X126.828 Y96.275 E.0137
G1 X155.85 Y96.275 E1.465
G1 X155.85 Y97.65 E.06941
G1 X155.85 Y116.475 E.95026
G1 X153.35 Y116.475 E.1262
G1 X153.35 Y98.529 E.90589
G1 X153.305 Y98.37 E.00834
M73 Q3 S18
G1 X153.204 Y98.269 E.00721
G1 X153.046 Y98.225 E.00828
G1 X129.644 Y98.225 E1.18131
M204 S1000
G1 X129.486 Y98.136 F10800
;WIPE_START
G1 F8640
G1 X129.444 Y98.246 E-.04643
G1 X129.357 Y98.34 E-.02957
G1 X129.27 Y98.434 E-.02957
G1 X129.183 Y98.529 E-.02974
G1 X129.183 Y100.171 E-.37914
G1 X129.203 Y100.504 E-.07703
G1 X129.227 Y100.708 E-.04743
G1 X129.25 Y100.912 E-.0474
G1 X129.25 Y102.271 E-.31369
;WIPE_END
G1 Z.4 F720
G1 X121.929 Y100.475 F10800
G1 Z.2 F720
G1 E1 F1500
M204 S800
G1 F1200
G1 X121.746 Y100.414 E.00974
;WIDTH:0.696528
G1 X121.685 Y100.355 E.00461
;WIDTH:0.743057
G1 X121.623 Y100.295 E.00502
;WIDTH:0.789585
G1 X121.561 Y100.236 E.00531
G1 X121.558 Y100.171 E.00404
;WIDTH:0.78397
G1 X121.558 Y98.529 E.10118
G1 X121.58 Y98.262 E.01651
;WIDTH:0.739313
G1 X121.603 Y97.995 E.01552
;WIDTH:0.694656
G1 X121.625 Y97.729 E.01446
;WIDTH:0.649999
G1 X121.645 Y97.62 E.00559
G1 X121.742 Y97.489 E.00823
G1 X121.929 Y97.425 E.00998
G1 X128.071 Y97.425 E.31004
G1 X128.258 Y97.489 E.00998
G1 X128.368 Y97.665 E.01048
;WIDTH:0.694656
G1 X128.393 Y97.953 E.01567
;WIDTH:0.739313
G1 X128.417 Y98.241 E.01673
;WIDTH:0.783969
G1 X128.442 Y98.529 E.01781
G1 X128.442 Y100.171 E.10118
;WIDTH:0.789583
G1 X128.439 Y100.236 E.00404
G1 X128.377 Y100.295 E.00531
;WIDTH:0.743055
G1 X128.315 Y100.355 E.00502
;WIDTH:0.696527
G1 X128.254 Y100.414 E.00461
;WIDTH:0.649999
G1 X128.071 Y100.475 E.00974
G1 X125 Y100.475 E.15502
G1 X122.019 Y100.475 E.15048
M204 S1000
;WIPE_START
G1 F8640
G1 X121.746 Y100.414 E-.06459
G1 X121.685 Y100.355 E-.0196
G1 X121.623 Y100.295 E-.01992
G1 X121.561 Y100.236 E-.01976
G1 X121.558 Y100.171 E-.01502
G1 X121.558 Y98.529 E-.37914
G1 X121.58 Y98.262 E-.06186
G1 X121.603 Y97.995 E-.06188
G1 X121.625 Y97.729 E-.06163
G1 X121.645 Y97.62 E-.02559
G1 X121.742 Y97.489 E-.03764
G1 X121.929 Y97.425 E-.04564
G1 X122.742 Y97.425 E-.18773
;WIPE_END
G1 Z.4 F720
G1 X126.828 Y96.85 F10800
G1 Z.2 F720
G1 E1 F1500
M204 S800
;TYPE:Perimeter
;WIDTH:0.585846
G1 F1200
G1 X128.071 Y96.85 E.05611
M204 S1000
;WIPE_START
G1 F8640
G1 X126.828 Y96.85 E-.28701
;WIPE_END
G1 E-.71299 F2100
G1 Z.4 F720
G1 X121.776 Y96.857 F10800
G1 Z.2 F720
G1 E1 F1500
M204 S800
;WIDTH:0.599176
G1 F1200
G1 X121.929 Y96.85 E.00708
;WIDTH:0.58586
G1 X123.172 Y96.85 E.05612
;WIDTH:0.59917
G1 X123.325 Y96.843 E.00708
M204 S1000
;WIPE_START
G1 F8640
G1 X123.172 Y96.85 E-.03537
G1 X121.929 Y96.85 E-.28701
G1 X121.776 Y96.857 E-.03537
;WIPE_END
G1 E-.64225 F2100
G1 Z.4 F720
G1 X125.674 Y95.772 F10800
G1 Z.2 F720
G1 E1 F1500
M204 S800
;TYPE:Solid infill
;WIDTH:0.729951
G1 F1200
G1 X124.599 Y94.696 E.08689
G1 X124.599 Y95.668 E.05553
G1 X125.506 Y96.575 E.07328
M204 S1000
;WIPE_START
G1 F8640
G1 X124.599 Y95.668 E-.29618
G1 X124.599 Y94.696 E-.22444
G1 X125.674 Y95.772 E-.3512
;WIPE_END
G1 E-.12818 F2100
G1 Z.4 F720
G1 X127.251 Y101.325 F10800
G1 Z.2 F720
G1 E1 F1500
M204 S800
;WIDTH:0.671845
G1 F1200
G1 X128.127 Y102.201 E.06479
G1 X128.127 Y103.09 E.04649
G1 X126.635 Y101.598 E.11034
G1 X125.746 Y101.598 E.04649
G1 X128.127 Y103.979 E.17609
G1 X128.127 Y104.869 E.04654
G1 X124.856 Y101.598 E.24191
G1 X123.967 Y101.598 E.04649
M73 P4 R18
M73 Q4 S18
G1 X128.127 Y105.758 E.30766
G1 X128.127 Y106.648 E.04654
G1 X123.077 Y101.598 E.37348
G1 X122.188 Y101.598 E.04649
G1 X128.127 Y107.537 E.43923
G1 X128.127 Y108.427 E.04654
G1 X121.873 Y102.173 E.46253
G1 X121.873 Y103.062 E.04649
G1 X128.127 Y109.316 E.46253
G1 X128.127 Y110.206 E.04654
G1 X121.873 Y103.952 E.46253
G1 X121.873 Y104.841 E.04649
G1 X128.127 Y111.095 E.46253
G1 X128.127 Y111.984 E.04649
G1 X121.873 Y105.731 E.46249
G1 X121.873 Y106.62 E.04649
G1 X128.127 Y112.874 E.46253
G1 X128.127 Y113.763 E.04649
G1 X121.873 Y107.509 E.46253
G1 X121.873 Y108.399 E.04654
G1 X128.127 Y114.653 E.46253
G1 X128.127 Y115.352 E.03655
G1 X127.937 Y115.352 E.00994
G1 X121.873 Y109.288 E.44847
G1 X121.873 Y110.178 E.04654
G1 X127.047 Y115.352 E.38265
G1 X126.158 Y115.352 E.04649
G1 X121.873 Y111.067 E.3169
G1 X121.873 Y111.957 E.04654
G1 X125.268 Y115.352 E.25108
G1 X124.379 Y115.352 E.04649
G1 X121.873 Y112.846 E.18534
G1 X121.873 Y113.735 E.04649
G1 X123.49 Y115.352 E.11959
G1 X122.6 Y115.352 E.04654
G1 X121.6 Y114.352 E.07396
M204 S1000
;WIPE_START
G1 F8640
G1 X122.6 Y115.352 E-.32655
G1 X123.49 Y115.352 E-.2055
G1 X122.057 Y113.919 E-.46795
;WIPE_END
G1 Z.4 F720
G1 X95.475 Y97.125 F10800
G1 Z.2 F720
G1 E1 F1500
M204 S800
;WIDTH:0.669014
G1 F1200
G1 X95.928 Y97.578 E.03335
G1 X95.729 Y97.783 E.01487
G1 X95.623 Y98.158 E.02029
G1 X95.273 Y97.808 E.02577
G1 X95.273 Y98.693 E.04607
G1 X95.527 Y98.947 E.0187
G1 X95.527 Y99.833 E.04613
G1 X95.273 Y99.579 E.0187
G1 X95.273 Y100.464 E.04607
G1 X95.527 Y100.718 E.0187
G1 X95.527 Y101.604 E.04613
G1 X95.273 Y101.349 E.01874
G1 X95.273 Y102.235 E.04613
G1 X95.527 Y102.489 E.0187
G1 X95.527 Y103.375 E.04613
G1 X95.273 Y103.12 E.01874
G1 X95.273 Y104.006 E.04613
G1 X95.527 Y104.26 E.0187
G1 X95.527 Y105.145 E.04607
G1 X95.273 Y104.891 E.0187
G1 X95.273 Y105.777 E.04613
G1 X95.527 Y106.031 E.0187
G1 X95.527 Y106.916 E.04607
G1 X95.273 Y106.662 E.0187
G1 X95.273 Y107.547 E.04607
G1 X95.527 Y107.802 E.01874
G1 X95.527 Y108.687 E.04607
G1 X95.273 Y108.433 E.0187
G1 X95.273 Y109.318 E.04607
G1 X95.527 Y109.573 E.01874
G1 X95.527 Y110.458 E.04607
G1 X95.273 Y110.204 E.0187
G1 X95.273 Y111.089 E.04607
G1 X95.527 Y111.343 E.0187
G1 X95.527 Y112.229 E.04613
G1 X95.273 Y111.975 E.0187
G1 X95.273 Y112.86 E.04607
G1 X95.527 Y113.114 E.0187
G1 X95.527 Y114 E.04613
G1 X95.273 Y113.745 E.01874
G1 X95.273 Y114.631 E.04613
G1 X95.8 Y115.158 E.0388
M204 S1000
;WIPE_START
G1 F8640
G1 X95.273 Y114.631 E-.17209
G1 X95.273 Y113.745 E-.20458
G1 X95.527 Y114 E-.08311
G1 X95.527 Y113.114 E-.20458
G1 X95.273 Y112.86 E-.08294
G1 X95.273 Y111.975 E-.20435
G1 X95.421 Y112.123 E-.04835
;WIPE_END
G1 Z.4 F720
G1 X153.737 Y97.125 F10800
G1 Z.2 F720
G1 E1 F1500
M204 S800
;WIDTH:0.667175
G1 F1200
G1 X154.727 Y98.115 E.07267
G1 X154.727 Y98.998 E.04583
G1 X154.473 Y98.744 E.01865
G1 X154.473 Y99.627 E.04583
G1 X154.727 Y99.881 E.01865
G1 X154.727 Y100.764 E.04583
G1 X154.473 Y100.51 E.01865
G1 X154.473 Y101.392 E.04578
G1 X154.727 Y101.647 E.01868
G1 X154.727 Y102.529 E.04578
G1 X154.473 Y102.275 E.01865
G1 X154.473 Y103.158 E.04583
G1 X154.727 Y103.412 E.01865
G1 X154.727 Y104.295 E.04583
G1 X154.473 Y104.041 E.01865
G1 X154.473 Y104.924 E.04583
G1 X154.727 Y105.178 E.01865
G1 X154.727 Y106.061 E.04583
G1 X154.473 Y105.807 E.01865
G1 X154.473 Y106.689 E.04578
G1 X154.727 Y106.944 E.01868
G1 X154.727 Y107.826 E.04578
G1 X154.473 Y107.572 E.01865
G1 X154.473 Y108.455 E.04583
G1 X154.727 Y108.709 E.01865
G1 X154.727 Y109.592 E.04583
G1 X154.473 Y109.338 E.01865
M73 Q5 S18
G1 X154.473 Y110.221 E.04583
G1 X154.727 Y110.475 E.01865
G1 X154.727 Y111.358 E.04583
G1 X154.473 Y111.103 E.01868
M73 P5 R18
G1 X154.473 Y111.986 E.04583
G1 X154.727 Y112.241 E.01868
G1 X154.727 Y113.123 E.04578
G1 X154.473 Y112.869 E.01865
G1 X154.473 Y113.752 E.04583
G1 X154.727 Y114.006 E.01865
G1 X154.727 Y114.889 E.04583
G1 X154.2 Y114.362 E.03869
M204 S1000
; stop printing object AD002_Housing_rev4-1 id:0 copy 0
;LAYER_CHANGE
;Z:0.5
;HEIGHT:0.3
;BEFORE_LAYER_CHANGE
G92 E0.0
;0.5


;WIPE_START
G1 F8640
G1 X154.727 Y114.889 E-.17209
G1 X154.727 Y114.006 E-.20389
G1 X154.473 Y113.752 E-.08294
G1 X154.473 Y112.869 E-.20389
G1 X154.727 Y113.123 E-.08294
G1 X154.727 Y112.241 E-.20366
G1 X154.572 Y112.086 E-.05059
;WIPE_END
G1 Z.4 F720
G1 Z.5
;AFTER_LAYER_CHANGE
;0.5
M104 S250 ; set temperature
M140 S90 ; set bed temperature
; printing object AD002_Housing_rev4-1 id:0 copy 0
G1 Z.7
G1 X121.544 Y100.622 F10800
G1 Z.5 F720
G1 E1 F1500
M204 S800
;TYPE:Perimeter
;WIDTH:0.689293
G1 F2700
G1 X121.591 Y100.685 E.00613
;WIDTH:0.649999
G1 X122.118 Y100.861 E.04058
G1 X127.882 Y100.861 E.42101
G1 X128.409 Y100.685 E.04058
;WIDTH:0.689293
G1 X128.541 Y100.505 E.0174
;WIDTH:0.728587
G1 X128.673 Y100.324 E.01856
;WIDTH:0.76788
G1 X128.805 Y100.144 E.01959
G1 X128.825 Y100.4 E.02253
;WIDTH:0.728587
G1 X128.845 Y100.656 E.02127
;WIDTH:0.689293
G1 X128.864 Y100.913 E.02009
;WIDTH:0.649999
G1 X128.864 Y116.089 E1.10848
G1 X121.136 Y116.089 E.56447
G1 X121.136 Y100.912 E1.10855
;WIDTH:0.689293
G1 X121.155 Y100.656 E.02001
;WIDTH:0.728587
G1 X121.175 Y100.4 E.02127
;WIDTH:0.76788
G1 X121.195 Y100.144 E.02253
G1 X121.327 Y100.324 E.01959
;WIDTH:0.728587
G1 X121.459 Y100.505 E.01856
;WIDTH:0.689293
G1 X121.491 Y100.549 E.00424
M204 S1000
;WIPE_START
G1 F8640
G1 X121.591 Y100.685 E-.03898
G1 X122.118 Y100.861 E-.12829
G1 X125.724 Y100.861 E-.83273
;WIPE_END
G1 Z.7 F720
G1 X128.917 Y98.513 F10800
G1 Z.5 F720
G1 E1 F1500
M204 S800
;WIDTH:0.753783
G1 F2700
G1 X128.812 Y98.718 E.0198
G1 X128.795 Y98.451 E.023
;WIDTH:0.719188
