; generated by PrusaSlicer 2.6.0+win64 on 2023-09-06 at 13:54:58 UTC


;
;
; 

; external perimeters extrusion width = 0.65mm
; perimeters extrusion width = 0.65mm
; infill extrusion width = 0.65mm
; solid infill extrusion width = 0.65mm
; top infill extrusion width = 0.60mm
; first layer extrusion width = 0.65mm

M73 P0 R17
M73 Q0 S17
M201 X1000 Y1000 Z200 E5000 ; sets maximum accelerations, mm/sec^2
M203 X200 Y200 Z12 E120 ; sets maximum feedrates, mm / sec
M204 S1250 T1250 ; sets acceleration (S) and retract acceleration (R), mm/sec^2
M205 X8.00 Y8.00 Z0.40 E4.50 ; sets the jerk limits, mm/sec
M205 S0 T0 ; sets the minimum extruding and travel feed rate, mm/sec
;TYPE:Custom
M862.3 P "MK3S" ; printer model check
M862.1 P0.6 ; nozzle diameter check
M115 U3.12.2 ; tell printer latest fw version
G90 ; use absolute coordinates
M83 ; extruder relative mode
M104 S240 ; set extruder temp
M140 S85 ; set bed temp
M190 S85 ; wait for bed temp
M109 S240 ; wait for extruder temp
G28 W ; home all without mesh bed level
G80 ; mesh bed leveling

G1 Z0.2 F720
G1 Y-3 F1000 ; go outside print area
G92 E0
G1 X60 E9 F1000 ; intro line
G1 X100 E12.5 F1000 ; intro line

G92 E0
M221 S95
G21 ; set units to millimeters
G90 ; use absolute coordinates
M83 ; use relative distances for extrusion
M900 K0.04 ; Filament gcode LA 1.5
M900 K24 ; Filament gcode LA 1.0
M107
;LAYER_CHANGE
;Z:0.2
;HEIGHT:0.2
;BEFORE_LAYER_CHANGE
G92 E0.0
;0.2


G1 E-1 F2100
G1 Z.2 F720
;AFTER_LAYER_CHANGE
;0.2
G1 Z.4
G1 X91.41 Y93.875 F10800
G1 Z.2 F720
G1 E1 F1500
M204 S800
;TYPE:Skirt/Brim
;WIDTH:0.65
G1 F1200
G1 X92.469 Y92.913 E.07222
G1 X93.381 Y92.654 E.04786
G1 X122.707 Y89.904 E1.48684
G1 X127.293 Y89.904 E.2315
G1 X156.619 Y92.654 E1.48684
G1 X157.952 Y93.173 E.07221
M73 P1 R17
M73 Q1 S17
G1 X158.81 Y94.317 E.07218
G1 X158.983 Y95.25 E.0479
G1 X158.983 Y117.5 E1.12315
G1 X158.59 Y118.875 E.07219
G1 X157.531 Y119.837 E.07222
G1 X156.375 Y120.107 E.05992
G1 X93.625 Y120.107 E3.16755
G1 X92.249 Y119.715 E.07222
M73 P1 R16
G1 X91.288 Y118.656 E.07219
G1 X91.017 Y117.5 E.05994
G1 X91.017 Y95.25 E1.12315
G1 X91.385 Y93.961 E.06767
M204 S1000
; printing object AD002_Housing_rev4-2 id:0 copy 0
;WIPE_START
G1 F8640
G1 X92.469 Y92.913 E-.34815
G1 X93.381 Y92.654 E-.21891
G1 X95.248 Y92.479 E-.43294
;WIPE_END
G1 Z.4 F720
G1 X126.828 Y96.35 F10800
G1 Z.2 F720
G1 E1 F1500
M204 S800
;TYPE:Perimeter
;WIDTH:0.617921
G1 F1200
G1 X126.388 Y96.334 E.02105
;WIDTH:0.649999
G1 X125.949 Y96.318 E.02217
G1 X123.688 Y96.331 E.11413
;WIDTH:0.624578
G1 X123.325 Y96.343 E.01757
G1 X123.613 Y96.181 E.01598
;WIDTH:0.649999
G1 X123.901 Y96.018 E.0167
G1 X124.083 Y95.471 E.0291
G1 X124.083 Y93.632 E.09283
G1 X125.917 Y93.632 E.09258
G1 X125.917 Y95.471 E.09283
G1 X126.099 Y96.018 E.0291
G1 X126.463 Y96.184 E.02019
;WIDTH:0.617921
G1 X126.746 Y96.313 E.01487
M204 S1000
;WIPE_START
G1 F8640
G1 X126.388 Y96.334 E-.08281
G1 X125.949 Y96.318 E-.10143
G1 X123.688 Y96.331 E-.52208
G1 X123.325 Y96.343 E-.08386
G1 X123.613 Y96.181 E-.0763
G1 X123.901 Y96.018 E-.07641
G1 X123.979 Y95.783 E-.05711
;WIPE_END
G1 Z.4 F720
G1 X121.41 Y96.512 F10800
G1 Z.2 F720
G1 E1 F1500
M204 S800
;WIDTH:0.638855
G1 F1200
G1 X121.384 Y96.531 E.0016
;WIDTH:0.678554
G1 X121.142 Y96.705 E.01575
;WIDTH:0.718253
G1 X120.901 Y96.879 E.01669
G1 X120.84 Y97.175 E.01697
G1 X120.695 Y97.117 E.00877
G1 X120.446 Y97.086 E.01409
;WIDTH:0.714381
G1 X96.954 Y97.086 E1.31161
;WIDTH:0.724068
G1 X96.79 Y97.095 E.0093
G1 X96.634 Y97.17 E.0098
;WIDTH:0.693186
G1 X96.478 Y97.245 E.00936
;WIDTH:0.662303
G1 X96.178 Y97.552 E.02211
;WIDTH:0.649999
G1 X96.043 Y98.029 E.02502
G1 X96.043 Y116.368 E.92573
G1 X94.757 Y116.368 E.06492
G1 X94.757 Y96.382 E1.00887
G1 X95.524 Y96.382 E.03872
;WIDTH:0.662303
M73 P2 R16
M73 Q2 S17
G1 X96.239 Y96.388 E.03683
;WIDTH:0.688342
G1 X96.596 Y96.401 E.01917
;WIDTH:0.714381
G1 X96.954 Y96.414 E.02
G1 X120.446 Y96.414 E1.31161
;WIDTH:0.718253
G1 X120.933 Y96.396 E.02737
;WIDTH:0.678554
G1 X121.279 Y96.377 E.01831
;WIDTH:0.638855
G1 X121.626 Y96.357 E.01722
G1 X121.483 Y96.46 E.00873
M204 S1000
;WIPE_START
G1 F8640
G1 X121.384 Y96.531 E-.02813
G1 X121.142 Y96.705 E-.06882
G1 X120.901 Y96.879 E-.06864
G1 X120.84 Y97.175 E-.06978
G1 X120.695 Y97.117 E-.03606
G1 X120.446 Y97.086 E-.05794
G1 X117.542 Y97.086 E-.67063
;WIPE_END
G1 Z.4 F720
G1 X121.357 Y100.442 F10800
G1 Z.2 F720
G1 E1 F1500
M204 S800
;WIDTH:0.649999
G1 F1200
G1 X121.779 Y100.582 E.02244
G1 X128.221 Y100.582 E.32518
G1 X128.643 Y100.442 E.02244
G1 X128.643 Y116.368 E.80393
G1 X121.357 Y116.368 E.36779
G1 X121.357 Y100.532 E.79938
M204 S1000
;WIPE_START
G1 F8640
G1 X121.779 Y100.582 E-.09812
G1 X125.685 Y100.582 E-.90188
;WIPE_END
G1 Z.4 F720
G1 X129.16 Y97.175 F10800
G1 Z.2 F720
G1 E1 F1500
M204 S800
;WIDTH:0.718254
G1 F1200
G1 X129.099 Y96.879 E.01697
G1 X128.807 Y96.703 E.01915
;WIDTH:0.674117
G1 X128.514 Y96.526 E.01797
;WIDTH:0.62998
G1 X128.221 Y96.35 E.01668
G1 X128.619 Y96.372 E.01946
;WIDTH:0.674117
G1 X129.016 Y96.394 E.02087
;WIDTH:0.718254
G1 X129.554 Y96.414 E.03023
;WIDTH:0.714381
G1 X153.046 Y96.414 E1.31161
G1 X153.404 Y96.398 E.02001
;WIDTH:0.68219
M73 Q2 S16
G1 X153.761 Y96.382 E.019
;WIDTH:0.649999
G1 X155.243 Y96.382 E.07481
G1 X155.243 Y97.15 E.03877
G1 X155.243 Y116.368 E.9701
G1 X153.957 Y116.368 E.06492
G1 X153.957 Y98.029 E.92573
G1 X153.822 Y97.552 E.02502
G1 X153.519 Y97.25 E.02159
;WIDTH:0.68219
G1 X153.283 Y97.168 E.01328
;WIDTH:0.714381
G1 X153.046 Y97.086 E.014
G1 X129.554 Y97.086 E1.31161
;WIDTH:0.718254
G1 X129.45 Y97.09 E.00584
G1 X129.247 Y97.149 E.01187
M204 S1000
G1 X129.221 Y98.029 F10800
M204 S800
;TYPE:External perimeter
;WIDTH:0.70896
G1 F1200
G1 X129.221 Y99.671 E.09094
;WIDTH:0.714006
G1 X129.233 Y100.062 E.02183
;WIDTH:0.683427
G1 X129.249 Y100.337 E.01467
;WIDTH:0.652847
G1 X129.25 Y101.004 E.03383
;WIDTH:0.649999
G1 X129.25 Y116.975 E.8062
G1 X120.75 Y116.975 E.42907
M73 P3 R16
M73 Q3 S16
G1 X120.75 Y101.004 E.8062
;WIDTH:0.652847
G1 X120.751 Y100.337 E.03383
;WIDTH:0.680903
G1 X120.765 Y100.004 E.01768
;WIDTH:0.708959
G1 X120.779 Y98.029 E.10938
G1 X120.684 Y97.895 E.0091
;WIDTH:0.679479
G1 X120.589 Y97.761 E.00869
;WIDTH:0.649999
G1 X120.446 Y97.725 E.00744
G1 X96.954 Y97.725 E1.18585
G1 X96.796 Y97.769 E.00828
G1 X96.695 Y97.87 E.00721
G1 X96.65 Y98.029 E.00834
G1 X96.65 Y116.975 E.95637
G1 X94.15 Y116.975 E.1262
G1 X94.15 Y95.775 E1.07015
G1 X123.172 Y95.775 E1.465
G1 X123.415 Y95.654 E.0137
G1 X123.476 Y95.471 E.00974
G1 X123.476 Y93.025 E.12347
G1 X126.524 Y93.025 E.15386
G1 X126.524 Y95.401 E.11994
G1 X126.585 Y95.654 E.01314
G1 X126.828 Y95.775 E.0137
G1 X155.85 Y95.775 E1.465
G1 X155.85 Y97.15 E.06941
G1 X155.85 Y116.975 E1.00074
G1 X153.35 Y116.975 E.1262
G1 X153.35 Y98.029 E.95637
G1 X153.305 Y97.87 E.00834
M73 P4 R16
M73 Q4 S16
G1 X153.204 Y97.769 E.00721
G1 X153.046 Y97.725 E.00828
G1 X129.554 Y97.725 E1.18585
G1 X129.411 Y97.761 E.00744
;WIDTH:0.67948
G1 X129.316 Y97.895 E.00869
;WIDTH:0.70896
G1 X129.273 Y97.955 E.00409
M204 S1000
;WIPE_START
G1 F8640
G1 X129.221 Y99.671 E-.39641
G1 X129.233 Y100.062 E-.09033
G1 X129.249 Y100.337 E-.06361
G1 X129.25 Y101.004 E-.15401
G1 X129.25 Y102.284 E-.29564
;WIPE_END
G1 Z.4 F720
G1 X121.475 Y97.229 F10800
G1 Z.2 F720
G1 E1 F1500
M204 S800
;WIDTH:0.649999
G1 F1200
G1 X121.497 Y97.116 E.00581
G1 X121.726 Y96.93 E.01489
G1 X121.779 Y96.925 E.00269
G1 X128.221 Y96.925 E.32518
G1 X128.503 Y97.116 E.01719
;WIDTH:0.67948
G1 X128.529 Y97.572 E.02418
;WIDTH:0.70896
G1 X128.554 Y98.029 E.02535
G1 X128.554 Y99.671 E.09094
;WIDTH:0.714006
G1 X128.552 Y99.729 E.00324
G1 X128.478 Y99.822 E.00663
;WIDTH:0.683427
G1 X128.404 Y99.915 E.00633
;WIDTH:0.652847
G1 X128.221 Y99.975 E.00977
;WIDTH:0.649999
G1 X121.779 Y99.975 E.32518
;WIDTH:0.652847
G1 X121.596 Y99.915 E.00977
;WIDTH:0.683426
G1 X121.522 Y99.822 E.00633
;WIDTH:0.714005
G1 X121.448 Y99.729 E.00663
G1 X121.446 Y99.671 E.00324
;WIDTH:0.708959
G1 X121.46 Y97.629 E.11309
;WIDTH:0.679479
G1 X121.472 Y97.318 E.01647
M204 S1000
;WIPE_START
G1 F8640
G1 X121.497 Y97.116 E-.047
G1 X121.726 Y96.93 E-.06812
G1 X121.779 Y96.925 E-.01229
G1 X125.558 Y96.925 E-.87259
;WIPE_END
G1 Z.4 F720
G1 X126.828 Y96.35 F10800
G1 Z.2 F720
G1 E1 F1500
M204 S800
;TYPE:Perimeter
;WIDTH:0.585842
G1 F1200
G1 X128.221 Y96.35 E.06289
M204 S1000
;WIPE_START
G1 F8640
G1 X126.828 Y96.35 E-.32165
;WIPE_END
G1 E-.67835 F2100
G1 Z.4 F720
G1 X121.626 Y96.357 F10800
G1 Z.2 F720
G1 E1 F1500
M204 S800
;WIDTH:0.599156
G1 F1200
G1 X121.779 Y96.35 E.00708
;WIDTH:0.585842
G1 X123.172 Y96.35 E.06289
;WIDTH:0.599156
G1 X123.325 Y96.343 E.00708
M204 S1000
;WIPE_START
G1 F8640
G1 X123.172 Y96.35 E-.03537
G1 X121.779 Y96.35 E-.32165
G1 X121.626 Y96.357 E-.03537
;WIPE_END
G1 E-.60761 F2100
G1 Z.4 F720
G1 X125.674 Y95.272 F10800
G1 Z.2 F720
G1 E1 F1500
M204 S800
;TYPE:Solid infill
;WIDTH:0.729944
G1 F1200
G1 X124.599 Y94.196 E.08689
G1 X124.599 Y95.168 E.05553
G1 X125.506 Y96.075 E.07328
M204 S1000
;WIPE_START
G1 F8640
G1 X124.599 Y95.168 E-.29618
G1 X124.599 Y94.196 E-.22444
G1 X125.674 Y95.272 E-.3512
;WIPE_END
G1 E-.12818 F2100
G1 Z.4 F720
G1 X128.4 Y102.098 F10800
G1 Z.2 F720
G1 E1 F1500
M204 S800
;WIDTH:0.671447
G1 F1200
G1 X127.401 Y101.098 E.07387
G1 X126.512 Y101.098 E.04646
G1 X128.127 Y102.713 E.11936
G1 X128.127 Y103.602 E.04646
G1 X125.623 Y101.098 E.18507
G1 X124.734 Y101.098 E.04646
G1 X128.127 Y104.491 E.25078
G1 X128.127 Y105.38 E.04646
G1 X123.845 Y101.098 E.31648
G1 X122.956 Y101.098 E.04646
G1 X128.127 Y106.269 E.38219
G1 X128.127 Y107.158 E.04646
G1 X122.067 Y101.098 E.44789
G1 X121.873 Y101.098 E.01014
G1 X121.873 Y101.793 E.03632
G1 X128.127 Y108.046 E.4622
G1 X128.127 Y108.935 E.04646
G1 X121.873 Y102.682 E.4622
G1 X121.873 Y103.57 E.04641
G1 X128.127 Y109.824 E.46223
G1 X128.127 Y110.713 E.04646
G1 X121.873 Y104.459 E.46223
G1 X121.873 Y105.348 E.04646
G1 X128.127 Y111.602 E.46223
G1 X128.127 Y112.491 E.04646
G1 X121.873 Y106.237 E.46223
G1 X121.873 Y107.126 E.04646
M73 P5 R16
G1 X128.127 Y113.38 E.46223
M73 Q5 S16
G1 X128.127 Y114.269 E.04646
G1 X121.873 Y108.015 E.46223
G1 X121.873 Y108.904 E.04646
G1 X128.127 Y115.157 E.4622
G1 X128.127 Y115.852 E.03632
G1 X127.933 Y115.852 E.01014
G1 X121.873 Y109.792 E.44789
G1 X121.873 Y110.681 E.04646
G1 X127.044 Y115.852 E.38219
G1 X126.155 Y115.852 E.04646
G1 X121.873 Y111.57 E.31648
G1 X121.873 Y112.459 E.04646
G1 X125.266 Y115.852 E.25078
G1 X124.377 Y115.852 E.04646
G1 X121.873 Y113.348 E.18507
G1 X121.873 Y114.237 E.04646
G1 X123.488 Y115.852 E.11936
G1 X122.599 Y115.852 E.04646
G1 X121.6 Y114.853 E.07384
M204 S1000
;WIPE_START
G1 F8640
G1 X122.599 Y115.852 E-.32622
G1 X123.488 Y115.852 E-.20527
G1 X122.053 Y114.417 E-.46851
;WIPE_END
G1 Z.4 F720
G1 X95.479 Y96.629 F10800
G1 Z.2 F720
G1 E1 F1500
M204 S800
;WIDTH:0.672603
G1 F1200
G1 X95.928 Y97.078 E.03325
G1 X95.729 Y97.283 E.01496
G1 X95.622 Y97.663 E.02067
G1 X95.273 Y97.313 E.02588
G1 X95.273 Y98.204 E.04665
G1 X95.527 Y98.458 E.01881
G1 X95.527 Y99.348 E.0466
G1 X95.273 Y99.094 E.01881
G1 X95.273 Y99.985 E.04665
G1 X95.527 Y100.239 E.01881
G1 X95.527 Y101.129 E.0466
G1 X95.273 Y100.875 E.01881
G1 X95.273 Y101.766 E.04665
G1 X95.527 Y102.02 E.01881
G1 X95.527 Y102.91 E.0466
G1 X95.273 Y102.656 E.01881
G1 X95.273 Y103.547 E.04665
G1 X95.527 Y103.801 E.01881
G1 X95.527 Y104.691 E.0466
G1 X95.273 Y104.437 E.01881
G1 X95.273 Y105.328 E.04665
G1 X95.527 Y105.582 E.01881
G1 X95.527 Y106.472 E.0466
G1 X95.273 Y106.218 E.01881
G1 X95.273 Y107.109 E.04665
G1 X95.527 Y107.363 E.01881
G1 X95.527 Y108.253 E.0466
G1 X95.273 Y107.999 E.01881
G1 X95.273 Y108.89 E.04665
G1 X95.527 Y109.144 E.01881
G1 X95.527 Y110.035 E.04665
G1 X95.273 Y109.78 E.01884
G1 X95.273 Y110.671 E.04665
G1 X95.527 Y110.925 E.01881
G1 X95.527 Y111.816 E.04665
G1 X95.273 Y111.561 E.01884
G1 X95.273 Y112.452 E.04665
G1 X95.527 Y112.706 E.01881
G1 X95.527 Y113.597 E.04665
G1 X95.273 Y113.342 E.01884
G1 X95.273 Y114.233 E.04665
G1 X95.527 Y114.487 E.01881
G1 X95.527 Y115.378 E.04665
G1 X94.999 Y114.85 E.0391
M204 S1000
;WIPE_START
G1 F8640
G1 X95.527 Y115.378 E-.17242
G1 X95.527 Y114.487 E-.20573
G1 X95.273 Y114.233 E-.08294
G1 X95.273 Y113.342 E-.20573
G1 X95.527 Y113.597 E-.08311
G1 X95.527 Y112.706 E-.20573
G1 X95.391 Y112.57 E-.04434
;WIPE_END
G1 Z.4 F720
G1 X153.729 Y96.625 F10800
G1 Z.2 F720
G1 E1 F1500
M204 S800
;WIDTH:0.670776
G1 F1200
G1 X154.727 Y97.623 E.07368
G1 X154.727 Y98.511 E.04636
G1 X154.473 Y98.257 E.01875
G1 X154.473 Y99.145 E.04636
G1 X154.727 Y99.399 E.01875
G1 X154.727 Y100.287 E.04636
G1 X154.473 Y100.032 E.01879
G1 X154.473 Y100.92 E.04636
G1 X154.727 Y101.175 E.01879
G1 X154.727 Y102.063 E.04636
G1 X154.473 Y101.808 E.01879
G1 X154.473 Y102.696 E.04636
G1 X154.727 Y102.95 E.01875
G1 X154.727 Y103.838 E.04636
G1 X154.473 Y103.584 E.01875
G1 X154.473 Y104.472 E.04636
G1 X154.727 Y104.726 E.01875
G1 X154.727 Y105.614 E.04636
G1 X154.473 Y105.36 E.01875
G1 X154.473 Y106.248 E.04636
G1 X154.727 Y106.502 E.01875
G1 X154.727 Y107.39 E.04636
G1 X154.473 Y107.136 E.01875
G1 X154.473 Y108.024 E.04636
G1 X154.727 Y108.278 E.01875
G1 X154.727 Y109.166 E.04636
G1 X154.473 Y108.912 E.01875
G1 X154.473 Y109.8 E.04636
G1 X154.727 Y110.054 E.01875
G1 X154.727 Y110.942 E.04636
G1 X154.473 Y110.688 E.01875
G1 X154.473 Y111.575 E.04631
G1 X154.727 Y111.83 E.01879
G1 X154.727 Y112.718 E.04636
G1 X154.473 Y112.463 E.01879
G1 X154.473 Y113.351 E.04636
G1 X154.727 Y113.606 E.01879
G1 X154.727 Y114.493 E.04631
G1 X154.473 Y114.239 E.01875
G1 X154.473 Y115.127 E.04636
G1 X155.001 Y115.655 E.03898
M204 S1000
; stop printing object AD002_Housing_rev4-2 id:0 copy 0
;LAYER_CHANGE
;Z:0.5
;HEIGHT:0.3
;BEFORE_LAYER_CHANGE
G92 E0.0
;0.5


;WIPE_START
G1 F8640
G1 X154.473 Y115.127 E-.17242
G1 X154.473 Y114.239 E-.20504
G1 X154.727 Y114.493 E-.08294
G1 X154.727 Y113.606 E-.20481
G1 X154.473 Y113.351 E-.08311
G1 X154.473 Y112.463 E-.20504
G1 X154.616 Y112.606 E-.04664
;WIPE_END
G1 Z.4 F720
G1 Z.5
;AFTER_LAYER_CHANGE
;0.5
M104 S250 ; set temperature
M140 S90 ; set bed temperature
; printing object AD002_Housing_rev4-2 id:0 copy 0
G1 Z.7
G1 X121.119 Y99.631 F10800
G1 Z.5 F720
G1 E1 F1500
M204 S800
;TYPE:Perimeter
;WIDTH:0.649999
G1 F2700
G1 X121.441 Y100.185 E.0468
G1 X121.968 Y100.361 E.04058
G1 X128.032 Y100.361 E.44292
G1 X128.559 Y100.185 E.04058
G1 X128.881 Y99.631 E.0468
G1 X128.864 Y100.338 E.05166
G1 X128.864 Y116.589 E1.187
G1 X121.136 Y116.589 E.56447
G1 X121.136 Y100.338 E1.187
G1 X121.121 Y99.721 E.04508
M204 S1000
;WIPE_START
M73 P6 R16
M73 Q6 S16
G1 F8640
G1 X121.441 Y100.185 E-.13015
G1 X121.968 Y100.361 E-.12829
G1 X125.18 Y100.361 E-.74156
;WIPE_END
G1 Z.7 F720
G1 X128.96 Y98.051 F10800
G1 Z.5 F720
G1 E1 F1500
M204 S800
G1 F2700
G1 X128.887 Y98.218 E.01331
G1 X128.911 Y97.418 E.05846
G1 X128.824 Y97.038 E.02847
G1 X128.535 Y96.698 E.03259
G1 X128.368 Y96.662 E.01248
;WIDTH:0.615524
G1 X128.2 Y96.627 E.0118
;WIDTH:0.581048
G1 X128.032 Y96.591 E.01107
;WIDTH:0.546572
G1 X127.194 Y96.591 E.0504
;WIDTH:0.581048
G1 X126.958 Y96.574 E.01525
;WIDTH:0.615524
G1 X126.721 Y96.557 E.01633
;WIDTH:0.649999
G1 X126.484 Y96.539 E.01736
G1 X123.517 Y96.544 E.21671
;WIDTH:0.640064
G1 X123.162 Y96.568 E.02555
;WIDTH:0.593318
G1 X122.806 Y96.591 E.02353
;WIDTH:0.546572
G1 X121.968 Y96.591 E.0504
;WIDTH:0.590007
G1 X121.719 Y96.648 E.01675
;WIDTH:0.633443
G1 X121.47 Y96.704 E.01811
;WIDTH:0.649999
G1 X121.176 Y97.038 E.0325
G1 X121.089 Y97.418 E.02847
G1 X121.112 Y98.218 E.05846
G1 X120.82 Y97.544 E.05365
G1 X120.625 Y97.42 E.01688
G1 X120.257 Y97.339 E.02752
G1 X97.143 Y97.339 E1.68828
G1 X96.991 Y97.353 E.01115
G1 X96.632 Y97.504 E.02845
G1 X96.344 Y97.852 E.03299
G1 X96.264 Y98.218 E.02736
G1 X96.264 Y116.589 E1.34185
G1 X94.064 Y116.589 E.16069
G1 X94.064 Y96.161 E1.49209
G1 X121.296 Y96.152 E1.98907
;WIDTH:0.633443
G1 X121.632 Y96.131 E.02389
;WIDTH:0.590007
G1 X121.968 Y96.109 E.02208
;WIDTH:0.554663
G1 X122.949 Y96.1 E.05999
;WIDTH:0.597363
G1 X123.139 Y96.041 E.01323
;WIDTH:0.640064
G1 X123.33 Y95.981 E.01438
;WIDTH:0.649999
G1 X123.616 Y95.62 E.03364
