; generated by PrusaSlicer 2.6.0+win64 on 2023-07-25 at 15:04:56 UTC


;
;
; 

; external perimeters extrusion width = 0.65mm
; perimeters extrusion width = 0.65mm
; infill extrusion width = 0.65mm
; solid infill extrusion width = 0.65mm
; top infill extrusion width = 0.60mm
; first layer extrusion width = 0.65mm

M73 P0 R8
M73 Q0 S8
M201 X1000 Y1000 Z200 E5000 ; sets maximum accelerations, mm/sec^2
M203 X200 Y200 Z12 E120 ; sets maximum feedrates, mm / sec
M204 S1250 T1250 ; sets acceleration (S) and retract acceleration (R), mm/sec^2
M205 X8.00 Y8.00 Z0.40 E4.50 ; sets the jerk limits, mm/sec
M205 S0 T0 ; sets the minimum extruding and travel feed rate, mm/sec
;TYPE:Custom
M862.3 P "MK3S" ; printer model check
M862.1 P0.6 ; nozzle diameter check
M115 U3.12.2 ; tell printer latest fw version
G90 ; use absolute coordinates
M83 ; extruder relative mode
M104 S215 ; set extruder temp
M140 S60 ; set bed temp
M190 S60 ; wait for bed temp
M109 S215 ; wait for extruder temp
G28 W ; home all without mesh bed level
G80 ; mesh bed leveling

G1 Z0.2 F720
G1 Y-3 F1000 ; go outside print area
G92 E0
G1 X60 E9 F1000 ; intro line
G1 X100 E12.5 F1000 ; intro line

G92 E0
M221 S95
G21 ; set units to millimeters
G90 ; use absolute coordinates
M83 ; use relative distances for extrusion
M900 K0.04 ; Filament gcode LA 1.5
M900 K18 ; Filament gcode LA 1.0
M107
;LAYER_CHANGE
;Z:0.2
;HEIGHT:0.2
;BEFORE_LAYER_CHANGE
G92 E0.0
;0.2


M73 P0 R7
G1 E-.8 F2100
M73 P1 R7
M73 Q1 S8
G1 Z.4 F720
;AFTER_LAYER_CHANGE
;0.2
G1 X111.285 Y85.671 F10800
G1 Z.2 F720
G1 E.8 F1500
M204 S800
;TYPE:Skirt/Brim
;WIDTH:0.65
G1 F1200
G1 X112.344 Y84.709 E.07222
G1 X113.5 Y84.439 E.05992
G1 X136.5 Y84.439 E1.16101
G1 X137.875 Y84.832 E.07219
M73 Q1 S7
G1 X138.837 Y85.89 E.07218
G1 X139.107 Y87.046 E.05992
G1 X139.107 Y122.447 E1.787
G1 X138.715 Y123.822 E.07217
M73 P2 R7
M73 Q2 S7
G1 X137.656 Y124.784 E.07222
G1 X136.5 Y125.054 E.05992
G1 X113.5 Y125.054 E1.16101
G1 X112.125 Y124.662 E.07217
G1 X111.163 Y123.603 E.07222
G1 X110.893 Y122.447 E.05992
G1 X110.893 Y87.046 E1.787
G1 X111.261 Y85.757 E.06767
M204 S1000
; printing object Back_Left_Bracket_rev0 id:0 copy 0
;WIPE_START
G1 F8640
G1 X112.344 Y84.709 E-.34798
G1 X113.5 Y84.439 E-.27411
G1 X114.27 Y84.439 E-.17791
;WIPE_END
G1 Z.6 F720
G1 X129.219 Y88.885 F10800
G1 Z.2 F720
G1 E.8 F1500
M204 S800
;TYPE:Perimeter
;WIDTH:0.724068
G1 F1200
M73 Q3 S7
G1 X129.115 Y88.891 E.0059
G1 X128.914 Y89.001 E.01298
;WIDTH:0.687034
G1 X128.714 Y89.111 E.01222
;WIDTH:0.649999
G1 X128.425 Y89.508 E.02479
G1 X128.368 Y89.825 E.01626
G1 X128.368 Y119.661 E1.50609
G1 X128.426 Y119.98 E.01637
M73 P3 R7
G1 X128.715 Y120.376 E.02475
;WIDTH:0.68411
G1 X128.997 Y120.491 E.01624
;WIDTH:0.718221
G1 X129.279 Y120.605 E.01708
G1 X135.334 Y120.605 E.34
G1 X135.334 Y120.943 E.01898
G1 X135.334 Y121.281 E.01898
G1 X129.279 Y121.281 E.34
G1 X128.834 Y121.298 E.02501
;WIDTH:0.68411
G1 X128.389 Y121.315 E.02374
;WIDTH:0.649999
G1 X126.611 Y121.315 E.08975
;WIDTH:0.68411
G1 X126.166 Y121.298 E.02374
;WIDTH:0.718221
G1 X125.721 Y121.281 E.02501
G1 X114.666 Y121.281 E.62075
G1 X114.666 Y120.605 E.03796
G1 X125.721 Y120.605 E.62075
;WIDTH:0.727938
G1 X125.886 Y120.596 E.00941
G1 X126.085 Y120.486 E.01295
;WIDTH:0.688969
G1 X126.285 Y120.376 E.01226
;WIDTH:0.649999
G1 X126.574 Y119.98 E.02475
G1 X126.632 Y119.661 E.01637
G1 X126.632 Y89.825 E1.50609
G1 X126.575 Y89.508 E.01626
M73 P4 R7
M73 Q4 S7
G1 X126.286 Y89.111 E.02479
;WIDTH:0.68219
G1 X126.004 Y88.996 E.01619
;WIDTH:0.71438
G1 X125.721 Y88.882 E.01703
G1 X114.664 Y88.882 E.61734
G1 X114.664 Y88.211 E.03746
G1 X125.721 Y88.211 E.61734
G1 X126.166 Y88.194 E.02486
;WIDTH:0.68219
G1 X126.611 Y88.178 E.02367
;WIDTH:0.649999
G1 X128.389 Y88.178 E.08975
;WIDTH:0.68219
G1 X128.834 Y88.194 E.02367
;WIDTH:0.714381
G1 X129.279 Y88.211 E.02486
G1 X135.336 Y88.211 E.33818
G1 X135.336 Y88.882 E.03746
G1 X129.309 Y88.882 E.3365
M204 S1000
G1 X129.279 Y89.521 F10800
M204 S800
;TYPE:External perimeter
;WIDTH:0.649999
G1 F1200
G1 X129.09 Y89.587 E.01011
G1 X128.994 Y89.719 E.00824
G1 X128.975 Y89.825 E.00544
G1 X128.976 Y119.687 E1.5074
G1 X129.091 Y119.899 E.01217
G1 X129.279 Y119.964 E.01004
G1 X135.975 Y119.964 E.33801
G1 X135.975 Y121.922 E.09884
G1 X114.025 Y121.922 E1.10801
G1 X114.025 Y119.964 E.09884
M73 P5 R7
M73 Q5 S7
G1 X125.721 Y119.964 E.5904
G1 X125.909 Y119.899 E.01004
G1 X126.006 Y119.767 E.00827
G1 X126.025 Y119.661 E.00544
G1 X126.02 Y89.769 E1.50891
G1 X125.91 Y89.587 E.01073
G1 X125.721 Y89.521 E.01011
G1 X114.025 Y89.521 E.5904
G1 X114.025 Y87.571 E.09843
G1 X135.975 Y87.571 E1.10801
G1 X135.975 Y89.521 E.09843
G1 X129.369 Y89.521 E.33346
M204 S1000
G1 X129.13 Y89.388 F10800
;WIPE_START
M73 P6 R7
M73 Q6 S7
G1 F8640
G1 X129.09 Y89.587 E-.0662
G1 X128.994 Y89.719 E-.03769
G1 X128.975 Y89.825 E-.02487
G1 X128.975 Y92.732 E-.67124
;WIPE_END
G1 Z.6 F720
G1 X127.401 Y88.421 F10800
G1 Z.2 F720
G1 E.8 F1500
M204 S800
;TYPE:Solid infill
;WIDTH:0.663227
G1 F1200
G1 X128.09 Y89.11 E.05026
G1 X127.946 Y89.309 E.01267
G1 X127.875 Y89.565 E.0137
G1 X127.857 Y89.755 E.00984
G1 X126.797 Y88.694 E.07736
G1 X126.601 Y88.696 E.01011
G1 X127.054 Y89.309 E.03931
G1 X127.125 Y89.565 E.0137
G1 X127.148 Y89.923 E.0185
G1 X127.852 Y90.627 E.05135
G1 X127.852 Y91.504 E.04523
G1 X127.148 Y90.8 E.05135
G1 X127.148 Y91.678 E.04529
G1 X127.852 Y92.381 E.05132
G1 X127.852 Y93.259 E.04529
G1 X127.148 Y92.555 E.05135
G1 X127.148 Y93.432 E.04523
G1 X127.852 Y94.136 E.05135
G1 X127.852 Y95.013 E.04523
G1 X127.148 Y94.309 E.05135
G1 X127.148 Y95.187 E.04529
G1 X127.852 Y95.89 E.05132
G1 X127.852 Y96.768 E.04529
G1 X127.148 Y96.064 E.05135
G1 X127.148 Y96.941 E.04523
G1 X127.852 Y97.645 E.05135
G1 X127.852 Y98.522 E.04523
G1 X127.148 Y97.818 E.05135
G1 X127.148 Y98.696 E.04529
G1 X127.852 Y99.399 E.05132
G1 X127.852 Y100.277 E.04529
G1 X127.148 Y99.573 E.05135
G1 X127.148 Y100.45 E.04523
G1 X127.852 Y101.154 E.05135
G1 X127.852 Y102.031 E.04523
G1 X127.148 Y101.327 E.05135
G1 X127.148 Y102.205 E.04529
G1 X127.852 Y102.908 E.05132
G1 X127.852 Y103.786 E.04529
G1 X127.148 Y103.082 E.05135
G1 X127.148 Y103.959 E.04523
G1 X127.852 Y104.663 E.05135
G1 X127.852 Y105.54 E.04523
G1 X127.148 Y104.836 E.05135
G1 X127.148 Y105.714 E.04529
G1 X127.852 Y106.417 E.05132
G1 X127.852 Y107.295 E.04529
G1 X127.148 Y106.591 E.05135
G1 X127.148 Y107.468 E.04523
G1 X127.852 Y108.172 E.05135
G1 X127.852 Y109.049 E.04523
G1 X127.148 Y108.345 E.05135
G1 X127.148 Y109.223 E.04529
G1 X127.852 Y109.926 E.05132
G1 X127.852 Y110.804 E.04529
G1 X127.148 Y110.1 E.05135
G1 X127.148 Y110.977 E.04523
G1 X127.852 Y111.681 E.05135
G1 X127.852 Y112.558 E.04523
G1 X127.148 Y111.854 E.05135
G1 X127.148 Y112.732 E.04529
G1 X127.852 Y113.435 E.05132
G1 X127.852 Y114.313 E.04529
G1 X127.148 Y113.609 E.05135
G1 X127.148 Y114.486 E.04523
G1 X127.852 Y115.19 E.05135
G1 X127.852 Y116.067 E.04523
G1 X127.148 Y115.363 E.05135
G1 X127.148 Y116.241 E.04529
G1 X127.852 Y116.944 E.05132
G1 X127.852 Y117.822 E.04529
G1 X127.148 Y117.118 E.05135
G1 X127.148 Y117.995 E.04523
G1 X127.852 Y118.699 E.05135
G1 X127.852 Y119.576 E.04523
G1 X127.148 Y118.872 E.05135
G1 X127.141 Y119.743 E.04493
G1 X128.197 Y120.799 E.07703
G1 X127.32 Y120.799 E.04523
G1 X126.709 Y120.188 E.04457
M204 S1000
; stop printing object Back_Left_Bracket_rev0 id:0 copy 0
M106 S84.15
;LAYER_CHANGE
;Z:0.4
;HEIGHT:0.2
;BEFORE_LAYER_CHANGE
G92 E0.0
;0.4


;WIPE_START
G1 F8640
M73 P7 R7
G1 X127.32 Y120.799 E-.19952
G1 X128.197 Y120.799 E-.2025
M73 Q7 S7
G1 X127.141 Y119.743 E-.34483
G1 X127.143 Y119.513 E-.05315
;WIPE_END
G1 Z.6 F720
;AFTER_LAYER_CHANGE
;0.4
; printing object Back_Left_Bracket_rev0 id:0 copy 0
G1 X129.13 Y89.131 F10800
G1 Z.4 F720
G1 E.8 F1500
M204 S800
;TYPE:Perimeter
;WIDTH:0.833723
G1 F2700
G1 X129.114 Y89.145 E.0014
;WIDTH:0.787792
G1 X129.053 Y89.196 E.00492
;WIDTH:0.741861
G1 X128.992 Y89.247 E.00462
;WIDTH:0.69593
G1 X128.931 Y89.297 E.00428
;WIDTH:0.649999
G1 X128.637 Y89.677 E.02425
G1 X128.568 Y90.025 E.01791
G1 X128.568 Y119.461 E1.48589
G1 X128.639 Y119.814 E.01818
G1 X128.934 Y120.191 E.02416
;WIDTH:0.695983
G1 X129.025 Y120.244 E.00572
;WIDTH:0.741966
G1 X129.115 Y120.297 E.00607
;WIDTH:0.78795
G1 X129.206 Y120.35 E.00652
;WIDTH:0.833933
G1 X129.297 Y120.403 E.00693
;WIDTH:0.879917
G1 X129.388 Y120.456 E.00733
;WIDTH:0.9259
G1 X129.479 Y120.509 E.00773
G1 X135.43 Y120.509 E.43692
G1 X135.43 Y120.951 E.03245
G1 X135.43 Y121.392 E.03238
G1 X129.479 Y121.392 E.43692
G1 X129.314 Y121.415 E.01223
;WIDTH:0.879917
G1 X129.149 Y121.438 E.01159
;WIDTH:0.833933
G1 X128.984 Y121.461 E.01096
;WIDTH:0.78795
G1 X128.819 Y121.484 E.01032
;WIDTH:0.741966
G1 X128.654 Y121.507 E.00968
;WIDTH:0.695983
G1 X128.489 Y121.53 E.00905
;WIDTH:0.649999
G1 X126.511 Y121.53 E.09985
;WIDTH:0.697865
G1 X126.389 Y121.506 E.00677
;WIDTH:0.74573
G1 X126.267 Y121.482 E.00727
;WIDTH:0.793595
G1 X126.146 Y121.458 E.0077
;WIDTH:0.84146
G1 X126.024 Y121.434 E.00826
;WIDTH:0.889325
G1 X125.903 Y121.411 E.00867
;WIDTH:0.93719
G1 X125.781 Y121.387 E.00925
G1 X125.521 Y121.392 E.01934
;WIDTH:0.9259
G1 X114.57 Y121.392 E.80402
G1 X114.57 Y120.509 E.06483
G1 X125.521 Y120.509 E.80402
;WIDTH:0.93719
G1 X125.704 Y120.499 E.01363
G1 X125.764 Y120.448 E.00586
;WIDTH:0.889325
G1 X125.824 Y120.396 E.00559
;WIDTH:0.84146
G1 X125.885 Y120.345 E.00528
;WIDTH:0.793595
G1 X125.945 Y120.293 E.00496
;WIDTH:0.74573
G1 X126.006 Y120.242 E.00465
;WIDTH:0.697865
G1 X126.066 Y120.191 E.00429
;WIDTH:0.649999
G1 X126.361 Y119.814 E.02416
G1 X126.432 Y119.461 E.01818
G1 X126.432 Y90.025 E1.48589
G1 X126.363 Y89.677 E.01791
G1 X126.069 Y89.297 E.02425
;WIDTH:0.694063
G1 X125.978 Y89.245 E.00567
;WIDTH:0.738127
G1 X125.887 Y89.192 E.00609
;WIDTH:0.78219
G1 X125.795 Y89.14 E.0065
;WIDTH:0.826254
G1 X125.704 Y89.087 E.00686
;WIDTH:0.870318
G1 X125.613 Y89.035 E.00721
;WIDTH:0.914381
G1 X125.521 Y88.982 E.00769
G1 X114.564 Y88.982 E.79397
G1 X114.564 Y88.111 E.06311
G1 X125.521 Y88.111 E.79397
G1 X125.686 Y88.088 E.01207
;WIDTH:0.870318
G1 X125.851 Y88.066 E.01145
;WIDTH:0.826254
G1 X126.016 Y88.044 E.01084
;WIDTH:0.78219
G1 X126.181 Y88.022 E.01023
;WIDTH:0.738127
G1 X126.346 Y88 E.00962
;WIDTH:0.694063
G1 X126.511 Y87.978 E.00901
;WIDTH:0.649999
G1 X128.489 Y87.978 E.09985
;WIDTH:0.69593
G1 X128.611 Y88.001 E.00674
;WIDTH:0.741861
G1 X128.733 Y88.024 E.00722
;WIDTH:0.787792
G1 X128.855 Y88.047 E.00769
;WIDTH:0.833723
G1 X128.977 Y88.07 E.00816
;WIDTH:0.879654
G1 X129.099 Y88.093 E.00864
;WIDTH:0.925584
G1 X129.221 Y88.116 E.00911
G1 X129.479 Y88.111 E.01894
;WIDTH:0.914381
G1 X135.436 Y88.111 E.43166
G1 X135.436 Y88.982 E.06311
G1 X129.479 Y88.982 E.43166
;WIDTH:0.925584
G1 X129.297 Y88.992 E.01338
G1 X129.236 Y89.043 E.00584
;WIDTH:0.879654
G1 X129.199 Y89.074 E.00336
M204 S1000
G1 X129.479 Y89.721 F10800
M204 S800
;TYPE:External perimeter
;WIDTH:0.649999
G1 F2100
G1 X129.296 Y89.782 E.00974
G1 X129.198 Y89.909 E.0081
G1 X129.175 Y90.025 E.00597
G1 X129.182 Y119.523 E1.48902
G1 X129.297 Y119.704 E.01082
M73 P8 R7
M73 Q8 S7
G1 X129.479 Y119.764 E.00967
G1 X136.175 Y119.764 E.33801
G1 X136.175 Y122.137 E.11979
G1 X113.825 Y122.137 E1.1282
G1 X113.825 Y119.764 E.11979
G1 X125.521 Y119.764 E.5904
G1 X125.703 Y119.704 E.00967
G1 X125.801 Y119.579 E.00802
G1 X125.825 Y119.461 E.00608
G1 X125.819 Y89.963 E1.48902
G1 X125.704 Y89.782 E.01082
G1 X125.521 Y89.721 E.00974
G1 X113.825 Y89.721 E.5904
G1 X113.825 Y87.371 E.11863
G1 X136.175 Y87.371 E1.1282
G1 X136.175 Y89.721 E.11863
G1 X129.569 Y89.721 E.33346
M204 S1000
G1 X129.334 Y89.594 F10800
;WIPE_START
G1 F8640
G1 X129.296 Y89.782 E-.06459
G1 X129.198 Y89.909 E-.03704
G1 X129.175 Y90.025 E-.02731
G1 X129.176 Y92.931 E-.67106
;WIPE_END
G1 Z.8 F720
G1 X126.842 Y88.494 F10800
G1 Z.4 F720
G1 E.8 F1500
;TYPE:Solid infill
G1 F3192
G1 X128.405 Y88.494 E.0789
G1 X128.846 Y88.643 E.0235
G1 X128.577 Y88.929 E.01982
G1 X128.159 Y89.486 E.03515
G1 X128.052 Y90.029 E.02794
G1 X128.052 Y119.456 E1.48544
G1 X128.144 Y119.948 E.02527
M73 P9 R7
M73 Q9 S7
G1 X128.203 Y120.076 E.00711
G1 X128.577 Y120.554 E.03064
G1 X128.993 Y120.866 E.02625
G1 X128.46 Y121.014 E.02792
G1 X126.601 Y121.014 E.09384
G1 X126.148 Y120.855 E.02423
G1 X126.417 Y120.562 E.02008
G1 X126.797 Y120.076 E.03114
G1 X126.856 Y119.948 E.00711
G1 X126.948 Y119.456 E.02527
G1 X126.948 Y90.029 E1.48544
G1 X126.86 Y89.546 E.02478
G1 X126.802 Y89.418 E.00709
G1 X126.429 Y88.936 E.03077
G1 X126.018 Y88.633 E.02578
G1 X126.539 Y88.494 E.02722
G1 X127.5 Y89.209 E.06046
;WIDTH:0.865174
G1 X127.5 Y89.326 E.008
;WIDTH:0.818671
G1 X127.5 Y89.443 E.00755
;WIDTH:0.772167
G1 X127.5 Y89.561 E.00716
;WIDTH:0.725663
G1 X127.5 Y89.678 E.00664
;WIDTH:0.679159
G1 X127.5 Y89.795 E.00619
;WIDTH:0.632656
G1 X127.5 Y89.912 E.00574
;WIDTH:0.586152
G1 X127.5 Y90.029 E.00528
;WIDTH:0.53965
G1 X127.5 Y119.456 E1.21543
;WIDTH:0.587985
G1 X127.5 Y119.576 E.00544
;WIDTH:0.636319
G1 X127.5 Y119.695 E.00587
;WIDTH:0.684653
G1 X127.5 Y119.815 E.0064
;WIDTH:0.732987
G1 X127.5 Y119.934 E.00683
;WIDTH:0.781322
G1 X127.5 Y120.054 E.00737
;WIDTH:0.829656
G1 X127.5 Y120.174 E.00785
;WIDTH:0.87799
G1 X127.5 Y120.293 E.00826
; stop printing object Back_Left_Bracket_rev0 id:0 copy 0
M106 S170.85
;LAYER_CHANGE
;Z:0.6
;HEIGHT:0.2
;BEFORE_LAYER_CHANGE
G92 E0.0
;0.6


;WIPE_START
G1 F8640
G1 X127.5 Y120.174 E-.02748
G1 X127.5 Y120.054 E-.02771
G1 X127.5 Y119.934 E-.02771
G1 X127.5 Y119.815 E-.02748
G1 X127.5 Y119.695 E-.02771
G1 X127.5 Y119.576 E-.02748
G1 X127.5 Y119.456 E-.02771
G1 X127.5 Y116.828 E-.60672
;WIPE_END
G1 Z.8 F720
;AFTER_LAYER_CHANGE
;0.6
; printing object Back_Left_Bracket_rev0 id:0 copy 0
G1 X129.13 Y89.131 F10800
G1 Z.6 F720
G1 E.8 F1500
M204 S800
;TYPE:Perimeter
;WIDTH:0.833723
G1 F2700
G1 X129.114 Y89.145 E.0014
;WIDTH:0.787792
G1 X129.053 Y89.196 E.00492
;WIDTH:0.741861
G1 X128.992 Y89.247 E.00462
;WIDTH:0.69593
G1 X128.931 Y89.297 E.00428
;WIDTH:0.649999
G1 X128.637 Y89.677 E.02425
G1 X128.568 Y90.025 E.01791
G1 X128.568 Y119.461 E1.48589
G1 X128.641 Y119.818 E.01839
G1 X128.936 Y120.192 E.02405
;WIDTH:0.697263
G1 X129.027 Y120.246 E.00576
;WIDTH:0.744526
G1 X129.117 Y120.299 E.00609
;WIDTH:0.791789
G1 X129.207 Y120.353 E.00654
;WIDTH:0.839052
G1 X129.298 Y120.406 E.00697
;WIDTH:0.886315
G1 X129.388 Y120.46 E.00736
;WIDTH:0.933578
G1 X129.479 Y120.513 E.0078
G1 X135.426 Y120.513 E.44043
G1 X135.426 Y120.958 E.03296
G1 X135.426 Y121.404 E.03303
G1 X129.479 Y121.404 E.44043
G1 X129.314 Y121.427 E.01234
;WIDTH:0.886315
G1 X129.149 Y121.451 E.01169
;WIDTH:0.839052
G1 X128.984 Y121.475 E.01104
;WIDTH:0.791789
G1 X128.819 Y121.498 E.01037
;WIDTH:0.744526
G1 X128.654 Y121.522 E.00973
;WIDTH:0.697263
G1 X128.489 Y121.546 E.00907
;WIDTH:0.649999
G1 X126.511 Y121.546 E.09985
;WIDTH:0.699154
G1 X126.389 Y121.521 E.0068
;WIDTH:0.748308
G1 X126.268 Y121.496 E.00725
;WIDTH:0.797463
G1 X126.146 Y121.472 E.0078
;WIDTH:0.846617
G1 X126.025 Y121.447 E.00826
;WIDTH:0.895772
G1 X125.904 Y121.423 E.00875
;WIDTH:0.944926
G1 X125.782 Y121.398 E.00934
G1 X125.521 Y121.404 E.01958
;WIDTH:0.933578
G1 X114.574 Y121.404 E.81072
G1 X114.574 Y120.513 E.06599
G1 X125.521 Y120.513 E.81072
;WIDTH:0.944926
G1 X125.704 Y120.503 E.01375
G1 X125.764 Y120.451 E.00595
;WIDTH:0.895772
G1 X125.824 Y120.399 E.00563
;WIDTH:0.846617
G1 X125.884 Y120.348 E.00526
;WIDTH:0.797463
G1 X125.944 Y120.296 E.00498
;WIDTH:0.748308
G1 X126.004 Y120.244 E.00466
;WIDTH:0.699154
G1 X126.064 Y120.192 E.00433
;WIDTH:0.649999
G1 X126.359 Y119.818 E.02405
G1 X126.432 Y119.461 E.01839
G1 X126.432 Y90.025 E1.48589
G1 X126.363 Y89.677 E.01791
M73 P10 R7
M73 Q10 S7
G1 X126.069 Y89.297 E.02425
;WIDTH:0.694063
G1 X125.978 Y89.245 E.00567
;WIDTH:0.738127
G1 X125.887 Y89.192 E.00609
;WIDTH:0.78219
G1 X125.795 Y89.14 E.0065
;WIDTH:0.826254
G1 X125.704 Y89.087 E.00686
;WIDTH:0.870318
G1 X125.613 Y89.035 E.00721
;WIDTH:0.914381
G1 X125.521 Y88.982 E.00769
G1 X114.564 Y88.982 E.79397
G1 X114.564 Y88.111 E.06311
G1 X125.521 Y88.111 E.79397
G1 X125.686 Y88.088 E.01207
;WIDTH:0.870318
G1 X125.851 Y88.066 E.01145
;WIDTH:0.826254
