; generated by PrusaSlicer 2.6.0+win64 on 2023-07-25 at 15:05:08 UTC


;
;
; 

; external perimeters extrusion width = 0.65mm
; perimeters extrusion width = 0.65mm
; infill extrusion width = 0.65mm
; solid infill extrusion width = 0.65mm
; top infill extrusion width = 0.60mm
; first layer extrusion width = 0.65mm

M73 P0 R8
M73 Q0 S8
M201 X1000 Y1000 Z200 E5000 ; sets maximum accelerations, mm/sec^2
M203 X200 Y200 Z12 E120 ; sets maximum feedrates, mm / sec
M204 S1250 T1250 ; sets acceleration (S) and retract acceleration (R), mm/sec^2
M205 X8.00 Y8.00 Z0.40 E4.50 ; sets the jerk limits, mm/sec
M205 S0 T0 ; sets the minimum extruding and travel feed rate, mm/sec
;TYPE:Custom
M862.3 P "MK3S" ; printer model check
M862.1 P0.6 ; nozzle diameter check
M115 U3.12.2 ; tell printer latest fw version
G90 ; use absolute coordinates
M83 ; extruder relative mode
M104 S215 ; set extruder temp
M140 S60 ; set bed temp
M190 S60 ; wait for bed temp
M109 S215 ; wait for extruder temp
G28 W ; home all without mesh bed level
G80 ; mesh bed leveling

G1 Z0.2 F720
G1 Y-3 F1000 ; go outside print area
G92 E0
G1 X60 E9 F1000 ; intro line
G1 X100 E12.5 F1000 ; intro line

G92 E0
M221 S95
G21 ; set units to millimeters
G90 ; use absolute coordinates
M83 ; use relative distances for extrusion
M900 K0.04 ; Filament gcode LA 1.5
M900 K18 ; Filament gcode LA 1.0
M107
;LAYER_CHANGE
;Z:0.2
;HEIGHT:0.2
;BEFORE_LAYER_CHANGE
G92 E0.0
;0.2


G1 E-.8 F2100
M73 P1 R8
M73 Q1 S8
G1 Z.4 F720
;AFTER_LAYER_CHANGE
;0.2
G1 X112.785 Y85.62 F10800
G1 Z.2 F720
G1 E.8 F1500
M204 S800
;TYPE:Skirt/Brim
;WIDTH:0.65
G1 F1200
G1 X113.844 Y84.659 E.07219
G1 X115 Y84.389 E.05992
G1 X135 Y84.389 E1.00958
G1 X136.375 Y84.781 E.07217
G1 X137.337 Y85.84 E.07222
G1 X137.607 Y86.996 E.05992
G1 X137.607 Y122.397 E1.787
G1 X137.215 Y123.772 E.07217
M73 P2 R8
M73 Q2 S8
G1 X136.156 Y124.733 E.07219
G1 X135 Y125.004 E.05994
G1 X123 Y125.004 E.60575
G1 X121.625 Y124.611 E.07219
G1 X120.787 Y123.775 E.05975
G1 X120.406 Y122.918 E.04734
G1 X112.468 Y90.618 E1.67898
G1 X112.393 Y89.996 E.03163
G1 X112.393 Y86.996 E.15144
G1 X112.761 Y85.707 E.06767
M204 S1000
; printing object Back_Right_Bracket_rev0 id:0 copy 0
;WIPE_START
G1 F8640
G1 X113.844 Y84.659 E-.34798
G1 X115 Y84.389 E-.27411
G1 X115.77 Y84.389 E-.17791
;WIPE_END
G1 Z.6 F720
G1 X125.743 Y88.834 F10800
G1 Z.2 F720
G1 E.8 F1500
M204 S800
;TYPE:Perimeter
;WIDTH:0.724068
G1 F1200
G1 X125.615 Y88.841 E.00726
G1 X125.475 Y88.904 E.0087
;WIDTH:0.696994
G1 X125.336 Y88.967 E.0083
;WIDTH:0.66992
G1 X125.04 Y89.242 E.02106
;WIDTH:0.670471
G1 X124.912 Y89.462 E.01328
;WIDTH:0.708049
G1 X124.866 Y89.618 E.00899
;WIDTH:0.745626
G1 X124.82 Y89.774 E.0095
G1 X124.82 Y119.61 E1.74332
;WIDTH:0.75555
G1 X124.83 Y119.777 E.00991
M73 P3 R8
M73 Q3 S8
G1 X124.926 Y119.93 E.0107
;WIDTH:0.720367
G1 X125.022 Y120.084 E.01022
;WIDTH:0.685183
G1 X125.118 Y120.238 E.00969
;WIDTH:0.68411
G1 X125.448 Y120.396 E.01951
;WIDTH:0.71822
G1 X125.779 Y120.555 E.02062
G1 X133.834 Y120.555 E.4523
G1 X133.834 Y120.893 E.01898
G1 X133.834 Y121.23 E.01892
G1 X125.779 Y121.23 E.4523
G1 X125.228 Y121.247 E.03095
;WIDTH:0.68411
G1 X124.678 Y121.264 E.02934
;WIDTH:0.649999
G1 X124.07 Y121.264 E.03069
G1 X124.07 Y120.656 E.03069
;WIDTH:0.697813
G1 X124.093 Y120.133 E.02851
;WIDTH:0.745626
G1 X124.117 Y119.61 E.03059
G1 X124.117 Y89.774 E1.74332
G1 X124.071 Y89.618 E.0095
;WIDTH:0.708049
G1 X124.025 Y89.462 E.00899
;WIDTH:0.670471
G1 X123.898 Y89.242 E.01326
;WIDTH:0.649999
G1 X123.597 Y88.976 E.02028
;WIDTH:0.68219
G1 X123.378 Y88.904 E.01225
;WIDTH:0.714381
G1 X123.159 Y88.832 E.01287
G1 X116.164 Y88.832 E.39055
G1 X116.164 Y88.16 E.03752
G1 X123.159 Y88.16 E.39055
G1 X123.486 Y88.144 E.01828
;WIDTH:0.68219
G1 X123.814 Y88.128 E.01746
;WIDTH:0.649999
G1 X124.469 Y88.128 E.03306
;WIDTH:0.66992
G1 X125.124 Y88.138 E.03415
;WIDTH:0.714381
G1 X125.779 Y88.16 E.03659
G1 X133.836 Y88.16 E.44984
G1 X133.836 Y88.832 E.03752
G1 X125.833 Y88.832 E.44683
M204 S1000
G1 X125.779 Y89.471 F10800
M204 S800
;TYPE:External perimeter
;WIDTH:0.649999
G1 F1200
G1 X125.726 Y89.475 E.00268
G1 X125.532 Y89.597 E.01157
G1 X125.475 Y89.774 E.00939
G1 X125.475 Y119.61 E1.50609
G1 X125.558 Y119.819 E.01135
M73 P4 R8
M73 Q4 S8
G1 X125.779 Y119.914 E.01214
G1 X134.475 Y119.914 E.43896
G1 X134.475 Y121.872 E.09884
G1 X123.463 Y121.872 E.55587
G1 X123.463 Y89.774 E1.62027
G1 X123.445 Y89.672 E.00523
G1 X123.305 Y89.508 E.01088
G1 X123.159 Y89.471 E.0076
G1 X115.525 Y89.471 E.38536
G1 X115.525 Y87.521 E.09843
M73 P4 R7
G1 X134.475 Y87.521 E.95657
G1 X134.475 Y89.471 E.09843
M73 P5 R7
M73 Q5 S8
G1 X125.869 Y89.471 E.43442
M204 S1000
G1 X125.746 Y89.429 F10800
;WIPE_START
G1 F8640
G1 X125.726 Y89.475 E-.03303
G1 X125.532 Y89.597 E-.05292
G1 X125.475 Y89.774 E-.04294
G1 X125.475 Y92.68 E-.67111
;WIPE_END
G1 Z.6 F720
G1 X124.37 Y88.379 F10800
G1 Z.2 F720
G1 E.8 F1500
M204 S800
;TYPE:Solid infill
;WIDTH:0.655209
G1 F1200
G1 X124.971 Y88.98 E.04327
M204 S1000
; stop printing object Back_Right_Bracket_rev0 id:0 copy 0
M106 S84.15
;LAYER_CHANGE
;Z:0.4
;HEIGHT:0.2
;BEFORE_LAYER_CHANGE
G92 E0.0
;0.4


;WIPE_START
G1 F8640
G1 X124.37 Y88.379 E-.19625
;WIPE_END
G1 E-.60375 F2100
G1 Z.6 F720
;AFTER_LAYER_CHANGE
;0.4
; printing object Back_Right_Bracket_rev0 id:0 copy 0
G1 X125.56 Y89.158 F10800
G1 Z.4 F720
G1 E.8 F1500
M204 S800
;TYPE:Perimeter
;WIDTH:0.833723
G1 F1804
G1 X125.511 Y89.203 E.00437
;WIDTH:0.787792
G1 X125.415 Y89.291 E.00807
;WIDTH:0.741861
G1 X125.319 Y89.378 E.00753
;WIDTH:0.69593
G1 X125.224 Y89.465 E.00699
;WIDTH:0.649999
G1 X125.116 Y89.683 E.01228
G1 X125.068 Y89.974 E.01489
G1 X125.068 Y119.41 E1.48589
G1 X125.082 Y119.568 E.00801
G1 X125.294 Y120.011 E.02479
;WIDTH:0.695983
G1 X125.408 Y120.086 E.00741
;WIDTH:0.741966
G1 X125.522 Y120.16 E.0079
;WIDTH:0.787949
G1 X125.636 Y120.235 E.00845
;WIDTH:0.833933
G1 X125.75 Y120.31 E.00898
;WIDTH:0.879916
G1 X125.864 Y120.384 E.00946
;WIDTH:0.925899
G1 X125.979 Y120.459 E.01008
G1 X133.93 Y120.459 E.58376
G1 X133.93 Y120.9 E.03238
G1 X133.93 Y121.342 E.03245
G1 X125.979 Y121.342 E.58376
G1 X125.866 Y121.365 E.00847
;WIDTH:0.879916
G1 X125.754 Y121.388 E.00796
;WIDTH:0.833933
G1 X125.641 Y121.411 E.00758
;WIDTH:0.787949
G1 X125.529 Y121.434 E.00708
;WIDTH:0.741966
G1 X125.416 Y121.457 E.0067
;WIDTH:0.695983
G1 X125.304 Y121.48 E.00621
;WIDTH:0.649999
G1 X123.745 Y121.48 E.0787
G1 X123.745 Y89.974 E1.59039
G1 X123.697 Y89.683 E.01489
M73 Q5 S7
G1 X123.589 Y89.465 E.01228
G1 X123.286 Y89.184 E.02086
;WIDTH:0.694063
G1 X123.211 Y89.142 E.00465
;WIDTH:0.738127
G1 X123.135 Y89.1 E.00502
;WIDTH:0.78219
G1 X123.06 Y89.058 E.00528
;WIDTH:0.826254
G1 X122.985 Y89.016 E.0056
;WIDTH:0.870318
G1 X122.909 Y88.974 E.00597
;WIDTH:0.914381
G1 X122.834 Y88.932 E.00623
G1 X116.064 Y88.932 E.49057
G1 X116.064 Y88.06 E.06319
G1 X122.834 Y88.06 E.49057
G1 X122.965 Y88.038 E.00963
;WIDTH:0.870318
G1 X123.096 Y88.016 E.00914
;WIDTH:0.826254
G1 X123.227 Y87.994 E.00865
;WIDTH:0.78219
G1 X123.358 Y87.972 E.00817
;WIDTH:0.738127
G1 X123.489 Y87.95 E.00768
;WIDTH:0.694063
G1 X123.62 Y87.928 E.00719
;WIDTH:0.649999
G1 X124.406 Y87.928 E.03968
;WIDTH:0.67898
G1 X125.192 Y87.942 E.04158
;WIDTH:0.728301
G1 X125.298 Y87.967 E.00621
;WIDTH:0.777622
G1 X125.404 Y87.992 E.00665
;WIDTH:0.826943
G1 X125.51 Y88.016 E.00709
;WIDTH:0.876264
G1 X125.615 Y88.041 E.00748
;WIDTH:0.925584
M73 Q6 S7
G1 X125.721 Y88.066 E.00799
G1 X125.979 Y88.06 E.01894
;WIDTH:0.914381
G1 X133.936 Y88.06 E.57658
G1 X133.936 Y88.932 E.06319
M73 P6 R7
G1 X125.979 Y88.932 E.57658
;WIDTH:0.925584
G1 X125.797 Y88.942 E.01338
G1 X125.702 Y89.029 E.00945
;WIDTH:0.879654
G1 X125.627 Y89.097 E.00704
M204 S1000
G1 X125.979 Y89.671 F10800
M204 S800
;TYPE:External perimeter
;WIDTH:0.649999
G1 F1804
G1 X125.926 Y89.675 E.00268
G1 X125.727 Y89.805 E.012
G1 X125.675 Y89.974 E.00893
G1 X125.675 Y119.41 E1.48589
G1 X125.75 Y119.611 E.01083
G1 X125.848 Y119.684 E.00617
G1 X125.979 Y119.714 E.00678
G1 X134.675 Y119.714 E.43896
G1 X134.675 Y122.087 E.11979
G1 X123.18 Y122.087 E.58025
G1 X123.138 Y122.018 E.00408
G1 X123.138 Y89.974 E1.61754
G1 X123.122 Y89.877 E.00496
G1 X122.985 Y89.711 E.01086
G1 X122.834 Y89.671 E.00789
G1 X115.325 Y89.671 E.37905
G1 X115.325 Y87.321 E.11863
G1 X134.675 Y87.321 E.97677
G1 X134.675 Y89.671 E.11863
G1 X126.069 Y89.671 E.43442
M204 S1000
G1 X125.946 Y89.63 F10800
;WIPE_START
G1 F8640
G1 X125.926 Y89.675 E-.03303
G1 X125.727 Y89.805 E-.05489
M73 P7 R7
G1 X125.675 Y89.974 E-.04083
G1 X125.675 Y92.881 E-.67125
;WIPE_END
G1 Z.8 F720
M73 Q7 S7
G1 X124.401 Y88.527 F10800
G1 Z.4 F720
G1 E.8 F1500
;TYPE:Solid infill
;WIDTH:0.816973
G1 F1804
G1 X123.669 Y88.527 E.04711
G1 X123.482 Y88.59 E.0127
G1 X124.03 Y89.067 E.04676
;WIDTH:0.842287
G1 X124.167 Y89.307 E.01837
;WIDTH:0.8676
G1 X124.304 Y89.548 E.01901
;WIDTH:0.910444
G1 X124.355 Y89.728 E.0135
;WIDTH:0.953288
G1 X124.406 Y89.908 E.01416
G1 X124.459 Y89.752 E.01247
;WIDTH:0.911973
G1 X124.511 Y89.596 E.01188
;WIDTH:0.870657
G1 X124.563 Y89.44 E.01132
;WIDTH:0.829341
G1 X124.767 Y89.082 E.02694
;WIDTH:0.816973
G1 X125.223 Y88.601 E.04266
G1 X125.107 Y88.553 E.00808
G1 X124.704 Y88.539 E.02595
;WIPE_START
G1 F8640
G1 X125.107 Y88.553 E-.09311
G1 X125.223 Y88.601 E-.02899
G1 X124.767 Y89.082 E-.15304
G1 X124.563 Y89.44 E-.09514
G1 X124.511 Y89.596 E-.03797
G1 X124.459 Y89.752 E-.03797
G1 X124.406 Y89.908 E-.03804
G1 X124.355 Y89.728 E-.0432
G1 X124.304 Y89.548 E-.0432
G1 X124.167 Y89.307 E-.06401
G1 X124.03 Y89.067 E-.06381
G1 X123.698 Y88.778 E-.10152
;WIPE_END
G1 Z.8 F720
G1 X124.406 Y89.908 F10800
G1 Z.4 F720
G1 E.8 F1500
;WIDTH:0.953288
G1 F1804
G1 X124.406 Y119.406 E2.23292
;WIDTH:0.964688
G1 X124.418 Y119.675 E.02064
G1 X124.501 Y119.802 E.01163
;WIDTH:0.915605
G1 X124.584 Y119.929 E.01101
;WIDTH:0.866522
G1 X124.672 Y120.052 E.01036
;WIDTH:0.828975
G1 X124.76 Y120.175 E.00989
;WIDTH:0.791429
G1 X124.848 Y120.298 E.00941
;WIDTH:0.753883
G1 X124.936 Y120.421 E.00894
;WIDTH:0.716336
G1 X125.486 Y120.836 E.03858
G1 X125.256 Y120.931 E.01393
G1 X124.294 Y120.931 E.05387
G1 X124.294 Y120.421 E.02856
;WIDTH:0.766007
G1 X124.319 Y120.272 E.00908
;WIDTH:0.815677
G1 X124.343 Y120.123 E.0097
;WIDTH:0.865348
G1 X124.368 Y119.974 E.01033
;WIDTH:0.915018
G1 X124.393 Y119.824 E.01103
;WIDTH:0.964688
G1 X124.418 Y119.675 E.01158
; stop printing object Back_Right_Bracket_rev0 id:0 copy 0
M106 S170.85
;LAYER_CHANGE
;Z:0.6
;HEIGHT:0.2
;BEFORE_LAYER_CHANGE
G92 E0.0
;0.6


;WIPE_START
G1 F8640
G1 X124.393 Y119.824 E-.03489
G1 X124.368 Y119.974 E-.03511
G1 X124.343 Y120.123 E-.03489
G1 X124.319 Y120.272 E-.03485
G1 X124.294 Y120.421 E-.03489
G1 X124.294 Y120.931 E-.11776
G1 X125.256 Y120.931 E-.22213
G1 X125.486 Y120.836 E-.05746
G1 X124.936 Y120.421 E-.15909
G1 X124.848 Y120.298 E-.03492
G1 X124.762 Y120.178 E-.03401
;WIPE_END
G1 Z.8 F720
;AFTER_LAYER_CHANGE
;0.6
; printing object Back_Right_Bracket_rev0 id:0 copy 0
G1 X125.605 Y89.12 F10800
G1 Z.6 F720
G1 E.8 F1500
M204 S800
;TYPE:Perimeter
;WIDTH:0.879654
G1 F1991
G1 X125.601 Y89.125 E.00045
;WIDTH:0.833723
G1 X125.502 Y89.216 E.00884
;WIDTH:0.787792
G1 X125.404 Y89.307 E.00828
;WIDTH:0.741861
G1 X125.306 Y89.399 E.00781
;WIDTH:0.69593
G1 X125.207 Y89.49 E.0073
;WIDTH:0.649999
G1 X125.11 Y89.702 E.01177
G1 X125.068 Y89.974 E.01389
G1 X125.068 Y119.41 E1.48589
G1 X125.082 Y119.568 E.00801
G1 X125.27 Y119.983 E.023
G1 X125.567 Y120.223 E.01928
;WIDTH:0.697263
G1 X125.636 Y120.263 E.00434
;WIDTH:0.744526
G1 X125.704 Y120.303 E.0046
;WIDTH:0.791789
G1 X125.773 Y120.343 E.00497
;WIDTH:0.839052
G1 X125.841 Y120.383 E.00522
;WIDTH:0.886315
G1 X125.91 Y120.423 E.00559
;WIDTH:0.933578
G1 X125.979 Y120.463 E.00591
G1 X133.926 Y120.463 E.58854
G1 X133.926 Y120.908 E.03296
G1 X133.926 Y121.353 E.03296
G1 X125.979 Y121.353 E.58854
G1 X125.859 Y121.377 E.00906
;WIDTH:0.886315
G1 X125.74 Y121.401 E.00851
;WIDTH:0.839052
G1 X125.621 Y121.424 E.00802
;WIDTH:0.791789
G1 X125.502 Y121.448 E.00756
;WIDTH:0.744526
G1 X125.383 Y121.472 E.00708
;WIDTH:0.697263
G1 X125.263 Y121.495 E.00665
;WIDTH:0.649999
G1 X123.62 Y121.495 E.08294
G1 X123.62 Y89.974 E1.59114
G1 X123.578 Y89.702 E.01389
M73 P8 R7
M73 Q8 S7
G1 X123.48 Y89.49 E.01179
G1 X123.177 Y89.193 E.02142
;WIDTH:0.694063
G1 X123.099 Y89.149 E.00485
;WIDTH:0.738127
G1 X123.021 Y89.106 E.00515
;WIDTH:0.78219
G1 X122.943 Y89.062 E.0055
;WIDTH:0.826254
G1 X122.865 Y89.019 E.0058
;WIDTH:0.870318
G1 X122.787 Y88.975 E.00616
;WIDTH:0.914381
G1 X122.709 Y88.932 E.00645
G1 X116.064 Y88.932 E.48151
G1 X116.064 Y88.06 E.06319
G1 X122.709 Y88.06 E.48151
G1 X122.845 Y88.038 E.00998
;WIDTH:0.870318
G1 X122.981 Y88.016 E.00948
;WIDTH:0.826254
G1 X123.118 Y87.994 E.00904
;WIDTH:0.78219
G1 X123.254 Y87.972 E.00847
;WIDTH:0.738127
G1 X123.39 Y87.95 E.00796
;WIDTH:0.694063
G1 X123.526 Y87.928 E.00746
;WIDTH:0.649999
G1 X124.344 Y87.928 E.04129
;WIDTH:0.664168
G1 X125.161 Y87.935 E.04221
;WIDTH:0.707738
G1 X125.254 Y87.957 E.00528
;WIDTH:0.751307
G1 X125.348 Y87.979 E.00569
;WIDTH:0.794876
G1 X125.441 Y88 E.00596
;WIDTH:0.838446
G1 X125.534 Y88.022 E.00632
;WIDTH:0.882015
G1 X125.628 Y88.044 E.00674
;WIDTH:0.925584
G1 X125.721 Y88.066 E.00701
G1 X125.979 Y88.06 E.01894
;WIDTH:0.914381
G1 X133.936 Y88.06 E.57658
G1 X133.936 Y88.932 E.06319
G1 X125.979 Y88.932 E.57658
;WIDTH:0.925584
G1 X125.797 Y88.942 E.01338
G1 X125.699 Y89.033 E.00982
;WIDTH:0.879654
G1 X125.671 Y89.059 E.00266
M204 S1000
G1 X125.979 Y89.671 F10800
M204 S800
;TYPE:External perimeter
;WIDTH:0.649999
G1 F1991
G1 X125.823 Y89.714 E.00817
G1 X125.721 Y89.813 E.00718
G1 X125.675 Y89.974 E.00845
G1 X125.675 Y119.41 E1.48589
G1 X125.742 Y119.601 E.01022
G1 X125.841 Y119.681 E.00643
G1 X125.979 Y119.714 E.00716
G1 X134.675 Y119.714 E.43896
G1 X134.675 Y122.102 E.12054
G1 X123.18 Y122.102 E.58025
G1 X123.013 Y121.833 E.01598
G1 X123.013 Y89.974 E1.6082
G1 X122.999 Y89.883 E.00465
G1 X122.865 Y89.714 E.01089
G1 X122.709 Y89.671 E.00817
G1 X115.325 Y89.671 E.37274
G1 X115.325 Y87.321 E.11863
G1 X134.675 Y87.321 E.97677
G1 X134.675 Y89.671 E.11863
M73 P9 R7
M73 Q9 S7
G1 X126.069 Y89.671 E.43442
M204 S1000
G1 X125.863 Y89.557 F10800
;WIPE_START
G1 F8640
G1 X125.823 Y89.714 E-.05766
G1 X125.721 Y89.813 E-.03282
G1 X125.675 Y89.974 E-.03866
G1 X125.675 Y92.879 E-.67086
;WIPE_END
G1 Z1 F720
G1 X124.088 Y89.981 F10800
G1 Z.6 F720
G1 E.8 F1500
;TYPE:Solid infill
;WIDTH:0.554585
G1 F1991
G1 X124.088 Y119.406 E1.25189
;WIDTH:0.593633
G1 X124.107 Y119.653 E.01134
;WIDTH:0.632681
G1 X124.127 Y119.899 E.0121
;WIDTH:0.671729
G1 X124.147 Y120.146 E.01296
;WIDTH:0.710777
G1 X124.166 Y120.392 E.0137
;WIDTH:0.760168
G1 X124.191 Y120.924 E.03176
G1 X125.212 Y120.924 E.06089
G1 X125.445 Y120.832 E.01494
G1 X124.888 Y120.399 E.04208
G1 X124.804 Y120.254 E.00999
;WIDTH:0.710777
G1 X124.744 Y120.072 E.01064
;WIDTH:0.66961
G1 X124.684 Y119.891 E.00994
;WIDTH:0.628443
G1 X124.624 Y119.709 E.00933
;WIDTH:0.587276
G1 X124.6 Y119.406 E.01376
;WIDTH:0.554585
G1 X124.6 Y89.981 E1.25189
;WIDTH:0.591255
G1 X124.608 Y89.823 E.00721
;WIDTH:0.627927
G1 X124.617 Y89.665 E.0077
;WIDTH:0.664599
G1 X124.626 Y89.507 E.00818
;WIDTH:0.710598
G1 X124.653 Y89.406 E.0058
;WIDTH:0.756596
G1 X124.68 Y89.306 E.00615
;WIDTH:0.802595
G1 X124.706 Y89.205 E.00659
;WIDTH:0.848593
G1 X124.733 Y89.105 E.00694
G1 X125.199 Y88.608 E.04564
G1 X125.074 Y88.557 E.00904
G1 X123.574 Y88.544 E.10049
G1 X123.401 Y88.6 E.01218
G1 X123.943 Y89.094 E.04913
G1 X123.973 Y89.159 E.0048
;WIDTH:0.821462
G1 X124.003 Y89.225 E.00469
;WIDTH:0.79433
G1 X124.021 Y89.376 E.0095
;WIDTH:0.74491
G1 X124.039 Y89.528 E.00893
;WIDTH:0.695489
G1 X124.057 Y89.68 E.00831
; stop printing object Back_Right_Bracket_rev0 id:0 copy 0
M106 S255
;LAYER_CHANGE
;Z:0.8
;HEIGHT:0.2
;BEFORE_LAYER_CHANGE
G92 E0.0
;0.8


;WIPE_START
G1 F8640
G1 X124.039 Y89.528 E-.03534
G1 X124.021 Y89.376 E-.03534
G1 X124.003 Y89.225 E-.03511
G1 X123.973 Y89.159 E-.01674
G1 X123.943 Y89.094 E-.01653
G1 X123.401 Y88.6 E-.16933
G1 X123.574 Y88.544 E-.04199
G1 X125.074 Y88.557 E-.34637
G1 X125.199 Y88.608 E-.03117
G1 X124.985 Y88.836 E-.07208
