; generated by PrusaSlicer 2.6.0+win64 on 2023-08-01 at 10:51:01 UTC


;
;
; 

; external perimeters extrusion width = 0.45mm
; perimeters extrusion width = 0.45mm
; infill extrusion width = 0.45mm
; solid infill extrusion width = 0.45mm
; top infill extrusion width = 0.40mm
; first layer extrusion width = 0.42mm

M73 P0 R16
M73 Q0 S16
M201 X1000 Y1000 Z200 E5000 ; sets maximum accelerations, mm/sec^2
M203 X200 Y200 Z12 E120 ; sets maximum feedrates, mm / sec
M204 S1250 T1250 ; sets acceleration (S) and retract acceleration (R), mm/sec^2
M205 X8.00 Y8.00 Z0.40 E4.50 ; sets the jerk limits, mm/sec
M205 S0 T0 ; sets the minimum extruding and travel feed rate, mm/sec
;TYPE:Custom
M862.3 P "MK3S" ; printer model check
M862.1 P0.4 ; nozzle diameter check
M115 U3.12.2 ; tell printer latest fw version
G90 ; use absolute coordinates
M83 ; extruder relative mode
M104 S230 ; set extruder temp
M140 S85 ; set bed temp
M190 S85 ; wait for bed temp
M109 S230 ; wait for extruder temp
G28 W ; home all without mesh bed level
G80 ; mesh bed leveling

G1 Z0.2 F720
G1 Y-3 F1000 ; go outside print area
G92 E0
G1 X60 E9 F1000 ; intro line
G1 X100 E12.5 F1000 ; intro line

G92 E0
M221 S95

; Don't change E values below. Excessive value can damage the printer.

M907 E538 ; set extruder motor current
G21 ; set units to millimeters
G90 ; use absolute coordinates
M83 ; use relative distances for extrusion
M900 K0.08 ; Filament gcode LA 1.5
M900 K45 ; Filament gcode LA 1.0
M107
;LAYER_CHANGE
;Z:0.2
;HEIGHT:0.2
;BEFORE_LAYER_CHANGE
G92 E0.0
;0.2


G1 E-1 F2100
G1 Z.2 F720
;AFTER_LAYER_CHANGE
;0.2
G1 Z.4
G1 X106.312 Y93.429 F10800
G1 Z.2 F720
G1 E1 F2100
M204 S800
;TYPE:Skirt/Brim
;WIDTH:0.42
G1 F1200
G1 X107.29 Y92.347 E.04573
G1 X108.085 Y91.669 E.03276
G1 X109.307 Y90.873 E.04573
G1 X110.635 Y90.269 E.04574
G1 X112.445 Y89.797 E.05865
G1 X113.772 Y89.673 E.04179
G1 X136.516 Y89.688 E.71312
G1 X137.962 Y89.871 E.0457
G1 X139.365 Y90.269 E.04573
G1 X140.326 Y90.681 E.03278
G1 X141.536 Y91.397 E.04408
G1 X142.71 Y92.347 E.04735
G1 X143.688 Y93.429 E.04573
G1 X144.687 Y95.011 E.05866
G1 X145.106 Y95.968 E.03276
G1 X145.514 Y97.368 E.04572
G1 X145.707 Y98.813 E.04571
G1 X145.635 Y100.683 E.05868
G1 X145.438 Y101.709 E.03276
G1 X144.982 Y103.094 E.04572
G1 X139.16 Y116.327 E.45329
M73 Q1 S16
G1 X138.353 Y117.684 E.0495
M73 P1 R16
G1 X137.581 Y118.534 E.036
G1 X136.272 Y119.483 E.05069
G1 X135.664 Y119.781 E.02123
G1 X134.574 Y120.141 E.03599
G1 X133.13 Y120.327 E.04565
G1 X116.562 Y120.31 E.51948
G1 X115.889 Y120.234 E.02124
G1 X114.776 Y119.951 E.03601
G1 X113.735 Y119.486 E.03575
G1 X112.78 Y118.846 E.03605
G1 X111.655 Y117.694 E.05049
G1 X110.898 Y116.451 E.04563
G1 X105.095 Y103.287 E.45107
G1 X104.562 Y101.709 E.05222
G1 X104.365 Y100.683 E.03276
G1 X104.278 Y99.227 E.04573
G1 X104.486 Y97.368 E.05865
G1 X104.757 Y96.359 E.03276
G1 X105.313 Y95.011 E.04572
G1 X106.28 Y93.48 E.05678
M204 S1000
G1 X106.596 Y93.679 F10800
M204 S800
G1 F1200
G1 X107.535 Y92.634 E.04405
G1 X108.33 Y91.956 E.03276
G1 X109.506 Y91.193 E.04395
G1 X110.783 Y90.616 E.04394
G1 X112.484 Y90.172 E.05512
G1 X113.772 Y90.05 E.04057
G1 X136.476 Y90.063 E.71187
G1 X137.867 Y90.236 E.04395
G1 X139.217 Y90.616 E.04397
G1 X140.177 Y91.028 E.03276
G1 X141.381 Y91.745 E.04394
G1 X142.465 Y92.634 E.04396
G1 X143.403 Y93.676 E.04396
G1 X144.341 Y95.162 E.0551
G1 X144.76 Y96.119 E.03276
G1 X145.15 Y97.466 E.04397
G1 X145.333 Y98.855 E.04393
G1 X145.265 Y100.612 E.05513
G1 X144.975 Y101.983 E.04394
G1 X144.56 Y103.135 E.03839
G1 X138.815 Y116.175 E.44678
G1 X138.424 Y116.912 E.02616
G1 X137.784 Y117.786 E.03397
G1 X137.003 Y118.537 E.03397
G1 X136.455 Y118.934 E.02122
G1 X135.498 Y119.442 E.03397
G1 X134.468 Y119.779 E.03398
G1 X133.13 Y119.95 E.04229
G1 X116.604 Y119.935 E.51816
G1 X115.931 Y119.859 E.02124
G1 X114.882 Y119.589 E.03396
G1 X113.901 Y119.148 E.03372
G1 X113.001 Y118.54 E.03405
G1 X111.966 Y117.48 E.04645
G1 X111.235 Y116.282 E.044
G1 X105.44 Y103.135 E.45048
G1 X104.932 Y101.638 E.04957
G1 X104.735 Y100.612 E.03276
G1 X104.654 Y99.213 E.04394
G1 X104.85 Y97.466 E.05512
G1 X105.121 Y96.456 E.03279
G1 X105.659 Y95.162 E.04394
G1 X106.564 Y93.729 E.05314
M204 S1000
; printing object Bottom_Plate_rev0 id:0 copy 0
;WIPE_START
G1 F8640
G1 X107.535 Y92.634 E-.33793
G1 X108.33 Y91.956 E-.24126
G1 X109.506 Y91.193 E-.32369
G1 X109.889 Y91.02 E-.09712
;WIPE_END
G1 Z.4 F720
G1 X129.571 Y111.461 F10800
G1 Z.2 F720
M73 Q2 S16
G1 E1 F2100
M204 S800
;TYPE:Perimeter
;WIDTH:0.419999
G1 F1200
G1 X129.444 Y111.606 E.00604
G1 X129.388 Y111.853 E.00794
G1 X129.394 Y113.684 E.05741
G1 X129.424 Y114.296 E.01921
M73 P2 R16
G1 X128.902 Y113.733 E.02407
G1 X128.098 Y113.195 E.03033
G1 X127.041 Y112.725 E.03627
G1 X126.104 Y112.485 E.03033
G1 X124.95 Y112.389 E.03631
G1 X123.87 Y112.492 E.03402
G1 X122.87 Y112.756 E.03243
G1 X121.902 Y113.195 E.03333
G1 X120.988 Y113.829 E.03488
G1 X120.576 Y114.296 E.01953
G1 X120.606 Y113.862 E.01364
G1 X120.611 Y112.251 E.05051
G1 X120.59 Y111.694 E.01748
G1 X120.465 Y111.471 E.00802
G1 X120.329 Y111.361 E.00548
G1 X117.217 Y109.566 E.11264
G1 X116.929 Y109.514 E.00918
G1 X116.692 Y109.588 E.00778
G1 X113.621 Y111.361 E.11118
G1 X113.338 Y111.852 E.01777
G1 X113.341 Y113.24 E.04352
G1 X108.347 Y101.886 E.38891
G1 X108.029 Y100.985 E.02996
G1 X107.854 Y100.075 E.02906
G1 X107.818 Y99.149 E.02906
G1 X107.922 Y98.229 E.02903
G1 X108.162 Y97.334 E.02905
G1 X108.533 Y96.486 E.02902
G1 X109.028 Y95.702 E.02907
G1 X109.635 Y95.002 E.02905
G1 X110.339 Y94.401 E.02902
G1 X111.096 Y93.931 E.02794
G1 X111.979 Y93.546 E.0302
G1 X112.873 Y93.313 E.02897
G1 X113.795 Y93.216 E.02907
G1 X114.72 Y93.259 E.02903
G1 X115.629 Y93.44 E.02906
G1 X116.5 Y93.755 E.02904
G1 X117.314 Y94.197 E.02904
G1 X118.052 Y94.756 E.02903
G1 X118.699 Y95.419 E.02905
G1 X119.239 Y96.173 E.02908
G1 X120.135 Y97.897 E.06092
G1 X120.727 Y98.665 E.0304
G1 X121.438 Y99.324 E.0304
G1 X122.25 Y99.855 E.03042
G1 X123.139 Y100.243 E.03041
G1 X123.987 Y100.461 E.02745
G1 X125.047 Y100.55 E.03335
G1 X126.013 Y100.461 E.03042
G1 X126.95 Y100.212 E.0304
G1 X127.833 Y99.809 E.03043
G1 X128.636 Y99.265 E.03041
G1 X129.337 Y98.595 E.0304
G1 X129.917 Y97.814 E.0305
G1 X130.761 Y96.173 E.05786
G1 X131.301 Y95.419 E.02908
G1 X131.948 Y94.756 E.02905
G1 X132.686 Y94.197 E.02903
G1 X133.5 Y93.755 E.02904
G1 X134.371 Y93.44 E.02904
G1 X135.28 Y93.259 E.02906
G1 X136.205 Y93.216 E.02903
G1 X137.091 Y93.309 E.02793
G1 X138.024 Y93.547 E.03019
G1 X138.874 Y93.912 E.029
G1 X139.661 Y94.401 E.02905
G1 X140.338 Y94.979 E.02791
G1 X140.973 Y95.704 E.03022
G1 X141.467 Y96.486 E.029
G1 X141.838 Y97.334 E.02902
G1 X142.078 Y98.229 E.02905
G1 X142.182 Y99.149 E.02903
G1 X142.146 Y100.075 E.02906
G1 X141.971 Y100.985 E.02906
G1 X141.653 Y101.886 E.02996
G1 X136.659 Y113.24 E.38891
G1 X136.662 Y111.852 E.04352
G1 X136.379 Y111.361 E.01777
G1 X133.234 Y109.552 E.11376
G1 X132.997 Y109.513 E.00753
G1 X132.742 Y109.588 E.00833
G1 X129.646 Y111.376 E.1121
G1 X129.611 Y111.416 E.00167
M204 S1000
G1 X129.839 Y111.701 F10800
M204 S800
;TYPE:External perimeter
G1 F1200
G1 X129.765 Y111.852 E.00527
G1 X129.772 Y113.873 E.06337
G1 X129.865 Y114.702 E.02616
G1 X129.989 Y115.311 E.01949
;WIDTH:0.381172
G1 X130.063 Y115.414 E.00357
;WIDTH:0.397919
G1 X130.291 Y115.594 E.00857
;WIDTH:0.431879
G1 X130.519 Y115.774 E.0094
;WIDTH:0.442517
G1 X131.02 Y116.132 E.02046
G1 X131.633 Y116.506 E.02386
;WIDTH:0.442314
G1 X132.622 Y116.959 E.03613
;WIDTH:0.464392
G1 X132.698 Y117.015 E.00331
;WIDTH:0.509675
G1 X132.774 Y117.071 E.00366
;WIDTH:0.554958
G1 X132.85 Y117.127 E.00402
;WIDTH:0.600241
G1 X132.926 Y117.183 E.00437
;WIDTH:0.645524
G1 X133.002 Y117.239 E.00473
G1 X132.897 Y117.253 E.00531
;WIDTH:0.600241
G1 X132.792 Y117.266 E.0049
;WIDTH:0.554958
G1 X132.687 Y117.279 E.0045
;WIDTH:0.509675
G1 X132.582 Y117.292 E.00411
;WIDTH:0.464392
G1 X132.477 Y117.305 E.00371
;WIDTH:0.442314
G1 X131.912 Y117.081 E.02018
G1 X131.338 Y116.796 E.02128
;WIDTH:0.442517
G1 X130.786 Y116.455 E.02156
G1 X130.045 Y115.868 E.03141
;WIDTH:0.4107
G1 X129.698 Y115.437 E.01692
;WIDTH:0.419999
G1 X129.398 Y114.848 E.02073
G1 X128.693 Y114.046 E.03348
G1 X127.889 Y113.508 E.03033
G1 X126.947 Y113.09 E.03231
G1 X126.01 Y112.85 E.03033
G1 X124.983 Y112.764 E.03231
G1 X123.963 Y112.857 E.03211
G1 X123.023 Y113.1 E.03044
G1 X122.111 Y113.508 E.03133
G1 X121.271 Y114.078 E.03183
G1 X120.632 Y114.803 E.0303
G1 X120.419 Y115.253 E.01561
;WIDTH:0.410076
G1 X120.15 Y115.65 E.01464
;WIDTH:0.401637
G1 X119.929 Y115.868 E.00926
;WIDTH:0.437853
G1 X119.707 Y116.087 E.01024
G1 X118.976 Y116.606 E.02944
;WIDTH:0.436008
G1 X118.522 Y116.868 E.01713
;WIDTH:0.442314
G1 X118.069 Y117.089 E.01674
G1 X117.523 Y117.305 E.0195
;WIDTH:0.465306
G1 X117.429 Y117.291 E.00334
;WIDTH:0.511503
G1 X117.334 Y117.276 E.00375
;WIDTH:0.5577
G1 X117.239 Y117.262 E.00411
;WIDTH:0.603897
G1 X117.144 Y117.247 E.00449
;WIDTH:0.650094
G1 X117.05 Y117.233 E.0048
G1 X117.115 Y117.178 E.0043
;WIDTH:0.603897
G1 X117.181 Y117.123 E.00401
;WIDTH:0.5577
G1 X117.247 Y117.068 E.00368
;WIDTH:0.511503
G1 X117.312 Y117.013 E.00332
;WIDTH:0.465306
G1 X117.378 Y116.959 E.003
;WIDTH:0.442314
G1 X118.459 Y116.455 E.03961
;WIDTH:0.444124
G1 X118.976 Y116.131 E.02035
G1 X119.554 Y115.706 E.02393
;WIDTH:0.431079
G1 X119.753 Y115.552 E.00812
;WIDTH:0.39493
G1 X119.952 Y115.399 E.00735
;WIDTH:0.384429
G1 X120.003 Y115.269 E.00397
;WIDTH:0.410076
G1 X120.055 Y115.139 E.00427
;WIDTH:0.419999
G1 X120.192 Y114.364 E.02468
G1 X120.229 Y113.861 E.01581
G1 X120.228 Y111.799 E.06465
G1 X120.141 Y111.688 E.00442
G1 X117.041 Y109.901 E.11219
G1 X116.881 Y109.914 E.00503
G1 X113.809 Y111.688 E.11123
G1 X113.715 Y111.851 E.0059
G1 X113.719 Y113.405 E.04872
;WIDTH:0.449658
G1 X113.784 Y114.358 E.03231
G1 X113.873 Y114.848 E.01684
;WIDTH:0.400228
G1 X113.961 Y115.339 E.01482
;WIDTH:0.386479
G1 X114.15 Y115.507 E.00722
;WIDTH:0.422159
G1 X114.338 Y115.676 E.00797
;WIDTH:0.442977
G1 X114.815 Y116.023 E.01962
G1 X115.321 Y116.357 E.02017
;WIDTH:0.445009
G1 X115.861 Y116.636 E.02032
G1 X116.464 Y116.902 E.02204
;WIDTH:0.476156
G1 X116.571 Y116.97 E.00457
;WIDTH:0.518498
G1 X116.678 Y117.037 E.00499
;WIDTH:0.56084
G1 X116.784 Y117.104 E.0054
;WIDTH:0.603182
G1 X116.891 Y117.172 E.00591
;WIDTH:0.645524
G1 X116.998 Y117.239 E.00633
G1 X116.91 Y117.26 E.00453
;WIDTH:0.601336
G1 X116.822 Y117.281 E.0042
;WIDTH:0.557148
G1 X116.633 Y117.266 E.00811
;WIDTH:0.516037
G1 X116.443 Y117.251 E.0075
;WIDTH:0.474925
G1 X116.254 Y117.236 E.00681
;WIDTH:0.445009
G1 X115.684 Y116.997 E.02066
G1 X115.114 Y116.695 E.02157
;WIDTH:0.442977
G1 X114.575 Y116.342 E.02143
G1 X114.076 Y115.944 E.02123
;WIDTH:0.422159
G1 X113.908 Y115.748 E.00814
;WIDTH:0.383993
G1 X113.739 Y115.551 E.00736
;WIDTH:0.373764
G1 X113.642 Y115.339 E.00641
;WIDTH:0.401701
G1 X113.544 Y115.127 E.00697
;WIDTH:0.429419
G1 X113.306 Y114.179 E.03141
G1 X112.942 Y113.253 E.03198
;WIDTH:0.419999
G1 X107.996 Y102.025 E.38469
G1 X107.664 Y101.084 E.03129
G1 X107.479 Y100.118 E.03084
G1 X107.441 Y99.135 E.03084
G1 X107.55 Y98.158 E.03082
G1 X107.805 Y97.209 E.03081
G1 X108.199 Y96.308 E.03083
G1 X108.724 Y95.477 E.03082
G1 X109.368 Y94.734 E.03083
G1 X110.116 Y94.096 E.03083
G1 X110.92 Y93.596 E.02969
G1 X111.855 Y93.189 E.03197
G1 X112.806 Y92.941 E.03082
G1 X113.784 Y92.838 E.03083
G1 X114.766 Y92.883 E.03082
G1 X115.73 Y93.075 E.03082
G1 X116.655 Y93.41 E.03085
M73 Q3 S16
G1 X117.519 Y93.879 E.03082
G1 X118.303 Y94.472 E.03082
G1 X118.989 Y95.177 E.03084
G1 X119.562 Y95.976 E.03083
G1 X120.436 Y97.669 E.05974
M73 P3 R16
G1 X120.985 Y98.391 E.02844
G1 X121.647 Y99.01 E.02842
G1 X122.404 Y99.511 E.02846
G1 X123.233 Y99.878 E.02843
G1 X124.081 Y100.096 E.02745
G1 X125.016 Y100.174 E.02942
G1 X125.919 Y100.096 E.02842
G1 X126.797 Y99.867 E.02845
G1 X127.624 Y99.495 E.02843
G1 X128.377 Y98.991 E.02841
G1 X129.036 Y98.367 E.02846
G1 X129.581 Y97.642 E.02844
G1 X130.438 Y95.976 E.05874
G1 X131.011 Y95.177 E.03083
G1 X131.697 Y94.472 E.03084
G1 X132.481 Y93.879 E.03082
G1 X133.345 Y93.41 E.03082
G1 X134.27 Y93.075 E.03085
G1 X135.234 Y92.883 E.03082
G1 X136.216 Y92.838 E.03082
G1 X137.158 Y92.937 E.0297
G1 X138.146 Y93.189 E.03197
G1 X139.049 Y93.577 E.03082
G1 X139.884 Y94.096 E.03083
G1 X140.604 Y94.71 E.02967
G1 X141.276 Y95.477 E.03197
G1 X141.801 Y96.308 E.03082
M73 P3 R15
G1 X142.195 Y97.209 E.03083
G1 X142.45 Y98.158 E.03081
G1 X142.559 Y99.135 E.03082
G1 X142.54 Y99.626 E.01541
G1 X142.521 Y100.118 E.01544
G1 X142.336 Y101.084 E.03084
G1 X142.004 Y102.025 E.03129
G1 X137.058 Y113.253 E.38469
G1 X136.94 Y113.557 E.01022
;WIDTH:0.449656
G1 X136.615 Y114.435 E.03166
G1 X136.456 Y115.127 E.02401
;WIDTH:0.4017
G1 X136.351 Y115.392 E.0085
;WIDTH:0.359336
G1 X136.229 Y115.593 E.00619
;WIDTH:0.38514
G1 X136.06 Y115.786 E.0073
;WIDTH:0.422159
G1 X135.89 Y115.979 E.00811
;WIDTH:0.443031
G1 X135.408 Y116.355 E.02034
G1 X134.871 Y116.704 E.02131
G1 X134.298 Y117.007 E.02156
G1 X133.709 Y117.25 E.0212
;WIDTH:0.472205
G1 X133.578 Y117.248 E.00468
;WIDTH:0.516677
G1 X133.447 Y117.246 E.00516
;WIDTH:0.561149
G1 X133.316 Y117.245 E.00565
;WIDTH:0.605621
G1 X133.186 Y117.243 E.00608
;WIDTH:0.650092
G1 X133.055 Y117.241 E.00661
G1 X133.098 Y117.214 E.00256
;WIDTH:0.620628
G1 X133.141 Y117.187 E.00244
;WIDTH:0.591164
G1 X133.254 Y117.112 E.00618
;WIDTH:0.550307
G1 X133.367 Y117.037 E.00572
;WIDTH:0.509449
G1 X133.48 Y116.961 E.00528
;WIDTH:0.468591
G1 X133.593 Y116.886 E.0048
;WIDTH:0.442977
G1 X134.138 Y116.64 E.01989
G1 X134.678 Y116.357 E.02028
G1 X135.185 Y116.023 E.0202
G1 X135.593 Y115.708 E.01715
;WIDTH:0.395549
G1 X136.001 Y115.392 E.01513
;WIDTH:0.37491
G1 X136.053 Y115.225 E.00483
;WIDTH:0.4017
G1 X136.104 Y115.059 E.00518
;WIDTH:0.429419
G1 X136.23 Y114.072 E.03198
G1 X136.281 Y113.39 E.02198
;WIDTH:0.419999
G1 X136.285 Y111.851 E.04825
G1 X136.191 Y111.688 E.0059
G1 X133.072 Y109.895 E.1128
G1 X132.931 Y109.914 E.00446
G1 X129.891 Y111.671 E.11009
M204 S1000
G1 X129.673 Y111.679 F10800
;WIPE_START
G1 F8640
G1 X129.765 Y111.852 E-.05092
G1 X129.772 Y113.873 E-.46666
G1 X129.865 Y114.702 E-.19262
G1 X129.989 Y115.311 E-.14351
G1 X130.063 Y115.414 E-.02928
G1 X130.291 Y115.594 E-.06707
G1 X130.461 Y115.728 E-.04994
;WIPE_END
G1 Z.4 F720
G1 X141.102 Y96.227 F10800
G1 Z.2 F720
G1 E1 F2100
M204 S800
;TYPE:Solid infill
;WIDTH:0.424556
G1 F1200
G1 X140.082 Y95.206 E.0458
G1 X139.46 Y94.676 E.02593
G1 X138.717 Y94.214 E.02776
G1 X138.424 Y94.088 E.01012
G1 X141.31 Y96.974 E.12952
G1 X141.517 Y97.447 E.01638
G1 X141.618 Y97.821 E.01229
G1 X137.58 Y93.784 E.18119
G1 X137.031 Y93.644 E.01798
G1 X136.885 Y93.629 E.00466
G1 X141.769 Y98.512 E.21916
G1 X141.837 Y99.12 E.01941
G1 X136.282 Y93.565 E.24929
G1 X135.754 Y93.577 E.01676
G1 X141.823 Y99.646 E.27236
G1 X141.808 Y100.036 E.01239
M73 Q3 S15
G1 X141.786 Y100.149 E.00365
G1 X135.248 Y93.611 E.29341
G1 X134.798 Y93.701 E.01456
G1 X141.699 Y100.602 E.3097
G1 X141.643 Y100.896 E.0095
G1 X141.593 Y101.036 E.00472
G1 X134.362 Y93.804 E.32453
G1 X133.965 Y93.947 E.01339
G1 X141.453 Y101.434 E.33602
G1 X141.307 Y101.829 E.01336
G1 X133.577 Y94.099 E.3469
G1 X133.228 Y94.289 E.01261
G1 X141.142 Y102.204 E.35518
G1 X140.977 Y102.578 E.01297
G1 X132.878 Y94.479 E.36346
G1 X132.57 Y94.711 E.01224
M73 P4 R15
M73 Q4 S15
G1 X140.812 Y102.953 E.36988
G1 X140.647 Y103.328 E.013
G1 X132.263 Y94.943 E.37628
G1 X131.984 Y95.205 E.01215
G1 X140.482 Y103.702 E.38135
G1 X140.317 Y104.077 E.013
G1 X131.718 Y95.478 E.3859
G1 X131.562 Y95.638 E.00709
G1 X131.469 Y95.768 E.00507
G1 X140.152 Y104.452 E.38969
G1 X139.987 Y104.826 E.01297
G1 X131.243 Y96.083 E.39239
G1 X131.024 Y96.403 E.0123
G1 X139.822 Y105.201 E.39483
G1 X139.657 Y105.576 E.013
G1 X130.84 Y96.759 E.39568
G1 X130.656 Y97.114 E.01269
G1 X139.492 Y105.95 E.39654
G1 X139.327 Y106.325 E.013
G1 X130.472 Y97.47 E.39739
G1 X130.288 Y97.826 E.01272
G1 X139.162 Y106.7 E.39824
G1 X138.997 Y107.074 E.01297
G1 X130.086 Y98.164 E.39988
G1 X129.853 Y98.47 E.0122
G1 X138.832 Y107.449 E.40295
G1 X138.667 Y107.824 E.013
