; generated by PrusaSlicer 2.6.1+win64 on 2023-09-08 at 13:21:44 UTC


;
;
; 

; external perimeters extrusion width = 0.68mm
; perimeters extrusion width = 0.68mm
; infill extrusion width = 0.68mm
; solid infill extrusion width = 0.68mm
; top infill extrusion width = 0.60mm
; support material extrusion width = 0.55mm
; first layer extrusion width = 0.65mm

; external perimeters extrusion width = 0.68mm
; perimeters extrusion width = 0.68mm
; infill extrusion width = 0.68mm
; solid infill extrusion width = 0.68mm
; top infill extrusion width = 0.60mm
; support material extrusion width = 0.55mm
; first layer extrusion width = 0.65mm

; external perimeters extrusion width = 0.68mm
; perimeters extrusion width = 0.68mm
; infill extrusion width = 0.68mm
; solid infill extrusion width = 0.68mm
; top infill extrusion width = 0.60mm
; support material extrusion width = 0.55mm
; first layer extrusion width = 0.65mm

M73 P0 R23
M73 Q0 S23
M201 X1000 Y1000 Z200 E5000 ; sets maximum accelerations, mm/sec^2
M203 X200 Y200 Z12 E120 ; sets maximum feedrates, mm / sec
M204 S1250 T1250 ; sets acceleration (S) and retract acceleration (R), mm/sec^2
M205 X8.00 Y8.00 Z0.40 E4.50 ; sets the jerk limits, mm/sec
M205 S0 T0 ; sets the minimum extruding and travel feed rate, mm/sec
;TYPE:Custom
M862.3 P "MK3S" ; printer model check
M862.1 P0.6 ; nozzle diameter check
M115 U3.12.2 ; tell printer latest fw version
G90 ; use absolute coordinates
M83 ; extruder relative mode
M104 S240 ; set extruder temp
M140 S85 ; set bed temp
M190 S85 ; wait for bed temp
M109 S240 ; wait for extruder temp
G28 W ; home all without mesh bed level
G80 ; mesh bed leveling

G1 Z0.2 F720
G1 Y-3 F1000 ; go outside print area
G92 E0
G1 X60 E9 F1000 ; intro line
G1 X100 E12.5 F1000 ; intro line

G92 E0
M221 S95
G21 ; set units to millimeters
G90 ; use absolute coordinates
M83 ; use relative distances for extrusion
M900 K0.04 ; Filament gcode LA 1.5
M900 K24 ; Filament gcode LA 1.0
M107
;LAYER_CHANGE
;Z:0.2
;HEIGHT:0.2
;BEFORE_LAYER_CHANGE
G92 E0.0
;0.2


G1 E-1 F2100
M73 P0 R22
G1 Z.2 F720
;AFTER_LAYER_CHANGE
;0.2
G1 Z.4
G1 X91.129 Y88.264 F10800
G1 Z.2 F720
G1 E1 F1500
M204 S800
;TYPE:Skirt/Brim
;WIDTH:0.65
G1 F1200
G1 X92.7 Y87.113 E.09831
G1 X98.441 Y85.65 E.29906
G1 X125.867 Y79.74 E1.41621
G1 X126.416 Y79.681 E.02787
G1 X140.355 Y79.681 E.70363
G1 X141.185 Y79.817 E.04246
G1 X155.254 Y84.54 E.74914
G1 X156.433 Y85.349 E.07218
G1 X157.031 Y87.011 E.08916
G1 X157.031 Y122.373 E1.78503
G1 X156.639 Y123.749 E.07222
G1 X155.349 Y124.811 E.08435
G1 X141.28 Y130.149 E.75959
G1 X140.355 Y130.319 E.04747
G1 X126.416 Y130.319 E.70363
G1 X125.882 Y130.263 E.0271
M73 P1 R22
M73 Q1 S23
G1 X97.015 Y124.228 E1.48868
G1 X95.749 Y123.563 E.07219
G1 X94.981 Y122.131 E.08203
G1 X90.777 Y98.394 E1.21686
G1 X90.737 Y89.64 E.4419
G1 X91.104 Y88.351 E.06765
M204 S1000
; printing object Back_Left_Bracket_rev1 id:1 copy 0
;WIPE_START
G1 F8640
G1 X92.7 Y87.113 E-.46639
G1 X94.939 Y86.542 E-.53361
;WIPE_END
G1 Z.4 F720
G1 X138.131 Y85.201 F10800
G1 Z.2 F720
G1 E1 F1500
M204 S800
;TYPE:Support material interface
;WIDTH:0.55
G1 F1200
G1 X137.917 Y85.201 E.00902
G1 X137.917 Y86.58 E.05814
G1 X138.268 Y86.23 E.0209
G1 X138.368 Y86.23 E.00422
G1 X138.368 Y85.201 E.04339
G1 X139.143 Y85.201 E.03268
G1 X139.143 Y86.23 E.04339
G1 X139.918 Y86.23 E.03268
G1 X139.918 Y85.201 E.04339
G1 X140.392 Y85.201 E.01999
G1 X140.392 Y86.23 E.04339
G1 X140.155 Y86.23 E.00999
M204 S1000
;WIPE_START
G1 F8640
G1 X140.392 Y86.23 E-.05472
G1 X140.392 Y85.201 E-.2376
G1 X139.918 Y85.201 E-.10945
G1 X139.918 Y86.23 E-.2376
G1 X139.143 Y86.23 E-.17895
G1 X139.143 Y85.443 E-.18168
;WIPE_END
G1 Z.4 F720
G1 X140.355 Y84.638 F10800
G1 Z.2 F720
G1 E1 F1500
M204 S800
;TYPE:Support material
;WIDTH:0.65
G1 F1200
G1 X137.355 Y84.638 E.15144
G1 X137.355 Y125.362 E2.0557
G1 X140.355 Y125.362 E.15144
M73 Q1 S22
G1 X140.355 Y127.711 E.11857
G1 X132.53 Y127.711 E.395
G1 X132.53 Y82.289 E2.29285
G1 X140.355 Y82.289 E.395
G1 X140.355 Y84.547 E.11398
M204 S1000
;WIPE_START
G1 F8640
G1 X140.355 Y82.289 E-.52138
G1 X138.282 Y82.289 E-.47862
;WIPE_END
G1 Z.4 F720
G1 X139.271 Y127.438 F10800
G1 Z.2 F720
G1 E1 F1500
M204 S800
G1 F1200
G1 X139.271 Y125.908 E.07723
G1 X138.597 Y125.908 E.03402
G1 X138.597 Y127.165 E.06345
G1 X137.922 Y127.165 E.03407
G1 X137.922 Y125.908 E.06345
G1 X137.248 Y125.908 E.03402
G1 X137.248 Y127.165 E.06345
G1 X136.573 Y127.165 E.03407
G1 X136.573 Y82.835 E2.23773
G1 X137.248 Y82.835 E.03407
M73 P2 R22
M73 Q2 S22
G1 X137.248 Y84.092 E.06345
G1 X137.922 Y84.092 E.03402
G1 X137.922 Y82.835 E.06345
G1 X138.597 Y82.835 E.03407
G1 X138.597 Y84.092 E.06345
G1 X139.271 Y84.092 E.03402
G1 X139.271 Y82.562 E.07723
M204 S1000
;WIPE_START
G1 F8640
G1 X139.271 Y84.092 E-.35328
G1 X138.597 Y84.092 E-.15563
G1 X138.597 Y82.835 E-.29024
G1 X137.922 Y82.835 E-.15586
G1 X137.922 Y83.03 E-.04499
;WIPE_END
G1 Z.4 F720
G1 X135.899 Y127.438 F10800
G1 Z.2 F720
G1 E1 F1500
M204 S800
G1 F1200
G1 X135.899 Y82.835 E2.25151
G1 X135.224 Y82.835 E.03407
G1 X135.224 Y127.165 E2.23773
G1 X134.55 Y127.165 E.03402
G1 X134.55 Y82.835 E2.23773
G1 X133.875 Y82.835 E.03407
G1 X133.875 Y127.165 E2.23773
G1 X133.201 Y127.165 E.03402
G1 X133.201 Y82.562 E2.25151
M204 S1000
;WIPE_START
G1 F8640
G1 X133.201 Y86.893 E-1
;WIPE_END
G1 Z.4 F720
G1 X138.554 Y122.614 F10800
G1 Z.2 F720
M73 Q3 S22
G1 E1 F1500
M204 S800
G1 F1200
G1 X138.501 Y122.614 E.00268
G1 X138.373 Y122.485 E.00917
G1 X138.373 Y86.921 E1.79523
G1 X138.501 Y86.792 E.00917
M73 P3 R22
G1 X138.554 Y86.792 E.00268
G1 X138.554 Y122.522 E1.80361
M204 S1000
G1 X138.171 Y123.079 F10800
M204 S800
;TYPE:Support material interface
;WIDTH:0.55
G1 F1200
G1 X137.917 Y122.826 E.01512
G1 X137.917 Y124.799 E.08319
G1 X138.368 Y124.799 E.01902
G1 X138.368 Y123.176 E.06843
G1 X139.143 Y123.176 E.03268
G1 X139.143 Y124.799 E.06843
G1 X139.918 Y124.799 E.03268
G1 X139.918 Y123.176 E.06843
G1 X140.392 Y123.176 E.01999
G1 X140.392 Y124.799 E.06843
G1 X140.155 Y124.799 E.00999
M204 S1000
;WIPE_START
G1 F8640
G1 X140.392 Y124.799 E-.05472
G1 X140.392 Y123.176 E-.37476
G1 X139.918 Y123.176 E-.10945
G1 X139.918 Y124.799 E-.37476
G1 X139.544 Y124.799 E-.08631
;WIPE_END
G1 Z.4 F720
G1 X142.465 Y115.707 F10800
G1 Z.2 F720
G1 E1 F1500
M204 S800
;TYPE:Perimeter
;WIDTH:0.649999
G1 F1200
G1 X142.089 Y115.652 E.01918
G1 X140.965 Y115.639 E.05674
G1 X140.393 Y115.659 E.02889
G1 X140.507 Y114.974 E.03505
G1 X140.548 Y114.418 E.02814
G1 X140.555 Y113.907 E.0258
G1 X140.555 Y88.143 E1.30054
G1 X153.292 Y88.143 E.64295
G1 X153.296 Y115.077 E1.3596
G1 X153.326 Y115.865 E.03981
G1 X153.212 Y115.743 E.00843
G1 X152.625 Y115.668 E.02987
G1 X151.465 Y115.635 E.05858
G1 X150.746 Y115.709 E.03649
G1 X150.939 Y115.099 E.0323
G1 X150.984 Y114.534 E.02861
G1 X150.992 Y109.252 E.26663
G1 X150.922 Y108.739 E.02614
G1 X150.834 Y108.47 E.01429
G1 X150.66 Y108.129 E.01932
G1 X150.493 Y107.899 E.01435
G1 X150.223 Y107.629 E.01927
G1 X149.992 Y107.461 E.01442
G1 X149.651 Y107.288 E.0193
G1 X149.382 Y107.2 E.01429
G1 X148.869 Y107.129 E.02614
G1 X144.352 Y107.129 E.22801
G1 X143.839 Y107.2 E.02614
G1 X143.569 Y107.288 E.01433
G1 X143.229 Y107.461 E.01926
G1 X142.998 Y107.629 E.01442
G1 X142.728 Y107.899 E.01927
G1 X142.56 Y108.129 E.01438
G1 X142.387 Y108.47 E.0193
G1 X142.299 Y108.739 E.01429
G1 X142.228 Y109.253 E.02619
G1 X142.244 Y114.65 E.27244
G1 X142.329 Y115.311 E.03364
G1 X142.436 Y115.622 E.0166
M204 S1000
;WIPE_START
G1 F8640
G1 X142.089 Y115.652 E-.08042
G1 X140.965 Y115.639 E-.25955
G1 X140.393 Y115.659 E-.13216
G1 X140.507 Y114.974 E-.16034
G1 X140.548 Y114.418 E-.12873
G1 X140.555 Y113.907 E-.118
G1 X140.555 Y113.384 E-.1208
;WIPE_END
G1 Z.4 F720
G1 X147.206 Y116.387 F10800
G1 Z.2 F720
G1 E1 F1500
M204 S800
;TYPE:External perimeter
;WIDTH:0.751096
G1 F1200
G1 X147.267 Y116.384 E.0036
;WIDTH:0.74577
G1 X148.862 Y116.384 E.09322
;WIDTH:0.773487
G1 X149.052 Y116.37 E.01157
;WIDTH:0.801204
G1 X149.242 Y116.356 E.01201
M204 S1000
;WIPE_START
G1 F8640
G1 X149.052 Y116.37 E-.04399
G1 X148.862 Y116.384 E-.04399
G1 X147.267 Y116.384 E-.36829
G1 X147.206 Y116.387 E-.0141
;WIPE_END
G1 E-.52963 F2100
G1 Z.4 F720
G1 X145.417 Y116.384 F10800
G1 Z.2 F720
G1 E1 F1500
M204 S800
;WIDTH:0.74577
G1 F1200
G1 X144.359 Y116.384 E.06183
;WIDTH:0.772968
G1 X144.172 Y116.37 E.01138
;WIDTH:0.800166
G1 X143.985 Y116.357 E.0118
M204 S1000
;WIPE_START
G1 F8640
G1 X144.172 Y116.37 E-.04328
G1 X144.359 Y116.384 E-.0433
G1 X145.417 Y116.384 E-.2443
;WIPE_END
G1 E-.66912 F2100
G1 Z.4 F720
G1 X139.563 Y119.394 F10800
G1 Z.2 F720
G1 E1 F1500
M204 S800
;WIDTH:0.55292
G1 F1200
G1 X139.562 Y116.741 E.1125
M204 S1000
;WIPE_START
G1 F8640
G1 X139.562 Y119.373 E-.60774
G1 X139.563 Y119.394 E-.00485
;WIPE_END
G1 E-.38741 F2100
G1 Z.4 F720
G1 X145.729 Y120.506 F10800
G1 Z.2 F720
G1 E1 F1500
M204 S800
;TYPE:Perimeter
;WIDTH:0.756155
G1 F1200
G1 X145.795 Y120.494 E.00398
;WIDTH:0.789662
G1 X145.968 Y120.463 E.01091
;WIDTH:0.823169
G1 X146.14 Y120.431 E.01135
G1 X146.342 Y120.256 E.01734
G1 X146.544 Y120.431 E.01734
G1 X146.717 Y120.463 E.01141
;WIDTH:0.789662
G1 X146.89 Y120.494 E.01091
;WIDTH:0.756154
G1 X147.063 Y120.525 E.01042
;WIDTH:0.725561
G1 X152.035 Y120.521 E.28222
;WIDTH:0.728683
G1 X152.127 Y120.518 E.00525
;WIDTH:0.764517
G1 X153.255 Y120.421 E.06793
G1 X153.246 Y121.184 E.04578
G1 X152.035 Y121.204 E.07267
;WIDTH:0.725561
G1 X147.063 Y121.205 E.28222
;WIDTH:0.722647
G1 X147.061 Y121.205 E.00011
;WIDTH:0.756155
G1 X146.822 Y121.188 E.01421
;WIDTH:0.789662
G1 X146.582 Y121.172 E.01494
;WIDTH:0.823169
G1 X146.342 Y121.155 E.01561
G1 X146.101 Y121.172 E.01567
;WIDTH:0.789662
G1 X145.861 Y121.188 E.01494
;WIDTH:0.756155
G1 X145.62 Y121.205 E.01433
;WIDTH:0.727861
G1 X140.556 Y121.203 E.28841
G1 X140.445 Y120.5 E.04053
G1 X140.858 Y120.518 E.02354
G1 X145.621 Y120.525 E.27127
;WIDTH:0.722648
G1 X145.623 Y120.525 E.00011
;WIDTH:0.756155
G1 X145.64 Y120.522 E.00102
M204 S1000
G1 X145.622 Y119.882 F10800
M204 S800
;TYPE:External perimeter
;WIDTH:0.649999
G1 F1200
G1 X145.675 Y119.877 E.00269
;WIDTH:0.663758
G1 X145.863 Y119.776 E.01102
;WIDTH:0.713003
G1 X145.923 Y119.676 E.0065
;WIDTH:0.762247
G1 X145.983 Y119.576 E.00698
;WIDTH:0.773173
G1 X145.977 Y117.62 E.11877
;WIDTH:0.779143
G1 X145.977 Y117.575 E.00275
;WIDTH:0.822406
G1 X145.963 Y117.32 E.01655
;WIDTH:0.865669
G1 X145.949 Y117.065 E.01747
;WIDTH:0.874707
G1 X145.815 Y116.613 E.03261
G1 X145.682 Y116.537 E.01059
;WIDTH:0.831728
G1 X145.55 Y116.46 E.01002
;WIDTH:0.788748
G1 X145.417 Y116.384 E.0095
G1 X145.59 Y116.406 E.01082
;WIDTH:0.831728
G1 X145.763 Y116.427 E.01143
;WIDTH:0.874707
G1 X145.936 Y116.449 E.01206
;WIDTH:0.885673
G1 X146.342 Y116.454 E.02845
G1 X146.63 Y116.432 E.02024
;WIDTH:0.840814
G1 X146.918 Y116.409 E.01917
;WIDTH:0.795955
G1 X147.206 Y116.387 E.01809
;WIDTH:0.788106
G1 X147.096 Y116.463 E.00828
;WIDTH:0.825115
G1 X146.986 Y116.539 E.0087
;WIDTH:0.862124
G1 X146.876 Y116.615 E.00911
;WIDTH:0.865669
G1 X146.735 Y117.065 E.03226
G1 X146.721 Y117.342 E.01897
;WIDTH:0.819421
G1 X146.707 Y117.62 E.01797
;WIDTH:0.773173
G1 X146.702 Y119.576 E.11877
;WIDTH:0.762246
G1 X146.762 Y119.676 E.00698
;WIDTH:0.713002
G1 X146.822 Y119.776 E.0065
;WIDTH:0.663758
G1 X147.061 Y119.882 E.0135
;WIDTH:0.649999
G1 X152.064 Y119.875 E.25255
G1 X153.163 Y119.764 E.05576
M73 Q4 S22
G1 X153.389 Y119.546 E.01585
M73 P4 R22
G1 X153.395 Y116.646 E.14639
G1 X153.135 Y116.345 E.02008
G1 X152.548 Y116.27 E.02987
G1 X151.53 Y116.239 E.05141
G1 X150.868 Y116.306 E.03359
G1 X150.132 Y116.425 E.03763
G1 X149.846 Y116.432 E.01444
;WIDTH:0.687801
G1 X149.695 Y116.413 E.00816
;WIDTH:0.725602
G1 X149.544 Y116.394 E.00864
;WIDTH:0.763403
G1 X149.393 Y116.375 E.00912
;WIDTH:0.801204
G1 X149.242 Y116.356 E.0096
G1 X149.363 Y116.28 E.00901
;WIDTH:0.763859
G1 X149.485 Y116.203 E.00865
;WIDTH:0.726514
G1 X149.607 Y116.126 E.0082
;WIDTH:0.689168
G1 X150.149 Y115.551 E.04246
;WIDTH:0.649999
G1 X150.334 Y115.047 E.0271
G1 X150.377 Y114.533 E.02604
G1 X150.385 Y109.253 E.26653
G1 X150.322 Y108.836 E.02129
G1 X150.12 Y108.405 E.02403
G1 X149.793 Y108.058 E.02407
G1 X149.376 Y107.828 E.02404
G1 X148.869 Y107.736 E.02601
G1 X144.352 Y107.736 E.22801
G1 X143.935 Y107.799 E.02129
G1 X143.504 Y108.002 E.02405
G1 X143.157 Y108.328 E.02403
G1 X142.928 Y108.746 E.02406
G1 X142.835 Y109.253 E.02602
G1 X142.846 Y114.572 E.2685
G1 X142.931 Y115.233 E.03364
G1 X143.087 Y115.569 E.0187
;WIDTH:0.687327
G1 X143.614 Y116.125 E.04105
;WIDTH:0.72494
G1 X143.738 Y116.202 E.00828
;WIDTH:0.762553
G1 X143.862 Y116.28 E.00877
;WIDTH:0.800166
G1 X143.985 Y116.357 E.00914
G1 X143.864 Y116.372 E.00768
;WIDTH:0.769386
G1 X143.605 Y116.392 E.01569
;WIDTH:0.729591
G1 X143.346 Y116.412 E.01483
;WIDTH:0.689795
G1 X143.088 Y116.432 E.01392
;WIDTH:0.649999
G1 X142.082 Y116.259 E.05153
G1 X140.615 Y116.245 E.07406
G1 X140.09 Y116.31 E.0267
G1 X139.861 Y116.44 E.01329
;WIDTH:0.616868
G1 X139.632 Y116.571 E.01259
;WIDTH:0.583737
G1 X139.562 Y116.741 E.00827
G1 X139.621 Y116.563 E.00843
;WIDTH:0.616868
G1 X139.685 Y116.252 E.01515
;WIDTH:0.649999
G1 X139.902 Y114.928 E.06773
G1 X139.94 Y114.428 E.02531
G1 X139.948 Y113.911 E.0261
G1 X139.948 Y87.536 E1.33138
G1 X153.899 Y87.536 E.70423
G1 X153.904 Y115.077 E1.39024
G1 X153.917 Y115.607 E.02676
G1 X154.007 Y116.917 E.06628
G1 X154.007 Y119.358 E.12322
G1 X153.919 Y120.377 E.05163
G1 X153.903 Y121.848 E.07426
G1 X139.938 Y121.849 E.70494
G1 X139.877 Y120.987 E.04362
G1 X139.76 Y120.396 E.03041
G1 X139.748 Y120.063 E.01682
G1 X139.656 Y119.728 E.01754
;WIDTH:0.60146
G1 X139.563 Y119.394 E.0161
;WIDTH:0.580608
G1 X139.633 Y119.538 E.00716
;WIDTH:0.615304
G1 X139.885 Y119.676 E.01367
;WIDTH:0.649999
G1 X140.137 Y119.813 E.01448
G1 X140.649 Y119.871 E.02601
G1 X145.532 Y119.882 E.24649
M204 S1000
G1 X145.651 Y119.927 F10800
;WIPE_START
G1 F8640
G1 X145.675 Y119.877 E-.03304
G1 X145.863 Y119.776 E-.04928
G1 X145.923 Y119.676 E-.02693
G1 X145.983 Y119.576 E-.02693
G1 X145.977 Y117.62 E-.45165
G1 X145.977 Y117.575 E-.01039
G1 X145.963 Y117.32 E-.05897
G1 X145.949 Y117.065 E-.05897
G1 X145.815 Y116.613 E-.10886
G1 X145.682 Y116.537 E-.03537
G1 X145.55 Y116.46 E-.03529
G1 X145.417 Y116.384 E-.03537
G1 X145.59 Y116.406 E-.04027
G1 X145.713 Y116.421 E-.02868
;WIPE_END
G1 Z.4 F720
G1 X151.822 Y88.386 F10800
G1 Z.2 F720
G1 E1 F1500
M204 S800
;TYPE:Solid infill
;WIDTH:0.650086
G1 F1200
G1 X152.776 Y89.34 E.06811
G1 X152.776 Y90.199 E.04337
G1 X151.236 Y88.659 E.10995
G1 X150.378 Y88.659 E.04332
G1 X152.776 Y91.058 E.17125
G1 X152.777 Y91.917 E.04337
G1 X149.519 Y88.659 E.23261
G1 X148.66 Y88.659 E.04337
G1 X152.777 Y92.776 E.29395
G1 X152.777 Y93.634 E.04332
G1 X147.802 Y88.659 E.35521
G1 X146.943 Y88.659 E.04337
G1 X152.777 Y94.493 E.41654
G1 X152.777 Y95.352 E.04337
G1 X146.084 Y88.659 E.47787
G1 X145.226 Y88.659 E.04332
M73 P4 R21
G1 X152.777 Y96.211 E.53916
G1 X152.778 Y97.07 E.04337
G1 X144.367 Y88.659 E.60053
G1 X143.508 Y88.659 E.04337
G1 X152.778 Y97.929 E.66186
G1 X152.778 Y98.787 E.04332
G1 X142.65 Y88.659 E.72312
G1 X141.791 Y88.659 E.04337
G1 X152.778 Y99.646 E.78445
G1 X152.778 Y100.505 E.04337
G1 X141.071 Y88.798 E.83586
M73 Q5 S22
G1 X141.071 Y89.657 E.04337
M73 P5 R21
G1 X152.778 Y101.364 E.83586
G1 X152.778 Y102.223 E.04337
G1 X141.071 Y90.515 E.83589
G1 X141.071 Y91.374 E.04337
G1 X152.779 Y103.081 E.83589
G1 X152.779 Y103.94 E.04337
G1 X141.071 Y92.233 E.83589
G1 X141.071 Y93.091 E.04332
G1 X152.779 Y104.799 E.83593
G1 X152.779 Y105.658 E.04337
G1 X141.071 Y93.95 E.83593
G1 X141.071 Y94.809 E.04337
G1 X152.779 Y106.517 E.83593
G1 X152.779 Y107.375 E.04332
G1 X141.071 Y95.667 E.83593
G1 X141.071 Y96.526 E.04337
G1 X152.779 Y108.234 E.83593
G1 X152.78 Y109.093 E.04337
G1 X141.071 Y97.385 E.83596
G1 X141.071 Y98.243 E.04332
G1 X149.54 Y106.712 E.60467
G1 X149.871 Y106.82 E.01758
M73 Q5 S21
G1 X150.241 Y107.009 E.02098
G1 X150.576 Y107.252 E.02089
G1 X150.87 Y107.546 E.02099
G1 X151.113 Y107.88 E.02085
G1 X151.301 Y108.251 E.021
G1 X151.409 Y108.581 E.01753
G1 X152.78 Y109.952 E.09789
