; generated by PrusaSlicer 2.7.1+win64 on 2023-12-21 at 21:11:14 UTC


;
;
; 

; external perimeters extrusion width = 0.45mm
; perimeters extrusion width = 0.45mm
; infill extrusion width = 0.45mm
; solid infill extrusion width = 0.45mm
; top infill extrusion width = 0.40mm
; first layer extrusion width = 0.42mm

M73 P0 R22
M73 Q0 S22
M201 X1000 Y1000 Z200 E5000 ; sets maximum accelerations, mm/sec^2
M203 X200 Y200 Z12 E120 ; sets maximum feedrates, mm / sec
M204 S1250 T1250 ; sets acceleration (S) and retract acceleration (R), mm/sec^2
M205 X8.00 Y8.00 Z0.40 E4.50 ; sets the jerk limits, mm/sec
M205 S0 T0 ; sets the minimum extruding and travel feed rate, mm/sec

; printing object Camera_Holder_rev1 id:0 copy 0
; stop printing object Camera_Holder_rev1 id:0 copy 0

;TYPE:Custom
M862.3 P "MK3S" ; printer model check
M862.1 P0.4 ; nozzle diameter check
M115 U3.13.2 ; tell printer latest fw version
G90 ; use absolute coordinates
M83 ; extruder relative mode
M104 S240 ; set extruder temp
M140 S85 ; set bed temp
M190 S85 ; wait for bed temp
M109 S240 ; wait for extruder temp
G28 W ; home all without mesh bed level
G80 X108.207 Y90.994 W33.5854 H29.7474 ; mesh bed levelling

G1 Z0.2 F720
G1 Y-3 F1000 ; go outside print area
G92 E0
G1 X60 E9 F1000 ; intro line
G1 X100 E12.5 F1000 ; intro line

G92 E0
M221 S95

; Don't change E values below. Excessive value can damage the printer.
M907 E430 ; set extruder motor current
G21 ; set units to millimeters
G90 ; use absolute coordinates
M83 ; use relative distances for extrusion
M900 K0.08 ; Filament gcode LA 1.5
M900 K45 ; Filament gcode LA 1.0

M107
;LAYER_CHANGE
;Z:0.2
;HEIGHT:0.2
;BEFORE_LAYER_CHANGE
G92 E0.0
;0.2


G1 E-1 F2100
G1 Z.2 F720
;AFTER_LAYER_CHANGE
;0.2
G1 X109.515 Y92.935 F10800
G1 Z.2 F720
G1 E1 F2100
M204 S800
;TYPE:Skirt/Brim
;WIDTH:0.42
G1 F1200
G1 X109.936 Y92.439 E.0204
G1 X110.79 Y91.814 E.03318
G1 X111.464 Y91.496 E.02337
G1 X112.18 Y91.287 E.02339
G1 X113.144 Y91.183 E.0304
G1 X138.85 Y91.183 E.80599
G1 X140.267 Y91.575 E.0461
G1 X141.281 Y92.641 E.04613
G1 X141.604 Y93.937 E.04188
G1 X141.585 Y111.967 E.56532
G1 X141.393 Y112.886 E.02944
G1 X141.004 Y113.722 E.02891
G1 X138.117 Y118.413 E.17271
G1 X137.363 Y119.297 E.03643
G1 X136.777 Y119.757 E.02336
G1 X136.125 Y120.119 E.02338
G1 X135.425 Y120.374 E.02336
G1 X134.381 Y120.543 E.03316
G1 X113.15 Y120.553 E.66568
G1 X112.194 Y120.452 E.03014
G1 X111.202 Y120.131 E.03269
G1 X110.543 Y119.77 E.02356
G1 X109.652 Y119.012 E.03668
G1 X109.192 Y118.426 E.02336
G1 X108.83 Y117.774 E.02338
G1 X108.574 Y117.074 E.02337
G1 X108.406 Y116.03 E.03316
G1 X108.396 Y95.937 E.63
G1 X108.494 Y94.996 E.02966
G1 X108.818 Y93.989 E.03317
G1 X109.176 Y93.335 E.02338
G1 X109.476 Y92.981 E.01455
M204 S1000
G1 X109.76 Y93.222 F10800
M204 S800
G1 F1200
G1 X110.182 Y92.725 E.02044
G1 X110.988 Y92.135 E.03132
G1 X111.61 Y91.844 E.02153
G1 X112.269 Y91.653 E.02151
G1 X113.144 Y91.56 E.02759
G1 X138.85 Y91.56 E.80599
G1 X140.157 Y91.951 E.04277
M73 P1 R22
M73 Q1 S22
G1 X141.033 Y92.997 E.04278
G1 X141.227 Y93.937 E.03009
G1 X141.209 Y111.941 E.5645
G1 X141.039 Y112.759 E.0262
G1 X140.683 Y113.524 E.02646
G1 X137.796 Y118.215 E.17271
G1 X137.118 Y119.011 E.03278
G1 X136.579 Y119.436 E.02152
G1 X135.98 Y119.771 E.02152
G1 X135.336 Y120.008 E.02152
G1 X134.35 Y120.167 E.03131
G1 X113.15 Y120.176 E.66471
G1 X112.282 Y120.085 E.02736
G1 X111.345 Y119.782 E.03088
G1 X110.739 Y119.447 E.02171
G1 X109.938 Y118.767 E.03294
G1 X109.513 Y118.228 E.02152
G1 X109.178 Y117.629 E.02152
G1 X108.941 Y116.985 E.02152
G1 X108.781 Y115.999 E.03132
G1 X108.773 Y95.937 E.62903
G1 X108.861 Y95.083 E.02692
G1 X109.166 Y94.132 E.03131
G1 X109.498 Y93.531 E.02153
G1 X109.721 Y93.268 E.01081
M204 S1000
; printing object Camera_Holder_rev1 id:0 copy 0
;WIPE_START
G1 F8640
G1 X109.76 Y93.222 E-.01393
G1 X110.182 Y92.725 E-.15055
G1 X110.988 Y92.135 E-.23064
G1 X111.61 Y91.844 E-.15856
G1 X112.269 Y91.653 E-.15843
G1 X113.144 Y91.56 E-.20318
G1 X113.511 Y91.56 E-.08471
;WIPE_END
G1 Z.4 F720
G1 X136.158 Y112.313 F10800
G1 Z.2 F720
G1 E1 F2100
M204 S800
;TYPE:Perimeter
;WIDTH:0.419999
G1 F1200
G1 X136.062 Y112.366 E.00344
G1 X135.692 Y112.784 E.0175
G1 X135.468 Y113.263 E.01658
G1 X135.377 Y113.695 E.01384
G1 X135.369 Y114.874 E.03697
G1 X135.086 Y114.585 E.01268
G1 X134.628 Y114.342 E.01626
G1 X134.367 Y114.279 E.00842
G1 X133.859 Y114.294 E.01593
G1 X133.373 Y114.478 E.01629
G1 X132.977 Y114.812 E.01624
G1 X132.715 Y115.259 E.01625
G1 X132.618 Y115.768 E.01625
G1 X132.695 Y116.28 E.01623
G1 X132.939 Y116.738 E.01627
G1 X133.226 Y117.012 E.01244
G1 X127.891 Y117.012 E.16727
G1 X128.076 Y116.854 E.00763
G1 X128.316 Y116.479 E.01396
G1 X128.412 Y116.008 E.01507
G1 X128.412 Y109.989 E.18872
G1 X129.194 Y109.969 E.02453
G1 X129.698 Y109.808 E.01659
G1 X130.061 Y109.494 E.01505
G1 X130.286 Y109.027 E.01625
G1 X130.329 Y108.811 E.00691
G1 X130.337 Y98.028 E.33809
G1 X130.243 Y97.574 E.01454
G1 X130.124 Y97.342 E.00818
G1 X129.905 Y97.085 E.01059
G1 X129.53 Y96.846 E.01394
G1 X129.06 Y96.75 E.01504
G1 X118.24 Y96.75 E.33925
G1 X117.786 Y96.844 E.01454
G1 X117.589 Y96.936 E.00682
G1 X117.257 Y97.231 E.01393
G1 X117.006 Y97.717 E.01715
G1 X116.963 Y98.027 E.00981
G1 X116.971 Y108.811 E.33812
G1 X116.979 Y108.909 E.00308
G1 X117.157 Y109.37 E.01549
G1 X117.425 Y109.683 E.01292
;WIDTH:0.45737
G1 X117.919 Y109.96 E.01952
;WIDTH:0.503027
G1 X118.025 Y109.998 E.00431
;WIDTH:0.548684
G1 X118.131 Y110.035 E.00472
;WIDTH:0.594341
G1 X118.238 Y110.073 E.00521
G1 X118.801 Y110.075 E.02581
;WIDTH:0.593084
G1 X118.801 Y110.623 E.02507
;WIDTH:0.594341
G1 X118.237 Y110.624 E.02586
G1 X118.118 Y110.669 E.00583
;WIDTH:0.550756
G1 X117.998 Y110.713 E.0054
;WIDTH:0.50717
G1 X117.878 Y110.757 E.00493
;WIDTH:0.463585
G1 X117.758 Y110.801 E.00447
;WIDTH:0.419999
G1 X117.298 Y111.105 E.01729
G1 X117.033 Y111.521 E.01547
G1 X116.938 Y111.986 E.01488
G1 X116.938 Y116.008 E.12611
G1 X117.032 Y116.461 E.01451
G1 X117.151 Y116.694 E.0082
G1 X117.448 Y117.012 E.01364
G1 X114.074 Y117.012 E.10579
G1 X114.235 Y116.881 E.00651
G1 X114.534 Y116.458 E.01624
G1 X114.674 Y115.959 E.01625
G1 X114.641 Y115.442 E.01624
G1 X114.437 Y114.966 E.01624
G1 X114.086 Y114.585 E.01624
G1 X113.59 Y114.327 E.01753
G1 X113.19 Y114.267 E.01268
G1 X112.672 Y114.342 E.01641
G1 X112.214 Y114.585 E.01626
G1 X111.937 Y114.866 E.01237
G1 X111.937 Y104.227 E.33358
G1 X112.115 Y104.429 E.00844
G1 X112.55 Y104.709 E.01622
G1 X113.054 Y104.828 E.01624
G1 X113.569 Y104.773 E.01624
G1 X114.037 Y104.549 E.01627
G1 X114.402 Y104.182 E.01623
G1 X114.625 Y103.714 E.01625
G1 X114.679 Y103.199 E.01624
G1 X114.559 Y102.695 E.01624
G1 X114.278 Y102.26 E.01624
G1 X113.867 Y101.944 E.01626
G1 X113.38 Y101.783 E.01608
G1 X113.063 Y101.765 E.00996
G1 X112.606 Y101.866 E.01467
G1 X112.161 Y102.128 E.01619
G1 X111.937 Y102.376 E.01048
G1 X111.937 Y96.097 E.19687
G1 X112.004 Y95.564 E.01684
G1 X112.175 Y95.228 E.01182
G1 X112.442 Y94.962 E.01182
G1 X112.777 Y94.791 E.01179
G1 X113.203 Y94.724 E.01352
G1 X138.063 Y94.724 E.77947
G1 X138.063 Y98.25 E.11056
G1 X138.063 Y111.485 E.41497
G1 X138.004 Y111.819 E.01063
G1 X137.842 Y111.964 E.00682
G1 X137.044 Y111.971 E.02502
G1 X136.632 Y112.053 E.01317
G1 X136.211 Y112.284 E.01506
M204 S1000
G1 X136.439 Y112.576 F10800
M204 S800
;TYPE:External perimeter
G1 F1200
G1 X136.349 Y112.627 E.00324
G1 X136.011 Y112.988 E.01551
G1 X135.813 Y113.415 E.01476
G1 X135.754 Y113.697 E.00903
G1 X135.745 Y114.984 E.04035
;WIDTH:0.450266
G1 X135.725 Y115.758 E.02622
G1 X135.651 Y116.253 E.01695
;WIDTH:0.448184
G1 X135.437 Y116.695 E.01655
;WIDTH:0.449297
G1 X135.074 Y117.071 E.01766
;WIDTH:0.449931
G1 X134.604 Y117.299 E.01768
;WIDTH:0.453055
G1 X133.986 Y117.372 E.02122
M73 Q2 S22
G1 X133.347 Y117.389 E.0218
;WIDTH:0.419999
G1 X127.798 Y117.389 E.17398
;WIDTH:0.44573
G1 X127.466 Y117.376 E.01113
M73 P2 R22
;WIDTH:0.471461
G1 X118.215 Y117.363 E.32964
;WIDTH:0.491566
G1 X117.93 Y117.353 E.01064
G1 X117.636 Y117.371 E.01099
;WIDTH:0.455783
G1 X117.342 Y117.389 E.01011
;WIDTH:0.419999
G1 X113.784 Y117.389 E.11156
;WIDTH:0.453054
G1 X113.191 Y117.372 E.02023
G1 X112.696 Y117.298 E.01707
;WIDTH:0.449937
G1 X112.255 Y117.085 E.01657
;WIDTH:0.449291
G1 X111.878 Y116.723 E.01766
;WIDTH:0.44819
G1 X111.649 Y116.253 E.01762
;WIDTH:0.450066
G1 X111.575 Y115.758 E.01694
G1 X111.56 Y114.983 E.02624
;WIDTH:0.419999
G1 X111.56 Y103.992 E.34461
;WIDTH:0.449994
G1 X111.575 Y103.175 E.02766
G1 X111.56 Y102.561 E.02079
;WIDTH:0.419999
G1 X111.56 Y95.96 E.20697
G1 X111.641 Y95.446 E.01631
G1 X111.866 Y95.004 E.01555
G1 X112.217 Y94.653 E.01556
G1 X112.66 Y94.427 E.01559
G1 X113.173 Y94.347 E.01628
G1 X138.44 Y94.347 E.79223
G1 X138.44 Y98.25 E.12238
G1 X138.44 Y111.485 E.41497
G1 X138.38 Y111.865 E.01206
G1 X138.25 Y112.138 E.00948
G1 X138.06 Y112.272 E.00729
G1 X137.887 Y112.341 E.00584
G1 X137.047 Y112.348 E.02634
G1 X136.717 Y112.42 E.01059
G1 X136.491 Y112.547 E.00813
M204 S1000
;WIPE_START
G1 F8640
G1 X136.439 Y112.576 E-.01375
G1 X136.349 Y112.627 E-.02389
G1 X136.011 Y112.988 E-.11419
G1 X135.813 Y113.415 E-.10868
G1 X135.754 Y113.697 E-.06652
G1 X135.745 Y114.984 E-.29718
;WIPE_END
G1 E-.37579 F2100
G1 Z.4 F720
G1 X134.315 Y101.78 F10800
G1 Z.2 F720
G1 E1 F2100
M204 S800
;TYPE:Perimeter
G1 F1200
G1 X134.38 Y101.783 E.00204
G1 X134.867 Y101.944 E.01608
G1 X135.278 Y102.26 E.01626
G1 X135.559 Y102.695 E.01624
G1 X135.679 Y103.199 E.01624
G1 X135.625 Y103.714 E.01624
G1 X135.403 Y104.182 E.01624
G1 X135.037 Y104.549 E.01625
G1 X134.569 Y104.773 E.01627
G1 X134.054 Y104.828 E.01624
G1 X133.55 Y104.709 E.01624
G1 X133.115 Y104.429 E.01622
G1 X132.797 Y104.019 E.01627
G1 X132.634 Y103.528 E.01622
G1 X132.645 Y103.01 E.01625
G1 X132.827 Y102.525 E.01624
G1 X133.161 Y102.128 E.01627
G1 X133.606 Y101.866 E.01619
G1 X134.063 Y101.765 E.01467
G1 X134.255 Y101.776 E.00603
M204 S1000
G1 X134.205 Y102.146 F10800
M204 S800
;TYPE:External perimeter
G1 F1200
G1 X134.284 Y102.148 E.00248
G1 X134.656 Y102.257 E.01215
G1 X134.974 Y102.485 E.01227
G1 X135.198 Y102.806 E.01227
G1 X135.303 Y103.183 E.01227
G1 X135.275 Y103.574 E.01229
G1 X135.119 Y103.933 E.01227
G1 X134.853 Y104.22 E.01227
G1 X134.506 Y104.401 E.01227
G1 X134.118 Y104.457 E.01229
G1 X133.734 Y104.38 E.01228
G1 X133.398 Y104.18 E.01226
G1 X133.147 Y103.879 E.01229
G1 X133.011 Y103.512 E.01227
G1 X133.005 Y103.12 E.01229
G1 X133.13 Y102.749 E.01227
G1 X133.372 Y102.441 E.01228
G1 X133.702 Y102.23 E.01228
G1 X134.063 Y102.142 E.01165
G1 X134.145 Y102.144 E.00257
M204 S1000
;WIPE_START
G1 F8640
G1 X134.205 Y102.146 E-.01386
G1 X134.284 Y102.148 E-.01825
G1 X134.656 Y102.257 E-.08951
G1 X134.974 Y102.485 E-.09035
G1 X135.198 Y102.806 E-.09038
G1 X135.303 Y103.183 E-.09036
G1 X135.275 Y103.574 E-.09051
G1 X135.119 Y103.933 E-.09038
G1 X134.853 Y104.22 E-.09036
G1 X134.506 Y104.401 E-.09037
G1 X134.118 Y104.457 E-.09052
G1 X133.734 Y104.38 E-.09043
G1 X133.493 Y104.236 E-.06472
;WIPE_END
G1 Z.4 F720
G1 X135.304 Y115.924 F10800
G1 Z.2 F720
G1 E1 F2100
M204 S800
;WIDTH:0.438038
G1 F1200
G1 X135.22 Y116.265 E.01154
;WIDTH:0.437343
G1 X135.004 Y116.594 E.01291
;WIDTH:0.436876
G1 X134.69 Y116.833 E.01293
;WIDTH:0.43705
G1 X134.314 Y116.954 E.01294
;WIDTH:0.465112
G1 X133.915 Y116.956 E.01401
G1 X133.557 Y116.794 E.01379
;WIDTH:0.419999
G1 X133.26 Y116.54 E.01225
G1 X133.064 Y116.201 E.01228
G1 X132.992 Y115.816 E.01228
G1 X133.052 Y115.429 E.01228
G1 X133.238 Y115.084 E.01229
G1 X133.528 Y114.821 E.01228
G1 X133.89 Y114.67 E.0123
G1 X134.303 Y114.651 E.01296
G1 X134.473 Y114.686 E.00544
G1 X134.825 Y114.857 E.01227
G1 X135.1 Y115.136 E.01228
;WIDTH:0.445089
G1 X135.196 Y115.311 E.00667
;WIDTH:0.470179
G1 X135.292 Y115.487 E.00712
G1 X135.314 Y115.865 E.01345
M204 S1000
;WIPE_START
G1 F8640
G1 X135.304 Y115.924 E-.01382
G1 X135.22 Y116.265 E-.08109
;WIPE_END
G1 E-.90509 F2100
G1 Z.4 F720
G1 X117.849 Y116.836 F10800
G1 Z.2 F720
G1 E1 F2100
M204 S800
;WIDTH:0.465733
G1 F1200
G1 X117.657 Y116.705 E.00817
;WIDTH:0.419999
G1 X117.398 Y116.371 E.01325
G1 X117.315 Y115.886 E.01543
G1 X117.315 Y111.988 E.12222
G1 X117.377 Y111.678 E.00991
G1 X117.615 Y111.328 E.01327
G1 X117.997 Y111.122 E.01361
G1 X118.529 Y111.087 E.01672
G1 X119.164 Y111.085 E.01991
G1 X119.258 Y110.982 E.00437
G1 X119.265 Y109.745 E.03879
G1 X119.192 Y109.622 E.00448
G1 X118.53 Y109.61 E.02076
G1 X117.98 Y109.568 E.0173
G1 X117.692 Y109.416 E.01021
G1 X117.491 Y109.195 E.00937
G1 X117.348 Y108.811 E.01285
G1 X117.34 Y98.027 E.33812
G1 X117.402 Y97.716 E.00994
G1 X117.628 Y97.373 E.01288
G1 X117.876 Y97.21 E.00931
G1 X118.24 Y97.127 E.01171
G1 X129.06 Y97.127 E.33925
G1 X129.359 Y97.182 E.00953
G1 X129.618 Y97.33 E.00935
G1 X129.877 Y97.664 E.01325
G1 X129.96 Y98.027 E.01168
G1 X129.952 Y108.811 E.33812
G1 X129.777 Y109.247 E.01473
G1 X129.423 Y109.525 E.01411
G1 X129.06 Y109.609 E.01168
G1 X128.127 Y109.613 E.02925
G1 X128.047 Y109.715 E.00406
G1 X128.035 Y116.008 E.19731
G1 X127.98 Y116.308 E.00956
G1 X127.832 Y116.567 E.00935
;WIDTH:0.425587
G1 X127.498 Y116.828 E.01349
;WIDTH:0.471461
G1 X127.135 Y116.934 E.01348
G1 X118.215 Y116.934 E.31785
G1 X117.906 Y116.874 E.01122
;WIDTH:0.465733
G1 X117.899 Y116.869 E.0003
M204 S1000
;WIPE_START
G1 F8640
G1 X117.849 Y116.836 E-.01383
G1 X117.657 Y116.705 E-.05367
;WIPE_END
G1 E-.9325 F2100
G1 Z.4 F720
G1 X112.401 Y114.937 F10800
G1 Z.2 F720
G1 E1 F2100
M204 S800
;WIDTH:0.419999
G1 F1200
G1 X112.528 Y114.821 E.00539
G1 X112.89 Y114.67 E.0123
G1 X113.269 Y114.645 E.01191
G1 X113.473 Y114.686 E.00652
G1 X113.825 Y114.857 E.01227
G1 X114.1 Y115.136 E.01228
G1 X114.267 Y115.49 E.01227
G1 X114.306 Y115.88 E.01229
G1 X114.213 Y116.26 E.01227
G1 X113.998 Y116.588 E.0123
G1 X113.687 Y116.825 E.01226
;WIDTH:0.453054
G1 X113.314 Y116.962 E.01355
G1 X113.191 Y116.962 E.00419
G1 X112.796 Y116.906 E.01361
;WIDTH:0.449937
G1 X112.474 Y116.746 E.01217
;WIDTH:0.449291
G1 X112.216 Y116.496 E.01214
;WIDTH:0.44819
G1 X112.045 Y116.179 E.01214
;WIDTH:0.450066
G1 X111.981 Y115.784 E.01355
;WIDTH:0.45075
G1 X112.038 Y115.422 E.01243
G1 X112.238 Y115.084 E.01332
;WIDTH:0.419999
G1 X112.356 Y114.977 E.00499
M204 S1000
;WIPE_START
G1 F8640
G1 X112.401 Y114.937 E-.0139
G1 X112.528 Y114.821 E-.03972
G1 X112.89 Y114.67 E-.09057
G1 X113.269 Y114.645 E-.0877
G1 X113.473 Y114.686 E-.04805
G1 X113.825 Y114.857 E-.09036
G1 X114.1 Y115.136 E-.09046
G1 X114.267 Y115.49 E-.09038
G1 X114.306 Y115.88 E-.0905
G1 X114.213 Y116.26 E-.09033
G1 X113.998 Y116.588 E-.09056
G1 X113.687 Y116.825 E-.09029
;WIPE_END
G1 E-.08718 F2100
G1 Z.4 F720
G1 X111.992 Y103.48 F10800
G1 Z.2 F720
G1 E1 F2100
M204 S800
;WIDTH:0.459115
G1 F1200
G1 X111.987 Y103.114 E.01267
G1 X112.13 Y102.749 E.01357
;WIDTH:0.419999
G1 X112.372 Y102.441 E.01228
G1 X112.702 Y102.23 E.01228
G1 X113.063 Y102.142 E.01165
G1 X113.284 Y102.148 E.00693
G1 X113.656 Y102.257 E.01215
G1 X113.974 Y102.485 E.01227
G1 X114.198 Y102.806 E.01227
G1 X114.303 Y103.183 E.01227
G1 X114.275 Y103.574 E.01229
G1 X114.119 Y103.933 E.01227
G1 X113.853 Y104.22 E.01227
G1 X113.506 Y104.401 E.01227
G1 X113.118 Y104.457 E.01229
G1 X112.734 Y104.38 E.01228
G1 X112.398 Y104.18 E.01226
G1 X112.147 Y103.879 E.01229
;WIDTH:0.457155
G1 X112.003 Y103.537 E.01278
M204 S1000
;WIPE_START
G1 F8640
G1 X111.992 Y103.48 E-.0134
G1 X111.987 Y103.114 E-.08452
G1 X112.13 Y102.749 E-.09052
;WIPE_END
G1 E-.81156 F2100
G1 Z.4 F720
G1 X137.893 Y95.658 F10800
G1 Z.2 F720
G1 E1 F2100
M204 S800
;TYPE:Solid infill
;WIDTH:0.420939
G1 F1200
G1 X137.299 Y95.063 E.02643
G1 X136.764 Y95.063 E.01682
G1 X137.724 Y96.023 E.04267
G1 X137.724 Y96.557 E.01678
G1 X136.229 Y95.063 E.06643
G1 X135.695 Y95.063 E.01678
G1 X137.724 Y97.092 E.09019
G1 X137.724 Y97.626 E.01678
G1 X135.16 Y95.063 E.11395
G1 X134.626 Y95.063 E.01678
G1 X137.724 Y98.161 E.13771
G1 X137.724 Y98.696 E.01682
M73 Q3 S22
G1 X134.091 Y95.063 E.16149
G1 X133.556 Y95.063 E.01682
M73 P3 R22
G1 X137.724 Y99.23 E.18525
G1 X137.724 Y99.765 E.01682
G1 X133.022 Y95.063 E.20901
G1 X132.487 Y95.063 E.01682
G1 X137.724 Y100.299 E.23277
