; generated by PrusaSlicer 2.6.0+win64 on 2023-07-25 at 15:04:30 UTC


;
;
; 

; external perimeters extrusion width = 0.65mm
; perimeters extrusion width = 0.65mm
; infill extrusion width = 0.65mm
; solid infill extrusion width = 0.65mm
; top infill extrusion width = 0.60mm
; first layer extrusion width = 0.65mm

M73 P0 R17
M73 Q0 S17
M201 X1000 Y1000 Z200 E5000 ; sets maximum accelerations, mm/sec^2
M203 X200 Y200 Z12 E120 ; sets maximum feedrates, mm / sec
M204 S1250 T1250 ; sets acceleration (S) and retract acceleration (R), mm/sec^2
M205 X8.00 Y8.00 Z0.40 E4.50 ; sets the jerk limits, mm/sec
M205 S0 T0 ; sets the minimum extruding and travel feed rate, mm/sec
;TYPE:Custom
M862.3 P "MK3S" ; printer model check
M862.1 P0.6 ; nozzle diameter check
M115 U3.12.2 ; tell printer latest fw version
G90 ; use absolute coordinates
M83 ; extruder relative mode
M104 S215 ; set extruder temp
M140 S60 ; set bed temp
M190 S60 ; wait for bed temp
M109 S215 ; wait for extruder temp
G28 W ; home all without mesh bed level
G80 ; mesh bed leveling

G1 Z0.2 F720
G1 Y-3 F1000 ; go outside print area
G92 E0
G1 X60 E9 F1000 ; intro line
M73 P0 R16
G1 X100 E12.5 F1000 ; intro line

G92 E0
M221 S95
G21 ; set units to millimeters
G90 ; use absolute coordinates
M83 ; use relative distances for extrusion
M900 K0.04 ; Filament gcode LA 1.5
M900 K18 ; Filament gcode LA 1.0
M107
;LAYER_CHANGE
;Z:0.2
;HEIGHT:0.2
;BEFORE_LAYER_CHANGE
G92 E0.0
;0.2


G1 E-.8 F2100
G1 Z.4 F720
;AFTER_LAYER_CHANGE
;0.2
G1 X120.833 Y83.219 F10800
G1 Z.2 F720
G1 E.8 F1500
M204 S800
;TYPE:Skirt/Brim
;WIDTH:0.65
G1 F1200
G1 X121.982 Y82.368 E.07218
G1 X122.9 Y82.201 E.0471
G1 X130.5 Y82.201 E.38364
G1 X131.875 Y82.593 E.07217
G1 X132.837 Y83.652 E.07222
G1 X133.107 Y84.808 E.05992
G1 X133.107 Y124.347 E1.99588
G1 X132.715 Y125.723 E.07222
G1 X131.656 Y126.684 E.07219
G1 X130.7 Y126.947 E.05005
G1 X119.7 Y127.792 E.5569
G1 X118.298 Y127.506 E.07223
M73 P1 R16
M73 Q1 S17
G1 X117.259 Y126.524 E.07217
G1 X116.893 Y125.192 E.06973
G1 X116.893 Y118.847 E.32029
G1 X120.306 Y84.549 E1.73988
G1 X120.8 Y83.303 E.06766
M204 S1000
; printing object Center_Bracket_rev0 id:0 copy 0
;WIPE_START
G1 F8640
G1 X121.982 Y82.368 E-.34799
G1 X122.9 Y82.201 E-.21545
G1 X123.925 Y82.201 E-.23656
;WIPE_END
G1 Z.6 F720
G1 X120.589 Y123.106 F10800
G1 Z.2 F720
G1 E.8 F1500
M204 S800
;TYPE:Perimeter
;WIDTH:0.736286
G1 F1200
G1 X121.032 Y123.207 E.0262
G1 X121.297 Y123.222 E.0153
;WIDTH:0.711023
G1 X121.563 Y123.237 E.0148
;WIDTH:0.685759
G1 X122.534 Y123.22 E.05191
;WIDTH:0.647494
G1 X123.505 Y123.203 E.04882
;WIDTH:0.609228
G1 X124.476 Y123.185 E.04573
;WIDTH:0.570962
G1 X125.447 Y123.168 E.04264
;WIDTH:0.581865
G1 X125.514 Y123.193 E.0032
;WIDTH:0.631034
G1 X125.58 Y123.218 E.00345
;WIDTH:0.680202
G1 X125.647 Y123.243 E.00379
;WIDTH:0.729371
G1 X125.713 Y123.267 E.00401
;WIDTH:0.77854
G1 X125.78 Y123.292 E.00437
;WIDTH:0.827708
G1 X125.847 Y123.317 E.00467
;WIDTH:0.876877
G1 X125.913 Y123.342 E.00489
;WIDTH:0.926046
G1 X125.98 Y123.366 E.00523
;WIDTH:0.975214
G1 X126.046 Y123.391 E.00547
G1 X125.982 Y123.421 E.00548
;WIDTH:0.926046
G1 X125.917 Y123.45 E.00523
;WIDTH:0.876877
G1 X125.853 Y123.48 E.0049
;WIDTH:0.827708
G1 X125.788 Y123.509 E.00464
;WIDTH:0.77854
G1 X125.724 Y123.539 E.00432
;WIDTH:0.729371
G1 X125.659 Y123.569 E.00409
;WIDTH:0.680202
G1 X125.595 Y123.598 E.00372
;WIDTH:0.631034
G1 X125.53 Y123.628 E.0035
;WIDTH:0.581865
G1 X125.465 Y123.657 E.00319
;WIDTH:0.570962
G1 X124.496 Y123.713 E.04262
;WIDTH:0.609228
G1 X123.526 Y123.768 E.04575
;WIDTH:0.647494
G1 X122.557 Y123.823 E.04879
;WIDTH:0.685759
G1 X121.587 Y123.879 E.05194
;WIDTH:0.695286
G1 X121.447 Y123.885 E.0076
;WIDTH:0.736286
G1 X120.66 Y123.924 E.04543
G1 X120.65 Y123.614 E.01788
G1 X120.6 Y123.196 E.02427
M204 S1000
;WIPE_START
G1 F8640
G1 X121.032 Y123.207 E-.09978
G1 X121.297 Y123.222 E-.06129
G1 X121.563 Y123.237 E-.06152
G1 X122.534 Y123.22 E-.22424
G1 X123.505 Y123.203 E-.22424
G1 X124.063 Y123.193 E-.12893
;WIPE_END
G1 Z.6 F720
G1 X120.539 Y119.099 F10800
G1 Z.2 F720
G1 E.8 F1500
M204 S800
;TYPE:External perimeter
;WIDTH:0.55292
G1 F1200
G1 X126.418 Y119.097 E.24931
M204 S1000
;WIPE_START
G1 F8640
G1 X122.953 Y119.097 E-.8
;WIPE_END
G1 Z.6 F720
G1 X126.883 Y123.343 F10800
G1 Z.2 F720
G1 E.8 F1500
M204 S800
;TYPE:Perimeter
;WIDTH:0.942688
G1 F1200
G1 X126.955 Y123.272 E.00757
;WIDTH:0.893907
G1 X127.026 Y123.2 E.00716
;WIDTH:0.845125
G1 X127.097 Y123.129 E.0067
;WIDTH:0.796344
G1 X127.168 Y123.057 E.00633
;WIDTH:0.747562
G1 X127.239 Y122.986 E.00588
;WIDTH:0.698781
G1 X127.311 Y122.914 E.00555
;WIDTH:0.649999
G1 X127.532 Y122.319 E.03204
G1 X127.525 Y120.666 E.08344
G1 X127.45 Y119.913 E.0382
G1 X127.638 Y119.918 E.00949
G1 X128.026 Y119.838 E.02
G1 X128.378 Y119.558 E.0227
;WIDTH:0.686209
G1 X128.453 Y119.43 E.00794
;WIDTH:0.722418
G1 X128.528 Y119.302 E.00838
;WIDTH:0.758627
G1 X128.603 Y119.174 E.00883
G1 X128.61 Y119.092 E.0049
;WIDTH:0.75126
G1 X128.656 Y118.357 E.04338
;WIDTH:0.719781
G1 X128.664 Y90.087 E1.59107
;WIDTH:0.714377
G1 X128.559 Y89.816 E.01623
;WIDTH:0.682188
G1 X128.454 Y89.545 E.01545
;WIDTH:0.649999
G1 X128.08 Y89.25 E.02405
G1 X127.721 Y89.176 E.0185
G1 X124.032 Y89.176 E.18622
G1 X124.032 Y85.94 E.16335
G1 X129.368 Y85.94 E.26935
G1 X129.368 Y87.558 E.08167
G1 X129.368 Y89.244 E.08511
;WIDTH:0.682188
G1 X129.352 Y89.665 E.02239
;WIDTH:0.714377
G1 X129.336 Y90.087 E.02358
;WIDTH:0.719781
G1 X129.333 Y118.357 E1.59107
;WIDTH:0.722303
G1 X129.332 Y118.47 E.00638
;WIDTH:0.758627
G1 X129.314 Y119.236 E.0456
G1 X129.332 Y119.454 E.01302
;WIDTH:0.722418
G1 X129.35 Y119.672 E.01236
;WIDTH:0.686209
G1 X129.368 Y119.891 E.01175
;WIDTH:0.649999
G1 X129.368 Y123.299 E.17203
G1 X127.574 Y123.437 E.09083
;WIDTH:0.698781
G1 X127.459 Y123.421 E.00633
;WIDTH:0.747562
G1 X127.344 Y123.405 E.0068
;WIDTH:0.796344
G1 X127.229 Y123.39 E.00727
;WIDTH:0.845125
G1 X127.114 Y123.374 E.00774
;WIDTH:0.893907
G1 X126.998 Y123.359 E.00828
;WIDTH:0.942688
G1 X126.973 Y123.355 E.00189
M204 S1000
;WIPE_START
G1 F8640
G1 X126.955 Y123.272 E-.01961
G1 X127.026 Y123.2 E-.02335
G1 X127.097 Y123.129 E-.02318
G1 X127.168 Y123.057 E-.02335
G1 X127.239 Y122.986 E-.02318
G1 X127.311 Y122.914 E-.02351
G1 X127.532 Y122.319 E-.14656
G1 X127.525 Y120.666 E-.38169
G1 X127.467 Y120.082 E-.13557
;WIPE_END
G1 Z.6 F720
G1 X120.498 Y122.406 F10800
G1 Z.2 F720
G1 E.8 F1500
M204 S800
;TYPE:External perimeter
;WIDTH:0.649999
G1 F1200
G1 X121.045 Y122.554 E.0286
G1 X121.565 Y122.612 E.02641
G1 X126.621 Y122.623 E.25522
G1 X126.851 Y122.517 E.01278
M73 P2 R16
M73 Q2 S17
G1 X126.925 Y122.319 E.01067
G1 X126.919 Y120.703 E.08157
G1 X126.853 Y120.021 E.03459
G1 X126.694 Y119.276 E.03845
;WIDTH:0.619797
G1 X126.556 Y119.187 E.00788
;WIDTH:0.586359
G1 X126.418 Y119.097 E.00744
;WIDTH:0.60146
G1 X126.692 Y119.135 E.01285
;WIDTH:0.649999
G1 X126.966 Y119.172 E.01396
G1 X127.59 Y119.304 E.0322
G1 X127.777 Y119.284 E.00949
G1 X127.895 Y119.191 E.00758
G1 X127.955 Y119.034 E.00848
G1 X128.014 Y118.356 E.03435
G1 X128.025 Y90.087 E1.42699
G1 X127.966 Y89.906 E.00961
G1 X127.841 Y89.807 E.00805
G1 X127.725 Y89.783 E.00598
G1 X123.425 Y89.783 E.21706
G1 X123.425 Y85.333 E.22463
G1 X129.975 Y85.333 E.33064
G1 X129.975 Y87.558 E.11232
G1 X129.975 Y123.861 E1.83253
G1 X120.02 Y124.626 E.504
M73 Q2 S16
G1 X120.002 Y123.669 E.04832
G1 X119.941 Y123.168 E.02548
G1 X119.829 Y122.673 E.02562
;WIDTH:0.635186
G1 X119.811 Y122.394 E.01377
;WIDTH:0.600932
G1 X119.793 Y122.115 E.01297
;WIDTH:0.570654
G1 X119.786 Y119.133 E.13085
G1 X120.539 Y119.099 E.03308
;WIDTH:0.567571
G1 X120.321 Y119.326 E.01373
;WIDTH:0.570654
G1 X120.317 Y122.114 E.12234
;WIDTH:0.600932
G1 X120.365 Y122.237 E.00613
;WIDTH:0.635186
G1 X120.414 Y122.36 E.00652
;WIDTH:0.649999
G1 X120.419 Y122.363 E.00029
M204 S1000
;WIPE_START
G1 F8640
G1 X121.045 Y122.554 E-.15112
G1 X121.565 Y122.612 E-.12081
G1 X123.852 Y122.617 E-.52807
;WIPE_END
G1 Z.6 F720
G1 X126.883 Y123.343 F10800
G1 Z.2 F720
G1 E.8 F1500
M204 S800
;TYPE:Perimeter
;WIDTH:0.975214
G1 F1200
G1 X126.046 Y123.391 E.06499
M204 S1000
;WIPE_START
G1 F8640
G1 X126.883 Y123.343 E-.19358
;WIPE_END
G1 E-.60642 F2100
G1 Z.6 F720
G1 X129.125 Y120.576 F10800
G1 Z.2 F720
G1 E.8 F1500
M204 S800
;TYPE:Solid infill
;WIDTH:0.733847
G1 F1200
G1 X128.59 Y120.04 E.04351
G1 X128.279 Y120.294 E.02307
G1 X128.023 Y120.366 E.01528
G1 X128.028 Y120.456 E.00518
G1 X128.852 Y121.28 E.06695
G1 X128.852 Y122.257 E.05613
G1 X128.044 Y121.449 E.06565
G1 X128.045 Y122.427 E.05619
G1 X128.723 Y123.105 E.05509
M204 S1000
;WIPE_START
G1 F8640
G1 X128.045 Y122.427 E-.2214
G1 X128.044 Y121.449 E-.22582
G1 X128.852 Y122.257 E-.26385
G1 X128.852 Y121.872 E-.08893
;WIPE_END
G1 Z.6 F720
G1 X129.125 Y87.57 F10800
G1 Z.2 F720
G1 E.8 F1500
M204 S800
;WIDTH:0.725438
G1 F1200
G1 X128.011 Y86.456 E.08941
G1 X127.046 Y86.456 E.05477
G1 X128.852 Y88.262 E.14495
G1 X128.852 Y89.216 E.05414
G1 X126.081 Y86.456 E.22196
G1 X125.115 Y86.456 E.05482
G1 X127.319 Y88.66 E.17689
G1 X126.354 Y88.66 E.05477
G1 X124.548 Y86.854 E.14495
G1 X124.548 Y87.819 E.05477
G1 X125.662 Y88.933 E.08941
M204 S1000
; stop printing object Center_Bracket_rev0 id:0 copy 0
M106 S84.15
;LAYER_CHANGE
;Z:0.4
;HEIGHT:0.2
;BEFORE_LAYER_CHANGE
G92 E0.0
;0.4


;WIPE_START
G1 F8640
G1 X124.548 Y87.819 E-.36377
G1 X124.548 Y86.854 E-.22282
G1 X125.202 Y87.508 E-.21341
;WIPE_END
G1 Z.6 F720
;AFTER_LAYER_CHANGE
;0.4
; printing object Center_Bracket_rev0 id:0 copy 0
G1 X120.558 Y123.176 F10800
G1 Z.4 F720
G1 E.8 F1500
M204 S800
;TYPE:Perimeter
;WIDTH:0.902398
G1 F1842
G1 X122.075 Y123.135 E.10845
;WIDTH:0.860737
G1 X123.161 Y123.114 E.07386
;WIDTH:0.819076
G1 X124.248 Y123.093 E.07017
;WIDTH:0.777414
G1 X125.335 Y123.072 E.0664
;WIDTH:0.735753
G1 X126.421 Y123.052 E.06257
;WIDTH:0.701764
G1 X126.653 Y123.026 E.01279
G1 X126.897 Y122.906 E.0149
;WIDTH:0.66864
G1 X127.2 Y122.591 E.02274
;WIDTH:0.649999
G1 X127.321 Y122.261 E.01774
G1 X127.332 Y122.119 E.00719
G1 X127.332 Y119.78 E.11807
G1 X127.521 Y119.78 E.00954
G1 X127.938 Y119.679 E.02166
G1 X128.277 Y119.377 E.02292
;WIDTH:0.69593
G1 X128.323 Y119.323 E.00385
;WIDTH:0.741861
G1 X128.369 Y119.268 E.00417
;WIDTH:0.787791
G1 X128.416 Y119.214 E.00443
;WIDTH:0.833722
G1 X128.462 Y119.159 E.00471
;WIDTH:0.879653
G1 X128.508 Y119.105 E.00494
;WIDTH:0.925583
G1 X128.554 Y119.05 E.00526
G1 X128.564 Y118.869 E.0133
;WIDTH:0.914381
G1 X128.564 Y90.286 E2.07119
G1 X128.522 Y90.211 E.00623
;WIDTH:0.870318
M73 P3 R16
M73 Q3 S16
G1 X128.48 Y90.135 E.00597
;WIDTH:0.826254
G1 X128.437 Y90.059 E.00569
;WIDTH:0.78219
G1 X128.395 Y89.983 E.00534
;WIDTH:0.738127
G1 X128.353 Y89.907 E.00502
;WIDTH:0.694063
G1 X128.31 Y89.831 E.00473
;WIDTH:0.649999
G1 X128.026 Y89.528 E.02096
G1 X127.718 Y89.397 E.0169
G1 X127.521 Y89.376 E.01
G1 X126.524 Y89.376 E.05033
G1 X126.505 Y87.602 E.08955
G1 X126.377 Y87.29 E.01702
G1 X126.073 Y87.001 E.02117
;WIDTH:0.694063
G1 X125.997 Y86.958 E.00473
;WIDTH:0.738127
G1 X125.92 Y86.915 E.0051
;WIDTH:0.78219
G1 X125.843 Y86.872 E.00542
;WIDTH:0.826254
G1 X125.767 Y86.829 E.00569
;WIDTH:0.870318
G1 X125.69 Y86.786 E.00607
;WIDTH:0.914381
G1 X125.613 Y86.744 E.00636
;WIDTH:0.925584
G1 X125.206 Y86.754 E.02988
G1 X125.105 Y86.848 E.01013
;WIDTH:0.879654
G1 X125.005 Y86.943 E.0096
;WIDTH:0.833723
G1 X124.905 Y87.038 E.00907
;WIDTH:0.787792
G1 X124.804 Y87.132 E.00855
;WIDTH:0.741861
G1 X124.704 Y87.227 E.00802
;WIDTH:0.69593
G1 X124.604 Y87.322 E.00749
;WIDTH:0.668569
G1 X124.467 Y87.786 E.02517
G1 X124.467 Y89.367 E.08225
G1 X123.841 Y89.367 E.03257
G1 X123.832 Y87.11 E.11742
;WIDTH:0.649999
G1 X123.832 Y85.74 E.06916
G1 X124.525 Y85.74 E.03498
;WIDTH:0.69593
G1 X124.626 Y85.763 E.00562
;WIDTH:0.741861
G1 X124.727 Y85.786 E.00602
;WIDTH:0.787792
G1 X124.827 Y85.809 E.00636
;WIDTH:0.833723
G1 X124.928 Y85.832 E.00681
;WIDTH:0.879654
G1 X125.029 Y85.855 E.00721
;WIDTH:0.925584
G1 X125.13 Y85.878 E.0076
G1 X125.613 Y85.872 E.03545
;WIDTH:0.914381
G1 X125.747 Y85.85 E.00984
;WIDTH:0.870318
G1 X125.881 Y85.828 E.00934
;WIDTH:0.826254
G1 X126.014 Y85.806 E.00878
;WIDTH:0.78219
G1 X126.148 Y85.784 E.00835
;WIDTH:0.738127
G1 X126.282 Y85.762 E.00785
;WIDTH:0.694063
G1 X126.415 Y85.74 E.0073
;WIDTH:0.649999
G1 X129.568 Y85.74 E.15916
G1 X129.568 Y87.288 E.07814
G1 X129.568 Y89.495 E.11141
;WIDTH:0.694063
G1 X129.546 Y89.627 E.00725
;WIDTH:0.738127
G1 X129.524 Y89.759 E.00774
;WIDTH:0.78219
G1 X129.502 Y89.89 E.00817
;WIDTH:0.826254
G1 X129.48 Y90.022 E.00872
;WIDTH:0.870318
G1 X129.458 Y90.154 E.00921
;WIDTH:0.914381
G1 X129.436 Y90.286 E.0097
G1 X129.436 Y118.869 E2.07119
;WIDTH:0.925583
G1 X129.43 Y119.126 E.01887
G1 X129.453 Y119.234 E.0081
;WIDTH:0.879653
G1 X129.476 Y119.341 E.00761
;WIDTH:0.833722
G1 X129.499 Y119.449 E.00726
;WIDTH:0.787791
G1 X129.522 Y119.556 E.00678
;WIDTH:0.741861
G1 X129.545 Y119.663 E.00636
;WIDTH:0.69593
G1 X129.568 Y119.771 E.006
;WIDTH:0.649999
G1 X129.568 Y123.484 E.18743
G1 X127.832 Y123.618 E.08789
;WIDTH:0.66864
G1 X127.139 Y123.661 E.03613
;WIDTH:0.694091
G1 X126.446 Y123.702 E.03759
;WIDTH:0.735753
G1 X125.361 Y123.764 E.06261
;WIDTH:0.777414
G1 X124.276 Y123.827 E.06638
;WIDTH:0.819076
G1 X123.191 Y123.889 E.07014
;WIDTH:0.860737
G1 X122.106 Y123.952 E.07391
;WIDTH:0.902398
G1 X120.558 Y124.049 E.11085
G1 X120.558 Y123.266 E.05596
M204 S1000
G1 X120.579 Y122.422 F10800
M204 S800
;TYPE:External perimeter
;WIDTH:0.649999
G1 F1842
G1 X126.497 Y122.413 E.29873
G1 X126.681 Y122.276 E.01158
G1 X126.725 Y122.119 E.00823
G1 X126.714 Y119.326 E.14099
;WIDTH:0.635603
G1 X126.568 Y119.212 E.00913
;WIDTH:0.594262
G1 X126.421 Y119.097 E.00856
G1 X126.65 Y119.129 E.0106
;WIDTH:0.635603
G1 X126.879 Y119.161 E.0114
;WIDTH:0.649999
G1 X127.521 Y119.172 E.03241
G1 X127.66 Y119.139 E.00721
G1 X127.773 Y119.038 E.00765
G1 X127.825 Y118.869 E.00893
G1 X127.825 Y90.286 E1.44284
G1 X127.784 Y90.135 E.0079
G1 X127.69 Y90.034 E.00696
G1 X127.521 Y89.983 E.00891
G1 X125.917 Y89.983 E.08097
G1 X125.917 Y87.786 E.1109
G1 X125.868 Y87.621 E.00869
G1 X125.767 Y87.524 E.00707
G1 X125.387 Y87.483 E.01929
G1 X125.224 Y87.53 E.00856
G1 X125.126 Y87.631 E.0071
G1 X125.083 Y87.786 E.00812
G1 X125.083 Y89.983 E.1109
G1 X123.225 Y89.983 E.09379
G1 X123.225 Y85.133 E.24482
G1 X130.175 Y85.133 E.35083
G1 X130.175 Y87.288 E.10878
G1 X130.175 Y124.046 E1.8555
G1 X119.825 Y124.841 E.52399
G1 X119.825 Y123.176 E.08405
G1 X119.805 Y122.647 E.02672
;WIDTH:0.61073
G1 X119.786 Y122.119 E.02494
;WIDTH:0.57146
G1 X119.786 Y119.133 E.13123
G1 X120.539 Y119.099 E.03313
;WIDTH:0.568207
G1 X120.32 Y119.326 E.01378
;WIDTH:0.57146
G1 X120.314 Y122.119 E.12275
;WIDTH:0.575465
G1 X120.316 Y122.165 E.00204
;WIDTH:0.612732
G1 X120.447 Y122.294 E.00871
;WIDTH:0.649999
G1 X120.514 Y122.359 E.00471
M204 S1000
;WIPE_START
G1 F8640
G1 X123.979 Y122.39 E-.8
;WIPE_END
G1 Z.8 F720
G1 X120.539 Y119.099 F10800
G1 Z.4 F720
G1 E.8 F1500
M204 S800
;WIDTH:0.55292
G1 F1842
G1 X126.421 Y119.097 E.24944
M204 S1000
;WIPE_START
G1 F8640
G1 X122.956 Y119.097 E-.8
;WIPE_END
G1 Z.8 F720
G1 X128.9 Y119.492 F10800
G1 Z.4 F720
G1 E.8 F1500
;TYPE:Solid infill
;WIDTH:0.649999
G1 F1842
G1 X128.237 Y120.091 E.0451
G1 X128.105 Y120.16 E.00752
G1 X127.848 Y120.223 E.01336
G1 X127.848 Y122.115 E.09551
G1 X127.816 Y122.393 E.01413
G1 X127.602 Y122.907 E.02811
G1 X127.399 Y123.123 E.01496
G1 X129.052 Y123.006 E.08365
G1 X129.052 Y119.819 E.16088
G1 X129.028 Y119.768 E.00285
G1 X128.45 Y120.669 E.05404
;WIDTH:0.63967
G1 X128.45 Y122.115 E.07175
;WIDTH:0.665314
G1 X128.437 Y122.437 E.01668
;WIPE_START
G1 F8640
G1 X128.45 Y122.115 E-.07441
G1 X128.45 Y120.669 E-.33389
G1 X129.028 Y119.768 E-.24717
G1 X129.052 Y119.819 E-.01301
G1 X129.052 Y120.389 E-.13152
;WIPE_END
G1 Z.8 F720
G1 X126.753 Y86.256 F10800
G1 Z.4 F720
G1 E.8 F1500
;WIDTH:0.649999
G1 F1842
G1 X129.052 Y86.256 E.11605
G1 X129.052 Y89.4 E.15871
G1 X128.932 Y89.82 E.02205
G1 X128.724 Y89.53 E.01801
G1 X128.26 Y89.073 E.03288
G1 X127.768 Y88.886 E.02657
G1 X127.04 Y88.868 E.03676
G1 X127.04 Y87.912 E.04826
G1 X126.993 Y87.447 E.02359
