; generated by PrusaSlicer 2.6.0+win64 on 2023-07-27 at 21:33:53 UTC


;
;
; 

; external perimeters extrusion width = 0.65mm
; perimeters extrusion width = 0.65mm
; infill extrusion width = 0.65mm
; solid infill extrusion width = 0.65mm
; top infill extrusion width = 0.60mm
; support material extrusion width = 0.55mm
; first layer extrusion width = 0.65mm

M73 P0 R46
M73 Q0 S48
M201 X1000 Y1000 Z200 E5000 ; sets maximum accelerations, mm/sec^2
M203 X200 Y200 Z12 E120 ; sets maximum feedrates, mm / sec
M204 S1250 T1250 ; sets acceleration (S) and retract acceleration (R), mm/sec^2
M205 X8.00 Y8.00 Z0.40 E4.50 ; sets the jerk limits, mm/sec
M205 S0 T0 ; sets the minimum extruding and travel feed rate, mm/sec
;TYPE:Custom
M862.3 P "MK3S" ; printer model check
M862.1 P0.6 ; nozzle diameter check
M115 U3.12.2 ; tell printer latest fw version
G90 ; use absolute coordinates
M83 ; extruder relative mode
M104 S215 ; set extruder temp
M140 S60 ; set bed temp
M190 S60 ; wait for bed temp
M109 S215 ; wait for extruder temp
G28 W ; home all without mesh bed level
G80 ; mesh bed leveling

G1 Z0.2 F720
G1 Y-3 F1000 ; go outside print area
G92 E0
G1 X60 E9 F1000 ; intro line
G1 X100 E12.5 F1000 ; intro line

G92 E0
M221 S95
G21 ; set units to millimeters
G90 ; use absolute coordinates
M83 ; use relative distances for extrusion
M900 K0.04 ; Filament gcode LA 1.5
M900 K18 ; Filament gcode LA 1.0
M107
;LAYER_CHANGE
;Z:0.2
;HEIGHT:0.2
;BEFORE_LAYER_CHANGE
G92 E0.0
;0.2


G1 E-.8 F2100
G1 Z.4 F720
;AFTER_LAYER_CHANGE
;0.2
G1 X58.239 Y132.327 F10800
G1 Z.2 F720
G1 E.8 F1500
M204 S800
;TYPE:Skirt/Brim
;WIDTH:0.65
G1 F1200
G1 X59.395 Y132.057 E.05992
G1 X188.098 Y132.057 E6.49678
G1 X189.474 Y132.449 E.07222
G1 X190.435 Y133.508 E.07219
G1 X190.705 Y134.664 E.05992
G1 X190.705 Y188.155 E2.70017
G1 X190.313 Y189.53 E.07217
G1 X189.837 Y190.097 E.03737
G1 X185.543 Y193.942 E.29095
G1 X183.804 Y194.607 E.09398
G1 X64.398 Y194.607 E6.02748
G1 X62.81 Y194.067 E.08467
G1 X57.806 Y190.222 E.31855
G1 X56.955 Y189.073 E.07218
G1 X56.788 Y188.155 E.0471
G1 X56.788 Y134.664 E2.70017
G1 X57.18 Y133.288 E.07222
M73 Q0 S47
G1 X58.172 Y132.387 E.06765
M204 S1000
; printing object Chassis_rev2-1 id:0 copy 0
;WIPE_START
G1 F8640
G1 X59.395 Y132.057 E-.29249
G1 X61.593 Y132.057 E-.50751
;WIPE_END
G1 Z.6 F720
G1 X66.553 Y136.431 F10800
G1 Z.2 F720
G1 E.8 F1500
M204 S800
;TYPE:Support material
G1 F1200
G1 X64.048 Y136.431 E.12645
G1 X63.553 Y136.926 E.03534
G1 X63.553 Y138.22 E.06532
G1 X64.048 Y138.715 E.03534
G1 X67.555 Y138.715 E.17703
G1 X67.555 Y183.288 E2.24999
G1 X64.048 Y183.288 E.17703
M73 P1 R46
M73 Q1 S47
G1 X63.553 Y183.783 E.03534
G1 X63.553 Y187.928 E.20923
G1 X64.003 Y188.155 E.02544
G1 X59.395 Y188.155 E.23261
G1 X59.395 Y134.664 E2.70017
G1 X66.553 Y134.664 E.36133
G1 X66.553 Y136.34 E.0846
M204 S1000
;WIPE_START
G1 F8640
G1 X66.553 Y134.664 E-.38699
G1 X64.764 Y134.664 E-.41301
;WIPE_END
G1 Z.6 F720
G1 X66.99 Y183.015 F10800
G1 Z.2 F720
G1 E.8 F1500
M204 S800
G1 F1200
G1 X66.99 Y139.261 E2.20865
G1 X66.316 Y139.261 E.03402
G1 X66.316 Y182.742 E2.19487
G1 X65.641 Y182.742 E.03407
G1 X65.641 Y139.261 E2.19487
G1 X64.967 Y139.261 E.03402
G1 X64.967 Y182.742 E2.19487
G1 X64.292 Y182.742 E.03407
G1 X64.292 Y139.261 E2.19487
G1 X63.822 Y139.261 E.02373
G1 X63.618 Y139.057 E.01456
G1 X63.618 Y182.946 E2.21547
G1 X63.007 Y183.557 E.04362
G1 X63.007 Y187.609 E.20454
G1 X62.943 Y187.609 E.00323
G1 X62.943 Y135.21 E2.64504
G1 X62.269 Y135.21 E.03402
G1 X62.269 Y187.609 E2.64504
G1 X61.594 Y187.609 E.03407
G1 X61.594 Y135.21 E2.64504
G1 X60.919 Y135.21 E.03407
G1 X60.919 Y187.609 E2.64504
G1 X60.245 Y187.609 E.03402
M73 P2 R45
M73 Q2 S47
G1 X60.245 Y134.937 E2.65882
M204 S1000
G1 X65.641 Y136.158 F10800
M204 S800
G1 F1200
G1 X65.641 Y135.21 E.04785
G1 X64.967 Y135.21 E.03402
G1 X64.967 Y135.884 E.03402
G1 X64.292 Y135.884 E.03407
G1 X64.292 Y135.21 E.03402
G1 X63.618 Y135.21 E.03402
G1 X63.618 Y136.475 E.06386
M204 S1000
;WIPE_START
G1 F8640
G1 X63.618 Y135.21 E-.29209
G1 X64.292 Y135.21 E-.15563
G1 X64.292 Y135.884 E-.15563
G1 X64.967 Y135.884 E-.15586
G1 X64.967 Y135.707 E-.04079
;WIPE_END
G1 Z.6 F720
G1 X188.098 Y188.155 F10800
G1 Z.2 F720
G1 E.8 F1500
M204 S800
G1 F1200
G1 X184.649 Y188.155 E.1741
G1 X184.649 Y183.78 E.22085
G1 X184.154 Y183.285 E.03534
G1 X182.445 Y183.285 E.08627
G1 X182.445 Y138.715 E2.24984
G1 X184.154 Y138.715 E.08627
G1 X184.649 Y138.22 E.03534
G1 X184.649 Y136.926 E.06532
G1 X184.154 Y136.431 E.03534
G1 X181.649 Y136.431 E.12645
G1 X181.649 Y134.664 E.0892
G1 X188.098 Y134.664 E.32554
G1 X188.098 Y188.064 E2.69557
M204 S1000
G1 X187.057 Y187.882 F10800
M204 S800
G1 F1200
G1 X187.057 Y135.21 E2.65882
G1 X186.382 Y135.21 E.03407
G1 X186.382 Y187.609 E2.64504
G1 X185.708 Y187.609 E.03402
G1 X185.708 Y135.21 E2.64504
G1 X185.033 Y135.21 E.03407
G1 X185.033 Y183.392 E2.43217
G1 X184.38 Y182.739 E.04662
G1 X184.359 Y182.739 E.00106
G1 X184.359 Y139.261 E2.19472
G1 X183.684 Y139.261 E.03407
G1 X183.684 Y182.739 E2.19472
G1 X183.01 Y182.739 E.03402
G1 X183.01 Y138.988 E2.2085
M204 S1000
;WIPE_START
G1 F8640
M73 P3 R45
M73 Q3 S46
G1 X183.01 Y142.453 E-.8
;WIPE_END
G1 Z.6 F720
G1 X184.359 Y136.249 F10800
G1 Z.2 F720
G1 E.8 F1500
M204 S800
G1 F1200
G1 X184.359 Y135.21 E.05245
G1 X183.684 Y135.21 E.03407
G1 X183.684 Y135.884 E.03402
G1 X183.01 Y135.884 E.03402
G1 X183.01 Y135.21 E.03402
G1 X182.335 Y135.21 E.03407
G1 X182.335 Y136.158 E.04785
M204 S1000
;WIPE_START
G1 F8640
G1 X182.335 Y135.21 E-.2189
G1 X183.01 Y135.21 E-.15586
G1 X183.01 Y135.884 E-.15563
G1 X183.684 Y135.884 E-.15563
G1 X183.684 Y135.39 E-.11398
;WIPE_END
G1 Z.6 F720
G1 X180.471 Y184.399 F10800
G1 Z.2 F720
G1 E.8 F1500
M204 S800
;TYPE:Perimeter
;WIDTH:0.649999
G1 F1200
G1 X180.475 Y184.467 E.00344
G1 X180.586 Y184.8 E.01772
G1 X180.744 Y185.005 E.01307
G1 X180.978 Y185.169 E.01442
G1 X181.379 Y185.262 E.02078
G1 X182.672 Y185.262 E.06527
G1 X182.672 Y190.868 E.28298
G1 X66.992 Y190.868 E5.83939
G1 X67.317 Y190.594 E.02146
G1 X67.618 Y190.243 E.02334
G1 X67.919 Y189.704 E.03116
G1 X68.067 Y189.225 E.02531
G1 X68.128 Y188.577 E.03285
G1 X68.067 Y188.079 E.02533
G1 X67.919 Y187.596 E.0255
G1 X67.705 Y187.186 E.02335
G1 X67.424 Y186.817 E.02341
G1 X67.085 Y186.501 E.02339
G1 X66.698 Y186.247 E.02337
G1 X66.118 Y186.016 E.03151
G1 X65.52 Y185.93 E.0305
G1 X65.524 Y185.265 E.03357
G1 X68.711 Y185.261 E.16088
G1 X69.062 Y185.152 E.01855
G1 X69.297 Y184.965 E.01516
G1 X69.472 Y184.679 E.01693
G1 X69.532 Y184.354 E.01668
G1 X69.532 Y139.856 E2.24621
G1 X69.516 Y138.766 E.05503
G1 X69.46 Y138.264 E.0255
G1 X69.782 Y138.325 E.01654
G1 X70.377 Y138.391 E.03022
G1 X71.393 Y138.408 E.05129
G1 X92.535 Y138.408 E1.06722
;WIDTH:0.692771
G1 X92.672 Y138.429 E.00749
;WIDTH:0.735542
G1 X92.81 Y138.451 E.00805
;WIDTH:0.778314
G1 X92.947 Y138.472 E.00848
;WIDTH:0.821085
G1 X93.084 Y138.493 E.00897
;WIDTH:0.864288
G1 X93.15 Y138.515 E.00475
;WIDTH:0.907491
G1 X93.216 Y138.536 E.00498
;WIDTH:0.950693
G1 X93.282 Y138.558 E.00525
;WIDTH:0.993896
G1 X93.348 Y138.58 E.0055
;WIDTH:1.0371
G1 X93.414 Y138.601 E.00573
G1 X93.363 Y138.641 E.00536
;WIDTH:0.993896
G1 X93.311 Y138.681 E.00519
;WIDTH:0.950693
G1 X93.26 Y138.72 E.00485
;WIDTH:0.907491
G1 X93.208 Y138.76 E.00472
;WIDTH:0.864288
G1 X93.156 Y138.799 E.00444
;WIDTH:0.821085
G1 X92.982 Y138.926 E.01394
;WIDTH:0.778314
G1 X92.807 Y139.053 E.01322
;WIDTH:0.735542
G1 X92.633 Y139.179 E.01237
;WIDTH:0.692771
G1 X92.458 Y139.306 E.01168
;WIDTH:0.649999
G1 X92.079 Y139.701 E.02763
G1 X91.906 Y139.957 E.0156
G1 X91.68 Y140.456 E.02765
G1 X91.603 Y140.754 E.01554
G1 X91.556 Y141.3 E.02766
G1 X91.582 Y141.607 E.01555
G1 X91.721 Y142.138 E.02771
G1 X91.847 Y142.418 E.0155
G1 X92.154 Y142.872 E.02767
G1 X92.367 Y143.095 E.01557
G1 X92.808 Y143.421 E.02768
;WIDTH:0.655835
G1 X93.082 Y143.562 E.0157
;WIDTH:0.691322
G1 X93.339 Y143.659 E.01481
;WIDTH:0.726809
G1 X93.596 Y143.757 E.01564
G1 X93.914 Y143.783 E.01814
;WIDTH:0.710725
G1 X94.462 Y143.766 E.03044
G1 X94.768 Y143.688 E.01753
;WIDTH:0.687961
G1 X95.27 Y143.466 E.02944
;WIDTH:0.649999
G1 X95.532 Y143.305 E.01552
G1 X95.944 Y142.943 E.02768
G1 X96.137 Y142.703 E.01555
G1 X96.405 Y142.225 E.02766
G1 X96.507 Y141.934 E.01557
G1 X96.6 Y141.394 E.02766
G1 X96.6 Y141.086 E.01555
G1 X96.507 Y140.546 E.02766
G1 X96.405 Y140.255 E.01557
G1 X96.137 Y139.777 E.02766
G1 X95.944 Y139.537 E.01555
G1 X95.341 Y139.045 E.03929
;WIDTH:0.67613
G1 X94.879 Y138.832 E.02679
;WIDTH:0.725914
G1 X94.795 Y138.788 E.00539
;WIDTH:0.775698
G1 X94.711 Y138.745 E.00575
;WIDTH:0.825482
G1 X94.627 Y138.701 E.00617
;WIDTH:0.875266
G1 X94.543 Y138.657 E.00656
;WIDTH:0.92505
G1 X94.458 Y138.614 E.00699
;WIDTH:0.974834
G1 X94.374 Y138.57 E.00735
G1 X94.466 Y138.545 E.00739
;WIDTH:0.92505
G1 X94.557 Y138.52 E.00692
;WIDTH:0.875266
G1 X94.649 Y138.495 E.0066
;WIDTH:0.825482
G1 X94.74 Y138.471 E.00612
;WIDTH:0.775698
G1 X94.832 Y138.446 E.00581
;WIDTH:0.725914
G1 X94.923 Y138.421 E.00536
;WIDTH:0.67613
G1 X95.217 Y138.408 E.01549
;WIDTH:0.649999
G1 X175.005 Y138.408 E4.0276
;WIDTH:0.692768
G1 X175.142 Y138.429 E.00749
;WIDTH:0.735536
G1 X175.28 Y138.451 E.00805
;WIDTH:0.778304
G1 X175.417 Y138.472 E.00848
;WIDTH:0.821072
G1 X175.554 Y138.493 E.00897
;WIDTH:0.864264
G1 X175.62 Y138.515 E.00475
;WIDTH:0.907455
G1 X175.686 Y138.537 E.005
;WIDTH:0.950646
G1 X175.752 Y138.558 E.00523
;WIDTH:0.993837
G1 X175.818 Y138.58 E.0055
;WIDTH:1.03703
G1 X175.884 Y138.601 E.00573
G1 X175.833 Y138.641 E.00536
;WIDTH:0.993837
G1 X175.781 Y138.681 E.00519
;WIDTH:0.950646
G1 X175.73 Y138.72 E.00485
;WIDTH:0.907455
G1 X175.678 Y138.76 E.00472
;WIDTH:0.864264
G1 X175.627 Y138.799 E.00438
;WIDTH:0.821072
G1 X175.452 Y138.926 E.01399
;WIDTH:0.778304
G1 X175.277 Y139.052 E.01319
;WIDTH:0.735536
G1 X175.103 Y139.179 E.01241
;WIDTH:0.692768
G1 X174.928 Y139.306 E.01168
;WIDTH:0.649999
G1 X174.548 Y139.702 E.0277
G1 X174.376 Y139.957 E.01553
G1 X174.15 Y140.456 E.02765
G1 X174.073 Y140.754 E.01554
G1 X174.026 Y141.3 E.02766
G1 X174.052 Y141.607 E.01555
G1 X174.191 Y142.138 E.02771
G1 X174.317 Y142.418 E.0155
G1 X174.624 Y142.873 E.02771
G1 X174.837 Y143.095 E.01553
G1 X175.278 Y143.421 E.02768
;WIDTH:0.655834
G1 X175.552 Y143.562 E.0157
;WIDTH:0.691323
G1 X175.809 Y143.659 E.01481
;WIDTH:0.726812
G1 X176.066 Y143.757 E.01564
G1 X176.384 Y143.783 E.01814
;WIDTH:0.719806
G1 X177.055 Y143.757 E.03779
G1 X177.344 Y143.638 E.01759
;WIDTH:0.674111
G1 X177.891 Y143.389 E.03154
;WIDTH:0.649999
G1 X178.339 Y143.009 E.02965
G1 X178.607 Y142.703 E.02053
G1 X178.875 Y142.225 E.02766
G1 X178.977 Y141.938 E.01538
G1 X179.07 Y141.394 E.02786
G1 X179.07 Y141.086 E.01555
G1 X178.977 Y140.546 E.02766
G1 X178.879 Y140.264 E.01507
G1 X178.645 Y139.845 E.02423
G1 X178.414 Y139.537 E.01943
G1 X178.021 Y139.192 E.0264
G1 X177.74 Y139.014 E.01679
;WIDTH:0.699213
G1 X177.638 Y138.952 E.00651
;WIDTH:0.748426
G1 X177.537 Y138.89 E.00695
;WIDTH:0.79764
G1 X177.435 Y138.828 E.00749
;WIDTH:0.846854
G1 X177.334 Y138.766 E.00792
;WIDTH:0.896067
G1 X177.232 Y138.704 E.00847
;WIDTH:0.945281
G1 X177.131 Y138.642 E.00889
;WIDTH:0.994494
G1 X177.029 Y138.58 E.00944
G1 X177.099 Y138.56 E.00576
;WIDTH:0.954034
G1 X177.169 Y138.54 E.00552
;WIDTH:0.913574
G1 X177.239 Y138.519 E.00529
;WIDTH:0.873114
G1 X177.309 Y138.499 E.00503
;WIDTH:0.832654
G1 X177.446 Y138.476 E.00912
;WIDTH:0.786991
G1 X177.583 Y138.453 E.00859
;WIDTH:0.741327
G1 X177.72 Y138.431 E.00806
;WIDTH:0.695663
G1 X177.857 Y138.408 E.00754
;WIDTH:0.649999
G1 X179.434 Y138.395 E.07961
G1 X179.955 Y138.357 E.02637
G1 X180.54 Y138.263 E.02991
G1 X180.478 Y138.944 E.03452
G1 X180.468 Y139.859 E.04619
G1 X180.468 Y184.31 E2.24383
M204 S1000
;WIPE_START
G1 F8640
G1 X180.475 Y184.467 E-.03629
G1 X180.586 Y184.8 E-.08105
G1 X180.744 Y185.005 E-.05976
G1 X180.978 Y185.169 E-.06598
G1 X181.379 Y185.262 E-.09505
G1 X182.672 Y185.262 E-.29856
G1 X182.672 Y185.969 E-.16331
;WIPE_END
G1 Z.6 F720
G1 X181.536 Y137.575 F10800
G1 Z.2 F720
G1 E.8 F1500
M204 S800
;TYPE:External perimeter
;WIDTH:0.598282
G1 F1200
G1 X181.584 Y137.573 E.00222
;WIDTH:0.594106
G1 X183.267 Y137.573 E.07713
M204 S1000
;WIPE_START
G1 F8640
G1 X181.584 Y137.573 E-.38861
G1 X181.536 Y137.575 E-.01109
;WIPE_END
G1 E-.4003 F2100
G1 Z.6 F720
G1 X181.075 Y184.352 F10800
G1 Z.2 F720
G1 E.8 F1500
M204 S800
;WIDTH:0.649999
G1 F1200
G1 X181.114 Y184.501 E.00777
G1 X181.212 Y184.605 E.00721
G1 X181.379 Y184.655 E.0088
G1 X183.279 Y184.655 E.09591
G1 X183.279 Y191.475 E.34427
G1 X66.954 Y191.475 E5.87195
;WIDTH:0.664117
G1 X66.201 Y191.468 E.0389
;WIDTH:0.70491
M73 P4 R45
G1 X64.943 Y191.45 E.06925
;WIDTH:0.700541
G1 X64.879 Y190.688 E.04181
G1 X65.236 Y190.783 E.0202
;WIDTH:0.70491
G1 X65.642 Y190.786 E.02235
G1 X66.049 Y190.68 E.02315
;WIDTH:0.664117
G1 X66.643 Y190.374 E.03451
;WIDTH:0.649999
G1 X66.916 Y190.139 E.01818
G1 X67.146 Y189.861 E.01821
G1 X67.326 Y189.549 E.01818
M73 Q4 S46
G1 X67.45 Y189.21 E.01822
G1 X67.522 Y188.697 E.02615
G1 X67.474 Y188.232 E.0236
G1 X67.347 Y187.798 E.02283
G1 X67.175 Y187.482 E.01816
G1 X66.952 Y187.198 E.01823
G1 X66.684 Y186.957 E.01819
G1 X66.379 Y186.764 E.01822
G1 X66.046 Y186.626 E.0182
G1 X65.692 Y186.548 E.0183
G1 X65.331 Y186.531 E.01824
G1 X64.818 Y186.656 E.02665
G1 X64.855 Y186.512 E.00751
G1 X64.913 Y186.008 E.02561
G1 X64.921 Y184.658 E.06815
G1 X68.165 Y184.658 E.16375
G1 X68.718 Y184.642 E.02793
G1 X68.883 Y184.508 E.01073
G1 X68.925 Y184.354 E.00806
G1 X68.925 Y139.862 E2.2459
G1 X68.912 Y138.833 E.05195
G1 X68.848 Y138.286 E.0278
G1 X68.703 Y137.772 E.02696
;WIDTH:0.636311
G1 X68.416 Y137.573 E.01723
G1 X68.839 Y137.594 E.0209
;WIDTH:0.649999
G1 X69.355 Y137.601 E.02605
G1 X69.854 Y137.722 E.02592
G1 X70.387 Y137.784 E.02709
G1 X71.393 Y137.801 E.05079
G1 X178.308 Y137.801 E5.39694
G1 X179.394 Y137.789 E.05482
M73 P4 R44
G1 X179.947 Y137.744 E.02801
G1 X180.862 Y137.601 E.04675
G1 X181.199 Y137.588 E.01702
;WIDTH:0.624141
G1 X181.536 Y137.575 E.0163
;WIDTH:0.633397
G1 X181.298 Y137.772 E.01517
;WIDTH:0.649999
G1 X181.144 Y138.33 E.02922
G1 X181.086 Y138.86 E.02691
G1 X181.075 Y139.856 E.05028
G1 X181.075 Y184.262 E2.24156
M204 S1000
G1 X180.956 Y184.451 F10800
;WIPE_START
G1 F8640
G1 X181.114 Y184.501 E-.05592
G1 X181.212 Y184.605 E-.033
G1 X181.379 Y184.655 E-.04025
G1 X183.279 Y184.655 E-.43872
G1 X183.279 Y185.66 E-.23211
;WIPE_END
G1 Z.6 F720
G1 X177.047 Y143.085 F10800
G1 Z.2 F720
G1 E.8 F1500
M204 S800
G1 F1200
G1 X176.905 Y143.129 E.0075
G1 X176.357 Y143.152 E.02769
G1 X175.731 Y142.979 E.03278
G1 X175.198 Y142.607 E.03281
G1 X174.82 Y142.078 E.03282
G1 X174.64 Y141.454 E.03278
G1 X174.678 Y140.805 E.03282
G1 X174.929 Y140.207 E.03274
G1 X175.366 Y139.726 E.0328
G1 X175.938 Y139.418 E.03279
G1 X176.58 Y139.318 E.0328
G1 X177.005 Y139.372 E.02163
G1 X177.514 Y139.577 E.0277
G1 X177.62 Y139.647 E.00641
G1 X178.013 Y139.993 E.02643
G1 X178.344 Y140.551 E.03275
G1 X178.471 Y141.189 E.03284
G1 X178.379 Y141.832 E.03279
G1 X178.077 Y142.407 E.03279
G1 X177.601 Y142.849 E.03279
G1 X177.132 Y143.056 E.02588
M204 S1000
G1 X177.028 Y143.232 F10800
;WIPE_START
G1 F8640
G1 X176.905 Y143.129 E-.05506
G1 X176.357 Y143.152 E-.12665
G1 X175.731 Y142.979 E-.14996
G1 X175.198 Y142.607 E-.15008
G1 X174.82 Y142.078 E-.15013
G1 X174.64 Y141.454 E-.14996
G1 X174.645 Y141.375 E-.01816
;WIPE_END
G1 Z.6 F720
G1 X175.884 Y138.601 F10800
G1 Z.2 F720
G1 E.8 F1500
M204 S800
;TYPE:Perimeter
;WIDTH:1.03703
G1 F1200
G1 X176.184 Y138.582 E.02485
;WIDTH:0.9982
G1 X176.483 Y138.562 E.0238
;WIDTH:0.994494
G1 X177.029 Y138.58 E.04323
M204 S1000
;WIPE_START
G1 F8640
G1 X176.483 Y138.562 E-.12614
G1 X176.184 Y138.582 E-.06919
G1 X175.884 Y138.601 E-.06941
;WIPE_END
G1 E-.53526 F2100
G1 Z.6 F720
G1 X95.988 Y141.279 F10800
G1 Z.2 F720
G1 E.8 F1500
M204 S800
;TYPE:External perimeter
;WIDTH:0.649999
G1 F1200
G1 X95.909 Y141.832 E.0282
G1 X95.607 Y142.407 E.03279
G1 X95.131 Y142.849 E.03279
G1 X94.535 Y143.108 E.0328
G1 X93.887 Y143.152 E.03279
G1 X93.261 Y142.979 E.03278
G1 X92.728 Y142.607 E.03281
G1 X92.35 Y142.078 E.03282
