; generated by PrusaSlicer 2.6.0+win64 on 2023-07-28 at 13:34:55 UTC


;
;
; 

; external perimeters extrusion width = 0.65mm
; perimeters extrusion width = 0.65mm
; infill extrusion width = 0.65mm
; solid infill extrusion width = 0.65mm
; top infill extrusion width = 0.60mm
; support material extrusion width = 0.55mm
; first layer extrusion width = 0.65mm

M73 P0 R43
M73 Q0 S45
M201 X1000 Y1000 Z200 E5000 ; sets maximum accelerations, mm/sec^2
M203 X200 Y200 Z12 E120 ; sets maximum feedrates, mm / sec
M204 S1250 T1250 ; sets acceleration (S) and retract acceleration (R), mm/sec^2
M205 X8.00 Y8.00 Z0.40 E4.50 ; sets the jerk limits, mm/sec
M205 S0 T0 ; sets the minimum extruding and travel feed rate, mm/sec
;TYPE:Custom
M862.3 P "MK3S" ; printer model check
M862.1 P0.6 ; nozzle diameter check
M115 U3.12.2 ; tell printer latest fw version
G90 ; use absolute coordinates
M83 ; extruder relative mode
M104 S215 ; set extruder temp
M140 S60 ; set bed temp
M190 S60 ; wait for bed temp
M109 S215 ; wait for extruder temp
G28 W ; home all without mesh bed level
G80 ; mesh bed leveling

G1 Z0.2 F720
G1 Y-3 F1000 ; go outside print area
G92 E0
G1 X60 E9 F1000 ; intro line
G1 X100 E12.5 F1000 ; intro line

G92 E0
M221 S95
G21 ; set units to millimeters
G90 ; use absolute coordinates
M83 ; use relative distances for extrusion
M900 K0.04 ; Filament gcode LA 1.5
M900 K18 ; Filament gcode LA 1.0
M107
;LAYER_CHANGE
;Z:0.2
;HEIGHT:0.2
;BEFORE_LAYER_CHANGE
G92 E0.0
;0.2


G1 E-.8 F2100
G1 Z.4 F720
;AFTER_LAYER_CHANGE
;0.2
G1 X60.746 Y135.341 F10800
G1 Z.2 F720
G1 E.8 F1500
M204 S800
;TYPE:Skirt/Brim
;WIDTH:0.65
G1 F1200
G1 X61.825 Y135.072 E.05613
G1 X64.83 Y134.985 E.15175
G1 X185.246 Y134.986 E6.07846
G1 X188.175 Y135.072 E.14792
G1 X189.538 Y135.504 E.07218
G1 X190.468 Y136.591 E.07221
G1 X190.705 Y137.678 E.05616
G1 X190.705 Y188.155 E2.54802
G1 X189.96 Y189.98 E.0995
M73 Q0 S44
G1 X186.192 Y193.825 E.27175
G1 X184.33 Y194.607 E.10194
G1 X66.335 Y194.607 E5.95625
G1 X64.626 Y193.969 E.09208
G1 X60.193 Y190.124 E.29622
G1 X59.411 Y188.927 E.07217
G1 X59.295 Y188.155 E.03941
G1 X59.295 Y137.678 E2.54802
G1 X59.687 Y136.302 E.07222
G1 X60.679 Y135.401 E.06765
M204 S1000
; printing object Chassis_rev2-2 id:0 copy 0
;WIPE_START
G1 F8640
G1 X61.825 Y135.072 E-.2753
G1 X64.096 Y135.006 E-.5247
;WIPE_END
G1 Z.6 F720
G1 X65.023 Y137.592 F10800
G1 Z.2 F720
M73 P1 R43
G1 E.8 F1500
M204 S800
;TYPE:Support material interface
;WIDTH:0.55
G1 F1200
G1 X64.83 Y137.592 E.00814
G1 X64.83 Y140.099 E.1057
G1 X65.276 Y140.099 E.01881
G1 X65.276 Y137.592 E.1057
G1 X65.561 Y137.592 E.01202
M73 Q1 S44
G1 X65.561 Y138.165 E.02416
M204 S1000
G1 X65.682 Y138.841 F10800
M204 S800
G1 F1200
G1 X66.014 Y139.174 E.01983
G1 X66.083 Y139.174 E.00291
G1 X66.083 Y140.099 E.039
G1 X66.89 Y140.099 E.03403
G1 X66.89 Y139.174 E.039
G1 X67.626 Y139.174 E.03103
G1 X67.626 Y140.099 E.039
G1 X67.144 Y140.099 E.02032
M204 S1000
;WIPE_START
G1 F8640
G1 X67.626 Y140.099 E-.1113
G1 X67.626 Y139.174 E-.21359
G1 X66.89 Y139.174 E-.16994
G1 X66.89 Y140.099 E-.21359
G1 X66.493 Y140.099 E-.09158
;WIPE_END
G1 Z.6 F720
G1 X64.251 Y140.678 F10800
G1 Z.2 F720
G1 E.8 F1500
M204 S800
;TYPE:Support material
;WIDTH:0.65
G1 F1200
G1 X67.555 Y140.678 E.16678
G1 X67.555 Y183.288 E2.1509
G1 X65.985 Y183.288 E.07925
G1 X65.49 Y183.783 E.03534
G1 X65.49 Y187.573 E.19131
G1 X65.704 Y187.957 E.02219
G1 X65.847 Y188.045 E.00848
G1 X65.963 Y188.155 E.00807
G1 X61.902 Y188.155 E.20499
G1 X61.902 Y137.678 E2.54802
G1 X64.251 Y137.678 E.11857
G1 X64.251 Y140.587 E.14684
M204 S1000
G1 X66.99 Y183.015 F10800
M204 S800
G1 F1200
G1 X66.99 Y141.224 E2.10956
G1 X66.316 Y141.224 E.03402
G1 X66.316 Y182.742 E2.09578
G1 X65.758 Y182.742 E.02817
G1 X65.641 Y182.859 E.00835
G1 X65.641 Y141.224 E2.10169
G1 X64.967 Y141.224 E.03402
G1 X64.967 Y183.533 E2.13571
G1 X64.943 Y183.557 E.00171
G1 X64.943 Y187.609 E.20454
G1 X64.292 Y187.609 E.03286
G1 X64.292 Y141.224 E2.34146
G1 X63.705 Y141.224 E.02963
M73 P1 R42
G1 X63.705 Y138.224 E.15144
G1 X63.618 Y138.224 E.00439
G1 X63.618 Y187.609 E2.4929
G1 X62.943 Y187.609 E.03407
G1 X62.943 Y137.951 E2.50668
M204 S1000
;WIPE_START
G1 F8640
G1 X62.943 Y141.416 E-.8
;WIPE_END
G1 Z.6 F720
G1 X182.856 Y140.099 F10800
G1 Z.2 F720
G1 E.8 F1500
M204 S800
;TYPE:Support material interface
;WIDTH:0.55
G1 F1200
G1 X182.374 Y140.099 E.02032
G1 X182.374 Y139.174 E.039
G1 X183.11 Y139.174 E.03103
G1 X183.11 Y140.099 E.039
G1 X183.917 Y140.099 E.03403
G1 X183.917 Y139.174 E.039
G1 X184.65 Y139.174 E.03091
G1 X184.724 Y139.1 E.00441
G1 X184.724 Y140.099 E.04212
G1 X185.17 Y140.099 E.01881
G1 X185.17 Y137.592 E.1057
G1 X185.104 Y137.592 E.00278
G1 X185.104 Y138.721 E.0476
G1 X184.903 Y138.921 E.01196
M204 S1000
;WIPE_START
G1 F8640
G1 X185.104 Y138.721 E-.06547
G1 X185.104 Y137.592 E-.26069
G1 X185.17 Y137.592 E-.01524
G1 X185.17 Y139.578 E-.4586
;WIPE_END
G1 Z.6 F720
G1 X188.098 Y188.155 F10800
G1 Z.2 F720
M73 P2 R42
G1 E.8 F1500
M204 S800
;TYPE:Support material
;WIDTH:0.65
G1 F1200
G1 X185.175 Y188.155 E.14755
G1 X185.175 Y183.78 E.22085
G1 X184.68 Y183.285 E.03534
G1 X182.445 Y183.285 E.11282
M73 Q2 S44
G1 X182.445 Y140.678 E2.15075
G1 X185.749 Y140.678 E.16678
G1 X185.749 Y137.678 E.15144
G1 X188.098 Y137.678 E.11857
G1 X188.098 Y188.064 E2.54343
M204 S1000
G1 X187.057 Y187.882 F10800
M204 S800
G1 F1200
G1 X187.057 Y138.224 E2.50668
G1 X186.382 Y138.224 E.03407
G1 X186.382 Y187.609 E2.4929
G1 X185.721 Y187.609 E.03337
G1 X185.708 Y141.224 E2.34146
G1 X185.033 Y141.224 E.03407
G1 X185.033 Y182.866 E2.10204
G1 X184.906 Y182.739 E.00907
G1 X184.359 Y182.739 E.02761
G1 X184.359 Y141.224 E2.09563
G1 X183.684 Y141.224 E.03407
G1 X183.684 Y182.739 E2.09563
G1 X183.01 Y182.739 E.03402
G1 X183.01 Y140.951 E2.10941
M204 S1000
;WIPE_START
G1 F8640
G1 X183.01 Y144.416 E-.8
;WIPE_END
G1 Z.6 F720
G1 X68.78 Y185.239 F10800
G1 Z.2 F720
M73 Q2 S43
G1 E.8 F1500
M204 S800
;TYPE:Perimeter
;WIDTH:0.649999
G1 F1200
G1 X69.062 Y185.152 E.0149
G1 X69.292 Y184.97 E.01481
G1 X69.461 Y184.706 E.01582
G1 X69.532 Y184.354 E.01813
G1 X69.516 Y138.778 E2.30062
G1 X70.276 Y138.893 E.0388
G1 X70.823 Y138.925 E.02766
G1 X71.334 Y138.931 E.0258
G1 X93.086 Y138.931 E1.09802
G1 X92.705 Y139.123 E.02154
M73 P3 R42
G1 X92.458 Y139.306 E.01552
G1 X92.079 Y139.701 E.02763
G1 X91.906 Y139.957 E.0156
G1 X91.68 Y140.456 E.02765
G1 X91.603 Y140.754 E.01554
G1 X91.56 Y141.258 E.02553
G1 X91.582 Y141.607 E.01765
G1 X91.721 Y142.138 E.02771
G1 X91.847 Y142.418 E.0155
G1 X92.154 Y142.872 E.02767
G1 X92.539 Y143.222 E.02626
G1 X79.56 Y143.222 E.65516
G1 X79.403 Y143.235 E.00795
M73 Q3 S43
G1 X79.124 Y143.333 E.01493
G1 X78.823 Y143.598 E.02024
G1 X78.681 Y143.894 E.01657
G1 X78.649 Y144.132 E.01212
G1 X78.649 Y159.084 E.75476
G1 X78.544 Y159.284 E.0114
G1 X78.453 Y159.556 E.01448
G1 X78.359 Y160.113 E.02851
G1 X78.358 Y160.415 E.01524
G1 X78.449 Y160.957 E.02774
G1 X78.649 Y161.434 E.02611
G1 X78.65 Y168.961 E.37995
;WIDTH:0.648925
G1 X78.664 Y169.906 E.04762
;WIDTH:0.649999
G1 X78.649 Y170.569 E.03348
G1 X78.649 Y175.19 E.23326
G1 X78.544 Y175.39 E.0114
G1 X78.453 Y175.662 E.01448
G1 X78.359 Y176.219 E.02851
G1 X78.358 Y176.521 E.01524
G1 X78.449 Y177.063 E.02774
G1 X78.649 Y177.54 E.02611
G1 X78.655 Y185.215 E.38743
G1 X78.738 Y185.511 E.01552
G1 X78.905 Y185.751 E.01476
G1 X79.166 Y185.94 E.01627
G1 X79.56 Y186.029 E.02039
G1 X168.503 Y186.029 E4.48974
;WIDTH:0.696649
G1 X168.762 Y186.053 E.01414
;WIDTH:0.743298
G1 X169.02 Y186.076 E.01508
;WIDTH:0.789947
G1 X169.278 Y186.099 E.01609
;WIDTH:0.836596
G1 X169.537 Y186.123 E.01717
G1 X170.085 Y186.105 E.03618
;WIDTH:0.819101
G1 X170.707 Y186.114 E.04015
G1 X170.826 Y186.097 E.00776
;WIDTH:0.785217
G1 X170.946 Y186.08 E.00748
;WIDTH:0.751332
G1 X171.065 Y186.063 E.00708
;WIDTH:0.717447
G1 X171.339 Y186.046 E.0154
;WIDTH:0.683723
G1 X171.613 Y186.029 E.01463
;WIDTH:0.649999
G1 X177.831 Y186.029 E.31388
G1 X177.988 Y186.016 E.00795
G1 X178.256 Y185.924 E.0143
G1 X178.499 Y185.738 E.01545
G1 X178.688 Y185.425 E.01846
G1 X178.741 Y185.119 E.01568
G1 X178.741 Y144.132 E2.06898
G1 X178.619 Y143.677 E.02378
G1 X178.419 Y143.437 E.01577
G1 X178.048 Y143.265 E.02064
G1 X178.414 Y142.943 E.02461
G1 X178.607 Y142.703 E.01555
G1 X178.875 Y142.225 E.02766
G1 X178.976 Y141.938 E.01536
G1 X179.07 Y141.394 E.02787
G1 X179.07 Y141.086 E.01555
G1 X178.977 Y140.546 E.02766
G1 X178.875 Y140.255 E.01557
G1 X178.724 Y139.985 E.01562
G1 X178.414 Y139.537 E.0275
G1 X178.002 Y139.175 E.02768
G1 X177.535 Y138.931 E.0266
G1 X179.428 Y138.916 E.09556
G1 X179.931 Y138.862 E.02554
G1 X180.463 Y138.738 E.02757
G1 X180.479 Y138.863 E.00636
G1 X180.468 Y184.351 E2.29618
G1 X180.549 Y184.728 E.01946
G1 X180.724 Y184.984 E.01565
G1 X181.026 Y185.191 E.01848
G1 X181.379 Y185.262 E.01818
G1 X183.198 Y185.262 E.09182
G1 X183.198 Y187.082 E.09187
G1 X183.198 Y190.868 E.19111
G1 X172.256 Y190.882 E.55234
G1 X172.392 Y190.666 E.01288
G1 X172.609 Y190.163 E.02765
G1 X172.708 Y189.623 E.02771
G1 X172.71 Y189.307 E.01595
G1 X172.633 Y188.857 E.02305
G1 X172.515 Y188.475 E.02018
G1 X172.247 Y187.997 E.02766
G1 X172.054 Y187.757 E.01555
G1 X171.642 Y187.395 E.02768
G1 X171.38 Y187.234 E.01552
;WIDTH:0.692275
G1 X171.2 Y187.147 E.01079
;WIDTH:0.73455
G1 X171.019 Y187.06 E.01155
;WIDTH:0.776826
G1 X170.838 Y186.974 E.01223
;WIDTH:0.819101
G1 X170.658 Y186.887 E.0129
G1 X170.133 Y186.861 E.03392
;WIDTH:0.836596
G1 X169.587 Y186.913 E.0362
G1 X169.489 Y186.966 E.00735
;WIDTH:0.79289
G1 X169.391 Y187.018 E.00692
;WIDTH:0.749183
G1 X169.293 Y187.071 E.00654
;WIDTH:0.705476
G1 X168.93 Y187.298 E.02359
;WIDTH:0.677738
G1 X168.568 Y187.526 E.02258
;WIDTH:0.649999
G1 X168.189 Y187.921 E.02763
G1 X168.016 Y188.177 E.0156
G1 X167.79 Y188.676 E.02765
G1 X167.713 Y188.976 E.01563
G1 X167.667 Y189.523 E.02771
G1 X167.729 Y190.032 E.02588
G1 X167.879 Y190.459 E.02285
G1 X168.149 Y190.892 E.02576
G1 X167.331 Y190.868 E.04131
G1 X76.207 Y190.878 E4.59983
;WIDTH:0.629403
G1 X75.265 Y190.892 E.04594
;WIDTH:0.649999
G1 X74.289 Y190.868 E.04928
G1 X67.467 Y190.868 E.34437
G1 X67.467 Y190.409 E.02317
G1 X67.705 Y190.114 E.01913
G1 X67.919 Y189.704 E.02335
G1 X68.067 Y189.225 E.02531
G1 X68.129 Y188.586 E.03241
G1 X68.067 Y188.079 E.02578
G1 X67.919 Y187.596 E.0255
G1 X67.705 Y187.186 E.02335
G1 X67.467 Y186.891 E.01913
G1 X67.467 Y185.265 E.08208
G1 X68.693 Y185.262 E.06189
M204 S1000
;WIPE_START
G1 F8640
G1 X69.062 Y185.152 E-.08891
G1 X69.292 Y184.97 E-.06772
G1 X69.461 Y184.706 E-.07238
G1 X69.532 Y184.354 E-.08291
G1 X69.531 Y182.24 E-.48808
;WIPE_END
G1 Z.6 F720
G1 X171.52 Y190.751 F10800
G1 Z.2 F720
G1 E.8 F1500
M204 S800
;TYPE:External perimeter
;WIDTH:0.650042
G1 F1200
G1 X171.481 Y190.779 E.00242
;WIDTH:0.649999
G1 X171.293 Y190.897 E.0112
G1 X170.688 Y191.089 E.03204
;WIDTH:0.623884
G1 X170.501 Y191.131 E.00926
;WIDTH:0.606247
G1 X169.933 Y191.14 E.02661
;WIDTH:0.643595
G1 X169.573 Y191.058 E.01844
;WIDTH:0.683507
G1 X169.214 Y190.977 E.0196
G1 X168.867 Y190.758 E.02186
;WIDTH:0.650042
G1 X168.622 Y190.518 E.01731
G1 X168.443 Y190.235 E.0169
G1 X168.326 Y189.923 E.01682
G1 X168.272 Y189.573 E.01788
G1 X168.318 Y189.026 E.02771
G1 X168.569 Y188.427 E.03279
G1 X169.006 Y187.946 E.03281
G1 X169.578 Y187.638 E.0328
G1 X170.22 Y187.538 E.0328
G1 X170.645 Y187.592 E.02163
G1 X171.154 Y187.797 E.0277
G1 X171.653 Y188.213 E.0328
G1 X171.985 Y188.772 E.03282
G1 X172.111 Y189.409 E.03278
G1 X172.012 Y190.054 E.03294
G1 X171.813 Y190.443 E.02206
G1 X171.582 Y190.685 E.01689
M204 S1000
G1 X171.53 Y190.798 F10800
;WIPE_START
G1 F8640
G1 X171.481 Y190.779 E-.03186
G1 X171.293 Y190.897 E-.05125
G1 X170.688 Y191.089 E-.14656
G1 X170.501 Y191.131 E-.04425
G1 X169.933 Y191.14 E-.13117
G1 X169.573 Y191.058 E-.08525
G1 X169.214 Y190.977 E-.08498
G1 X168.867 Y190.758 E-.09475
G1 X168.622 Y190.518 E-.07919
G1 X168.505 Y190.332 E-.05074
;WIPE_END
G1 Z.6 F720
G1 X175.009 Y143.222 F10800
G1 Z.2 F720
G1 E.8 F1500
M204 S800
;TYPE:Perimeter
;WIDTH:0.649999
G1 F1200
G1 X95.627 Y143.222 E4.00711
G1 X95.944 Y142.943 E.02132
M73 P4 R41
G1 X96.137 Y142.703 E.01555
G1 X96.405 Y142.225 E.02766
G1 X96.507 Y141.934 E.01557
G1 X96.6 Y141.394 E.02766
G1 X96.6 Y141.086 E.01555
G1 X96.507 Y140.546 E.02766
G1 X96.405 Y140.255 E.01557
G1 X96.137 Y139.777 E.02766
G1 X95.944 Y139.537 E.01555
G1 X95.532 Y139.175 E.02768
G1 X95.113 Y138.931 E.02448
G1 X175.555 Y138.931 E4.06062
G1 X175.175 Y139.123 E.02149
M73 Q4 S43
G1 X174.928 Y139.306 E.01552
G1 X174.548 Y139.702 E.0277
G1 X174.376 Y139.957 E.01553
G1 X174.15 Y140.456 E.02765
G1 X174.073 Y140.754 E.01554
G1 X174.03 Y141.258 E.02553
G1 X174.052 Y141.607 E.01765
G1 X174.191 Y142.138 E.02771
G1 X174.317 Y142.418 E.0155
G1 X174.624 Y142.873 E.02771
G1 X174.942 Y143.161 E.02166
M204 S1000
;WIPE_START
G1 F8640
G1 X171.477 Y143.164 E-.8
;WIPE_END
G1 Z.6 F720
G1 X176.202 Y143.147 F10800
G1 Z.2 F720
G1 E.8 F1500
M204 S800
;TYPE:External perimeter
;WIDTH:0.698893
G1 F1200
G1 X175.73 Y142.981 E.02729
;WIDTH:0.653713
G1 X175.198 Y142.607 E.03303
;WIDTH:0.649999
G1 X174.82 Y142.078 E.03282
G1 X174.64 Y141.454 E.03278
G1 X174.678 Y140.806 E.03277
G1 X174.703 Y140.706 E.0052
G1 X174.929 Y140.207 E.02765
G1 X175.366 Y139.726 E.0328
;WIDTH:0.694758
G1 X175.547 Y139.603 E.01186
;WIDTH:0.739517
G1 X175.727 Y139.48 E.01263
;WIDTH:0.784276
G1 X175.908 Y139.358 E.01346
;WIDTH:0.832393
G1 X175.965 Y139.316 E.00465
;WIDTH:0.880509
G1 X176.022 Y139.273 E.00497
G1 X176.567 Y139.221 E.03813
;WIDTH:0.863078
G1 X176.944 Y139.247 E.02577
G1 X177.058 Y139.313 E.00898
;WIDTH:0.820463
G1 X177.172 Y139.379 E.00852
;WIDTH:0.777847
G1 X177.286 Y139.445 E.00805
;WIDTH:0.735231
G1 X177.4 Y139.511 E.00758
;WIDTH:0.692615
G1 X177.514 Y139.577 E.00712
;WIDTH:0.649999
G1 X178.013 Y139.993 E.03279
G1 X178.272 Y140.422 E.0253
G1 X178.379 Y140.648 E.01262
G1 X178.471 Y141.189 E.0277
G1 X178.379 Y141.832 E.03279
G1 X178.082 Y142.398 E.03227
G1 X177.601 Y142.849 E.03328
;WIDTH:0.689149
G1 X177.012 Y143.126 E.03497
G1 X176.358 Y143.17 E.03522
;WIDTH:0.698893
G1 X176.289 Y143.165 E.00377
M204 S1000
;WIPE_START
G1 F8640
G1 X175.73 Y142.981 E-.13589
G1 X175.198 Y142.607 E-.15016
G1 X174.82 Y142.078 E-.15013
G1 X174.64 Y141.454 E-.14996
G1 X174.678 Y140.806 E-.14988
G1 X174.703 Y140.706 E-.0238
G1 X174.775 Y140.547 E-.04018
;WIPE_END
G1 Z.6 F720
G1 X68.621 Y184.658 F10800
G1 Z.2 F720
G1 E.8 F1500
M204 S800
;WIDTH:0.649999
G1 F1200
G1 X68.718 Y184.642 E.00496
G1 X68.877 Y184.518 E.01018
G1 X68.925 Y184.354 E.00863
G1 X68.914 Y139.467 E2.26584
G1 X68.912 Y138.831 E.0321
G1 X68.805 Y138.124 E.03609
G1 X69.272 Y138.124 E.02357
G1 X70.314 Y138.287 E.05324
G1 X70.83 Y138.318 E.02609
G1 X71.331 Y138.324 E.02529
G1 X92.66 Y138.324 E1.07666
;WIDTH:0.696131
G1 X92.827 Y138.347 E.00916
;WIDTH:0.742262
G1 X92.995 Y138.37 E.00986
;WIDTH:0.788394
G1 X93.163 Y138.393 E.01051
;WIDTH:0.834525
G1 X93.331 Y138.416 E.01116
;WIDTH:0.880656
G1 X93.498 Y138.439 E.01174
G1 X94.319 Y138.424 E.0572
;WIDTH:0.851459
G1 X94.473 Y138.404 E.01044
;WIDTH:0.811167
G1 X94.628 Y138.384 E.00998
;WIDTH:0.770875
G1 X94.783 Y138.364 E.00946
;WIDTH:0.730583
G1 X94.938 Y138.344 E.00894
;WIDTH:0.690291
G1 X95.093 Y138.324 E.00841
;WIDTH:0.649999
G1 X175.13 Y138.324 E4.04017
;WIDTH:0.696101
G1 X175.298 Y138.347 E.00921
;WIDTH:0.742203
G1 X175.465 Y138.37 E.0098
;WIDTH:0.788305
G1 X175.633 Y138.393 E.01051
;WIDTH:0.834407
G1 X175.801 Y138.416 E.01116
;WIDTH:0.880509
G1 X175.968 Y138.439 E.01174
G1 X176.996 Y138.431 E.0716
;WIDTH:0.863078
G1 X177.102 Y138.412 E.00734
;WIDTH:0.82517
G1 X177.208 Y138.393 E.007
;WIDTH:0.787261
G1 X177.39 Y138.37 E.01135
;WIDTH:0.741507
G1 X177.573 Y138.347 E.01071
;WIDTH:0.695753
G1 X177.756 Y138.324 E.01001
;WIDTH:0.649999
G1 X179.364 Y138.312 E.08117
G1 X179.866 Y138.258 E.02549
G1 X180.372 Y138.131 E.02633
G1 X181.194 Y138.13 E.04149
G1 X181.144 Y138.33 E.01041
G1 X181.086 Y138.863 E.02706
G1 X181.075 Y184.352 E2.29623
G1 X181.102 Y184.477 E.00646
G1 X181.217 Y184.609 E.00884
G1 X181.379 Y184.655 E.0085
G1 X183.805 Y184.655 E.12246
G1 X183.805 Y187.082 E.12251
