; generated by PrusaSlicer 2.6.0+win64 on 2023-07-27 at 21:35:09 UTC


;
;
; 

; external perimeters extrusion width = 0.65mm
; perimeters extrusion width = 0.65mm
; infill extrusion width = 0.65mm
; solid infill extrusion width = 0.65mm
; top infill extrusion width = 0.60mm
; first layer extrusion width = 0.65mm

; external perimeters extrusion width = 0.65mm
; perimeters extrusion width = 0.65mm
; infill extrusion width = 0.65mm
; solid infill extrusion width = 0.65mm
; top infill extrusion width = 0.60mm
; first layer extrusion width = 0.65mm

M73 P0 R8
M73 Q0 S8
M201 X1000 Y1000 Z200 E5000 ; sets maximum accelerations, mm/sec^2
M203 X200 Y200 Z12 E120 ; sets maximum feedrates, mm / sec
M204 S1250 T1250 ; sets acceleration (S) and retract acceleration (R), mm/sec^2
M205 X8.00 Y8.00 Z0.40 E4.50 ; sets the jerk limits, mm/sec
M205 S0 T0 ; sets the minimum extruding and travel feed rate, mm/sec
;TYPE:Custom
M862.3 P "MK3S" ; printer model check
M862.1 P0.6 ; nozzle diameter check
M115 U3.12.2 ; tell printer latest fw version
G90 ; use absolute coordinates
M83 ; extruder relative mode
M104 S215 ; set extruder temp
M140 S60 ; set bed temp
M190 S60 ; wait for bed temp
M109 S215 ; wait for extruder temp
G28 W ; home all without mesh bed level
G80 ; mesh bed leveling

G1 Z0.2 F720
G1 Y-3 F1000 ; go outside print area
G92 E0
G1 X60 E9 F1000 ; intro line
G1 X100 E12.5 F1000 ; intro line

G92 E0
M221 S95
G21 ; set units to millimeters
G90 ; use absolute coordinates
M83 ; use relative distances for extrusion
M900 K0.04 ; Filament gcode LA 1.5
M900 K18 ; Filament gcode LA 1.0
M107
;LAYER_CHANGE
;Z:0.2
;HEIGHT:0.2
;BEFORE_LAYER_CHANGE
G92 E0.0
;0.2


G1 E-.8 F2100
M73 P1 R8
M73 Q1 S8
G1 Z.4 F720
;AFTER_LAYER_CHANGE
;0.2
G1 X110.373 Y97.316 F10800
G1 Z.2 F720
M73 P1 R7
G1 E.8 F1500
M204 S800
;TYPE:Skirt/Brim
;WIDTH:0.65
G1 F1200
G1 X115.367 Y91.785 E.37617
G1 X116.118 Y91.246 E.04666
G1 X117.417 Y90.676 E.07161
G1 X118.323 Y90.489 E.0467
G1 X119.677 Y90.489 E.06835
G1 X120.552 Y90.666 E.04506
G1 X138.495 Y96.574 E.95358
G1 X139.679 Y97.377 E.07222
G1 X140.287 Y99.05 E.08986
M73 Q1 S7
G1 X140.287 Y110.95 E.6007
G1 X139.895 Y112.325 E.07217
M73 Q2 S7
G1 X138.495 Y113.426 E.08991
G1 X120.166 Y119.43 E.9736
G1 X118.752 Y119.547 E.07162
M73 P2 R7
G1 X117.417 Y119.324 E.06832
G1 X116.118 Y118.754 E.07161
G1 X115.05 Y117.923 E.06831
G1 X110.373 Y112.684 E.35451
G1 X109.713 Y110.95 E.09366
G1 X109.713 Y99.05 E.6007
G1 X110.341 Y97.4 E.08912
M204 S1000
; printing object Down_Fishino_Micro_USB_Connector_rev0 id:0 copy 0
;WIPE_START
G1 F8640
G1 X112.652 Y94.818 E-.8
;WIPE_END
G1 Z.6 F720
G1 X120.871 Y97.888 F10800
G1 Z.2 F720
G1 E.8 F1500
M204 S800
;TYPE:Perimeter
;WIDTH:0.649999
G1 F1200
G1 X120.871 Y112.106 E.71771
G1 X120.41 Y111.73 E.03003
G1 X119.939 Y111.5 E.02646
G1 X119.376 Y111.353 E.02937
G1 X119.069 Y111.327 E.01555
G1 X118.489 Y111.376 E.02938
G1 X118.163 Y111.46 E.01699
G1 X117.59 Y111.73 E.03197
G1 X117.13 Y112.106 E.02999
G1 X117.132 Y110.73 E.06946
G1 X117.087 Y110.447 E.01446
G1 X116.883 Y110.103 E.02019
G1 X116.562 Y109.884 E.01962
G1 X116.222 Y109.818 E.01748
G1 X113.452 Y109.818 E.13983
G1 X113.452 Y100.182 E.48641
G1 X116.222 Y100.182 E.13983
G1 X116.562 Y100.116 E.01748
M73 Q3 S7
G1 X116.883 Y99.897 E.01962
G1 X117.082 Y99.571 E.01928
G1 X117.132 Y99.27 E.0154
G1 X117.13 Y97.888 E.06976
G1 X117.406 Y98.141 E.0189
G1 X117.856 Y98.411 E.02649
G1 X118.405 Y98.606 E.02941
G1 X118.709 Y98.658 E.01557
M73 P3 R7
G1 X119.291 Y98.658 E.02938
G1 X119.595 Y98.606 E.01557
G1 X120.144 Y98.411 E.02941
G1 X120.594 Y98.141 E.02649
G1 X120.804 Y97.949 E.01436
M204 S1000
;WIPE_START
G1 F8640
G1 X120.82 Y101.414 E-.8
;WIPE_END
G1 Z.6 F720
G1 X119.594 Y94.211 F10800
G1 Z.2 F720
G1 E.8 F1500
M204 S800
;TYPE:External perimeter
;WIDTH:0.650985
G1 F1200
G1 X120.044 Y94.414 E.02496
;WIDTH:0.651636
G1 X120.529 Y94.856 E.03321
;WIDTH:0.652285
G1 X120.84 Y95.433 E.03321
G1 X120.944 Y96.078 E.0331
;WIDTH:0.668244
G1 X120.878 Y96.72 E.03356
G1 X120.704 Y97.116 E.02249
;WIDTH:0.651801
G1 X120.502 Y97.399 E.0176
;WIDTH:0.649999
G1 X120.252 Y97.639 E.01749
G1 X119.941 Y97.839 E.01866
G1 X119.392 Y98.034 E.02941
G1 X118.813 Y98.051 E.02924
G1 X118.608 Y98.034 E.01038
G1 X118.059 Y97.839 E.02941
G1 X117.705 Y97.604 E.02145
G1 X117.384 Y97.242 E.02442
;WIDTH:0.670371
G1 X117.144 Y96.802 E.02615
;WIDTH:0.671722
G1 X117.121 Y96.72 E.00445
G1 X117.057 Y96.159 E.02952
;WIDTH:0.649138
G1 X117.132 Y95.529 E.03198
;WIDTH:0.649584
G1 X117.411 Y94.939 E.03292
;WIDTH:0.64969
G1 X117.872 Y94.472 E.03311
;WIDTH:0.649833
G1 X118.461 Y94.186 E.03304
;WIDTH:0.650206
G1 X119.113 Y94.113 E.03313
G1 X119.51 Y94.181 E.02034
M204 S1000
G1 X119.953 Y93.873 F10800
;WIPE_START
G1 F8640
G1 X120.044 Y94.414 E-.13453
G1 X120.529 Y94.856 E-.15152
G1 X120.84 Y95.433 E-.15135
G1 X120.944 Y96.078 E-.15086
G1 X120.878 Y96.72 E-.14902
G1 X120.769 Y96.969 E-.06272
;WIPE_END
G1 Z.6 F720
G1 X116.51 Y110.635 F10800
G1 Z.2 F720
G1 E.8 F1500
M204 S800
;WIDTH:0.649999
G1 F1200
G1 X116.389 Y110.476 E.01009
G1 X116.222 Y110.425 E.00881
G1 X112.845 Y110.425 E.17047
G1 X112.845 Y99.575 E.5477
G1 X116.222 Y99.575 E.17047
G1 X116.335 Y99.553 E.00581
G1 X116.487 Y99.419 E.01023
G1 X116.525 Y99.271 E.00771
G1 X116.523 Y98.098 E.05921
;WIDTH:0.651821
G1 X116.515 Y97.381 E.0363
;WIDTH:0.671722
G1 X116.452 Y96.164 E.06372
;WIDTH:0.660119
G1 X116.487 Y95.656 E.02613
G1 X116.609 Y95.174 E.02552
;WIDTH:0.652289
G1 X116.922 Y94.579 E.03407
;WIDTH:0.661654
G1 X117.276 Y94.177 E.02756
G1 X117.686 Y93.87 E.02635
;WIDTH:0.650984
G1 X118.238 Y93.623 E.03058
;WIDTH:0.661737
G1 X118.765 Y93.517 E.02766
G1 X119.236 Y93.511 E.02424
;WIDTH:0.650034
G1 X119.762 Y93.623 E.02715
;WIDTH:0.650985
G1 X120.314 Y93.87 E.03058
;WIDTH:0.66166
G1 X120.742 Y94.196 E.02768
G1 X121.114 Y94.636 E.02964
;WIDTH:0.652285
G1 X121.391 Y95.174 E.03066
;WIDTH:0.660118
G1 X121.513 Y95.656 E.02552
G1 X121.543 Y96.217 E.02883
;WIDTH:0.672109
G1 X121.494 Y96.841 E.03275
G1 X121.487 Y97.368 E.02757
;WIDTH:0.651801
G1 X121.475 Y98.039 E.03398
;WIDTH:0.649999
G1 X121.478 Y112.121 E.71084
;WIDTH:0.653271
G1 X121.49 Y112.842 E.0366
;WIDTH:0.653687
G1 X121.532 Y114.173 E.06763
;WIDTH:0.653876
G1 X121.416 Y114.753 E.03005
G1 X121.315 Y115.001 E.0136
;WIDTH:0.655264
G1 X121.029 Y115.486 E.02867
G1 X120.834 Y115.709 E.01508
;WIDTH:0.655861
G1 X120.413 Y116.066 E.02813
G1 X120.145 Y116.219 E.01573
;WIDTH:0.65677
G1 X119.649 Y116.41 E.02713
G1 X119.327 Y116.471 E.01673
;WIDTH:0.657622
G1 X118.815 Y116.487 E.02618
G1 X118.351 Y116.41 E.02404
;WIDTH:0.656774
G1 X117.771 Y116.176 E.03192
;WIDTH:0.659169
G1 X117.296 Y115.838 E.02987
G1 X116.976 Y115.493 E.02411
;WIDTH:0.654906
G1 X116.651 Y114.925 E.0333
;WIDTH:0.66047
G1 X116.496 Y114.393 E.02845
G1 X116.451 Y113.921 E.02435
;WIDTH:0.658006
M73 Q4 S7
G1 X116.522 Y112.451 E.07527
;WIDTH:0.649999
G1 X116.513 Y110.725 E.08713
M204 S1000
;WIPE_START
G1 F8640
G1 X116.389 Y110.476 E-.06423
G1 X116.222 Y110.425 E-.04032
G1 X113.21 Y110.425 E-.69545
;WIPE_END
G1 Z.6 F720
M73 P4 R7
G1 X117.527 Y115.2 F10800
G1 Z.2 F720
G1 E.8 F1500
M204 S800
;WIDTH:0.659169
G1 F1200
G1 X117.492 Y115.165 E.00254
;WIDTH:0.654906
G1 X117.221 Y114.72 E.02651
;WIDTH:0.649374
G1 X117.066 Y114.084 E.03301
;WIDTH:0.656243
G1 X117.09 Y113.442 E.03276
G1 X117.214 Y113.035 E.0217
;WIDTH:0.654129
G1 X117.39 Y112.738 E.01755
;WIDTH:0.649999
G1 X117.618 Y112.474 E.01761
G1 X117.887 Y112.259 E.01738
G1 X118.365 Y112.032 E.02671
G1 X118.54 Y111.981 E.0092
G1 X119.12 Y111.931 E.02939
G1 X119.786 Y112.087 E.03453
G1 X120.156 Y112.289 E.02128
G1 X120.423 Y112.514 E.01763
G1 X120.641 Y112.783 E.01748
;WIDTH:0.656323
G1 X120.813 Y113.096 E.01822
G1 X120.908 Y113.443 E.01835
;WIDTH:0.653687
G1 X120.939 Y113.957 E.02615
;WIDTH:0.653876
G1 X120.822 Y114.613 E.03385
;WIDTH:0.655264
G1 X120.512 Y115.158 E.03192
;WIDTH:0.65916
G1 X120.32 Y115.355 E.0141
G1 X119.942 Y115.646 E.02444
;WIDTH:0.65677
G1 X119.447 Y115.83 E.02695
;WIDTH:0.657624
G1 X119.185 Y115.872 E.01356
G1 X118.674 Y115.862 E.02612
;WIDTH:0.64965
G1 X118.1 Y115.666 E.0306
;WIDTH:0.659169
G1 X117.679 Y115.355 E.02682
G1 X117.59 Y115.264 E.00652
M204 S1000
G1 X117.48 Y115.214 F10800
;WIPE_START
G1 F8640
G1 X117.492 Y115.165 E-.03217
G1 X117.221 Y114.72 E-.12031
G1 X117.066 Y114.084 E-.15115
G1 X117.09 Y113.442 E-.14834
G1 X117.214 Y113.035 E-.09824
G1 X117.39 Y112.738 E-.07971
G1 X117.618 Y112.474 E-.08055
G1 X117.887 Y112.259 E-.07951
G1 X117.926 Y112.24 E-.01002
;WIPE_END
G1 Z.6 F720
G1 X120.625 Y99.648 F10800
G1 Z.2 F720
G1 E.8 F1500
M204 S800
;TYPE:Solid infill
;WIDTH:0.656402
G1 F1200
G1 X119.99 Y99.013 E.04581
G1 X119.75 Y99.098 E.01299
G1 X119.284 Y99.174 E.02409
G1 X120.352 Y100.242 E.07705
G1 X120.351 Y101.109 E.04423
G1 X118.368 Y99.126 E.14306
G1 X117.643 Y98.879 E.03907
G1 X117.639 Y99.265 E.01969
G1 X120.351 Y101.977 E.19565
G1 X120.351 Y102.844 E.04423
G1 X117.467 Y99.96 E.20805
G1 X117.261 Y100.251 E.01819
G1 X117.06 Y100.42 E.0134
G1 X120.351 Y103.711 E.23742
G1 X120.35 Y104.579 E.04428
G1 X116.448 Y100.676 E.28153
G1 X116.232 Y100.698 E.01108
G1 X115.602 Y100.698 E.03214
G1 X120.35 Y105.446 E.34252
G1 X120.35 Y106.313 E.04423
G1 X114.735 Y100.698 E.40507
G1 X113.968 Y100.698 E.03913
G1 X113.968 Y100.799 E.00515
G1 X120.35 Y107.181 E.4604
G1 X120.349 Y108.048 E.04423
G1 X113.968 Y101.667 E.46033
G1 X113.968 Y102.534 E.04423
M73 P5 R7
M73 Q5 S7
G1 X120.349 Y108.916 E.46037
G1 X120.349 Y109.783 E.04423
G1 X113.968 Y103.402 E.46033
G1 X113.968 Y104.27 E.04428
G1 X120.349 Y110.65 E.46029
G1 X120.349 Y111.111 E.02352
G1 X120.082 Y111.004 E.01467
G1 X119.747 Y110.916 E.01767
G1 X113.968 Y105.137 E.4169
G1 X113.968 Y106.005 E.04428
G1 X118.797 Y110.834 E.34837
G1 X118.286 Y110.883 E.02619
G1 X118.054 Y110.958 E.01244
G1 X117.626 Y110.53 E.03088
G1 X117.58 Y110.29 E.01247
G1 X117.468 Y110.031 E.01439
G1 X117.26 Y109.748 E.01792
G1 X117.012 Y109.539 E.01654
G1 X116.756 Y109.405 E.01474
G1 X116.51 Y109.33 E.01312
G1 X116.416 Y109.321 E.00482
G1 X113.968 Y106.872 E.17664
G1 X113.968 Y107.74 E.04428
G1 X115.53 Y109.302 E.11268
G1 X114.662 Y109.302 E.04428
G1 X113.695 Y108.334 E.0698
M204 S1000
; stop printing object Down_Fishino_Micro_USB_Connector_rev0 id:0 copy 0
; printing object Up_Fishino_Micro_USB_Connector_rev0 id:1 copy 0
;WIPE_START
G1 F8640
G1 X114.662 Y109.302 E-.31593
G1 X115.53 Y109.302 E-.20042
G1 X114.661 Y108.433 E-.28365
;WIPE_END
G1 Z.6 F720
G1 X136.548 Y109.818 F10800
G1 Z.2 F720
G1 E.8 F1500
M204 S800
;TYPE:Perimeter
;WIDTH:0.649999
G1 F1200
G1 X135.513 Y109.818 E.05225
;WIDTH:0.658857
G1 X134.923 Y109.813 E.03022
;WIDTH:0.66894
G1 X134.297 Y109.808 E.03259
;WIDTH:0.683758
G1 X133.504 Y109.801 E.04226
G1 X132.884 Y109.818 E.03305
;WIDTH:0.649999
G1 X129.132 Y109.818 E.1894
G1 X129.132 Y100.182 E.48641
G1 X136.548 Y100.182 E.37435
M73 Q6 S7
G1 X136.548 Y101.762 E.07976
M73 P6 R7
G1 X136.548 Y105.301 E.17864
G1 X136.404 Y104.96 E.01869
G1 X136.122 Y104.499 E.02728
G1 X135.639 Y103.954 E.03676
G1 X135.238 Y103.64 E.02571
G1 X134.793 Y103.39 E.02577
G1 X134.276 Y103.205 E.02772
G1 X133.592 Y103.099 E.03494
G1 X133.065 Y103.134 E.02666
G1 X132.539 Y103.27 E.02743
G1 X132.035 Y103.523 E.02847
G1 X131.473 Y103.996 E.03708
G1 X131.156 Y104.445 E.02774
G1 X130.88 Y105.114 E.03653
G1 X130.793 Y105.651 E.02746
G1 X130.824 Y106.369 E.03628
G1 X130.956 Y106.891 E.02718
G1 X131.259 Y107.55 E.03661
G1 X131.574 Y107.989 E.02727
G1 X132.096 Y108.498 E.0368
G1 X132.553 Y108.796 E.02754
;WIDTH:0.663496
G1 X133.225 Y109.081 E.03767
;WIDTH:0.669265
G1 X133.771 Y109.182 E.02892
G1 X134.299 Y109.182 E.0275
;WIDTH:0.668942
G1 X134.839 Y109.077 E.02864
;WIDTH:0.658857
G1 X135.314 Y108.88 E.02634
;WIDTH:0.649999
G1 X135.746 Y108.597 E.02607
G1 X136.116 Y108.235 E.02613
G1 X136.408 Y107.808 E.02611
G1 X136.548 Y107.5 E.01708
G1 X136.548 Y109.728 E.11247
M204 S1000
G1 X137.155 Y110.425 F10800
M204 S800
;TYPE:External perimeter
G1 F1200
G1 X128.525 Y110.425 E.43563
G1 X128.525 Y99.575 E.5477
G1 X137.155 Y99.575 E.43563
G1 X137.155 Y101.762 E.1104
G1 X137.155 Y105.066 E.16678
;WIDTH:0.692241
G1 X137.134 Y105.318 E.01365
;WIDTH:0.734483
G1 X137.113 Y105.57 E.01454
;WIDTH:0.77578
G1 X137.092 Y105.747 E.01086
;WIDTH:0.817077
G1 X137.071 Y105.924 E.01147
;WIDTH:0.858373
G1 X137.051 Y106.101 E.01208
G1 X137.053 Y106.653 E.03743
;WIDTH:0.85387
G1 X137.074 Y106.823 E.01155
;WIDTH:0.812505
G1 X137.094 Y106.994 E.01102
;WIDTH:0.77114
G1 X137.115 Y107.164 E.01037
;WIDTH:0.729774
G1 X137.135 Y107.415 E.01438
;WIDTH:0.689887
G1 X137.155 Y107.667 E.0136
;WIDTH:0.649999
G1 X137.155 Y110.335 E.13468
M204 S1000
;WIPE_START
G1 F8640
G1 X133.691 Y110.371 E-.8
;WIPE_END
G1 Z.6 F720
G1 X132.051 Y104.281 F10800
G1 Z.2 F720
G1 E.8 F1500
M204 S800
G1 F1200
G1 X132.408 Y104.001 E.0229
G1 X132.842 Y103.806 E.02402
G1 X133.251 Y103.72 E.0211
G1 X133.645 Y103.711 E.01989
G1 X134.171 Y103.803 E.02695
G1 X134.611 Y103.975 E.02385
G1 X134.967 Y104.189 E.02097
G1 X135.296 Y104.463 E.02161
G1 X135.66 Y104.892 E.0284
G1 X135.897 Y105.302 E.02391
;WIDTH:0.693619
G1 X135.964 Y105.447 E.00864
;WIDTH:0.737239
G1 X136.03 Y105.591 E.00915
;WIDTH:0.780858
G1 X136.097 Y105.736 E.0098
;WIDTH:0.824478
G1 X136.164 Y105.881 E.01038
;WIDTH:0.868097
G1 X136.231 Y106.025 E.0109
G1 X136.242 Y106.646 E.04262
;WIDTH:0.853925
G1 X136.196 Y106.786 E.00994
;WIDTH:0.812542
G1 X136.15 Y106.925 E.00937
;WIDTH:0.771158
G1 X136.105 Y107.065 E.0089
;WIDTH:0.729774
G1 X135.909 Y107.417 E.02301
;WIDTH:0.689887
G1 X135.713 Y107.77 E.02172
;WIDTH:0.649999
G1 X135.397 Y108.101 E.0231
G1 X135.068 Y108.325 E.02009
G1 X134.702 Y108.481 E.02008
G1 X134.298 Y108.566 E.02084
G1 X133.771 Y108.565 E.0266
G1 X133.299 Y108.463 E.02438
G1 X132.799 Y108.241 E.02762
G1 X132.4 Y107.964 E.02452
G1 X132.007 Y107.564 E.02831
G1 X131.735 Y107.161 E.02454
G1 X131.513 Y106.65 E.02812
G1 X131.409 Y106.177 E.02445
G1 X131.4 Y105.641 E.02706
G1 X131.496 Y105.167 E.02441
G1 X131.709 Y104.695 E.02614
G1 X131.985 Y104.341 E.02266
M204 S1000
G1 X131.936 Y103.842 F10800
;WIPE_START
G1 F8640
G1 X132.408 Y104.001 E-.12531
G1 X132.842 Y103.806 E-.10986
M73 Q7 S7
G1 X133.251 Y103.72 E-.0965
G1 X133.645 Y103.711 E-.091
G1 X134.171 Y103.803 E-.1233
G1 X134.611 Y103.975 E-.10908
G1 X134.967 Y104.189 E-.09591
G1 X135.13 Y104.325 E-.04904
;WIPE_END
G1 Z.6 F720
G1 X136.305 Y101.714 F10800
G1 Z.2 F720
M73 P7 R7
G1 E.8 F1500
M204 S800
;TYPE:Solid infill
;WIDTH:0.679387
G1 F1200
G1 X135.289 Y100.698 E.07604
G1 X134.389 Y100.698 E.04763
G1 X136.032 Y102.341 E.12297
G1 X136.032 Y103.241 E.04763
G1 X133.489 Y100.698 E.19033
G1 X132.588 Y100.698 E.04768
G1 X134.686 Y102.795 E.15698
G1 X134.374 Y102.699 E.01728
G1 X133.83 Y102.603 E.02923
G1 X133.574 Y102.584 E.01359
G1 X131.688 Y100.698 E.14116
G1 X130.788 Y100.698 E.04763
G1 X132.763 Y102.673 E.14782
G1 X132.339 Y102.793 E.02332
G1 X132.093 Y102.903 E.01426
G1 X129.888 Y100.698 E.16503
G1 X129.648 Y100.698 E.0127
G1 X129.648 Y101.358 E.03493
G1 X131.543 Y103.253 E.14183
G1 X131.303 Y103.44 E.0161
G1 X131.067 Y103.677 E.0177
G1 X129.648 Y102.258 E.1062
G1 X129.648 Y103.158 E.04763
G1 X130.698 Y104.209 E.07862
G1 X130.428 Y104.838 E.03623
G1 X129.648 Y104.058 E.05838
G1 X129.648 Y104.958 E.04763
G1 X130.281 Y105.591 E.04738
G1 X130.287 Y106.207 E.0326
G1 X130.334 Y106.545 E.01806
G1 X129.648 Y105.859 E.05134
G1 X129.648 Y106.759 E.04763
G1 X132.191 Y109.302 E.19033
G1 X131.291 Y109.302 E.04763
G1 X129.648 Y107.659 E.12297
G1 X129.648 Y108.559 E.04763
G1 X130.664 Y109.575 E.07604
M204 S1000
;WIPE_START
G1 F8640
G1 X129.648 Y108.559 E-.33177
G1 X129.648 Y107.659 E-.20781
G1 X130.446 Y108.457 E-.26042
;WIPE_END
G1 Z.6 F720
G1 X135.508 Y109.047 F10800
G1 Z.2 F720
G1 E.8 F1500
M204 S800
;WIDTH:0.771415
G1 F1200
G1 X136.036 Y109.575 E.04523
M204 S1000
; stop printing object Up_Fishino_Micro_USB_Connector_rev0 id:1 copy 0
M106 S84.15
;LAYER_CHANGE
;Z:0.35
;HEIGHT:0.15
;BEFORE_LAYER_CHANGE
G92 E0.0
;0.35


;WIPE_START
G1 F8640
G1 X135.508 Y109.047 E-.17242
;WIPE_END
G1 E-.62758 F2100
G1 Z.6 F720
;AFTER_LAYER_CHANGE
;0.35
