; generated by PrusaSlicer 2.6.0+win64 on 2023-07-28 at 13:36:04 UTC


;
;
; 

; external perimeters extrusion width = 0.65mm
; perimeters extrusion width = 0.65mm
; infill extrusion width = 0.65mm
; solid infill extrusion width = 0.65mm
; top infill extrusion width = 0.60mm
; first layer extrusion width = 0.65mm

; external perimeters extrusion width = 0.65mm
; perimeters extrusion width = 0.65mm
; infill extrusion width = 0.65mm
; solid infill extrusion width = 0.65mm
; top infill extrusion width = 0.60mm
; first layer extrusion width = 0.65mm

M73 P0 R9
M73 Q0 S9
M201 X1000 Y1000 Z200 E5000 ; sets maximum accelerations, mm/sec^2
M203 X200 Y200 Z12 E120 ; sets maximum feedrates, mm / sec
M204 S1250 T1250 ; sets acceleration (S) and retract acceleration (R), mm/sec^2
M205 X8.00 Y8.00 Z0.40 E4.50 ; sets the jerk limits, mm/sec
M205 S0 T0 ; sets the minimum extruding and travel feed rate, mm/sec
;TYPE:Custom
M862.3 P "MK3S" ; printer model check
M862.1 P0.6 ; nozzle diameter check
M115 U3.12.2 ; tell printer latest fw version
G90 ; use absolute coordinates
M83 ; extruder relative mode
M104 S215 ; set extruder temp
M140 S60 ; set bed temp
M190 S60 ; wait for bed temp
M109 S215 ; wait for extruder temp
G28 W ; home all without mesh bed level
G80 ; mesh bed leveling

G1 Z0.2 F720
G1 Y-3 F1000 ; go outside print area
G92 E0
G1 X60 E9 F1000 ; intro line
G1 X100 E12.5 F1000 ; intro line

G92 E0
M221 S95
G21 ; set units to millimeters
G90 ; use absolute coordinates
M83 ; use relative distances for extrusion
M900 K0.04 ; Filament gcode LA 1.5
M900 K18 ; Filament gcode LA 1.0
M107
;LAYER_CHANGE
;Z:0.2
;HEIGHT:0.2
;BEFORE_LAYER_CHANGE
G92 E0.0
;0.2


G1 E-.8 F2100
M73 P1 R9
M73 Q1 S9
G1 Z.4 F720
;AFTER_LAYER_CHANGE
;0.2
G1 X109.966 Y97.217 F10800
G1 Z.2 F720
G1 E.8 F1500
M204 S800
;TYPE:Skirt/Brim
;WIDTH:0.65
G1 F1200
G1 X115.114 Y92.01 E.36962
G1 X115.758 Y91.481 E.04207
G1 X116.554 Y91.01 E.04669
G1 X117.417 Y90.676 E.04671
G1 X118.752 Y90.453 E.06832
G1 X119.677 Y90.489 E.04673
G1 X120.532 Y90.659 E.044
G1 X138.975 Y96.567 E.97758
G1 X140.165 Y97.36 E.07219
G1 X140.787 Y99.05 E.0909
G1 X140.787 Y110.95 E.6007
G1 X140.395 Y112.325 E.07217
G1 X138.975 Y113.433 E.09092
G1 X120.532 Y119.341 E.97758
G1 X119.248 Y119.547 E.06564
G1 X118.323 Y119.511 E.04673
M73 Q2 S9
G1 X117.417 Y119.324 E.0467
G1 X116.554 Y118.99 E.04671
G1 X115.758 Y118.519 E.04669
G1 X115.114 Y117.99 E.04207
G1 X109.966 Y112.783 E.36962
G1 X109.213 Y110.95 E.10003
M73 P2 R9
G1 X109.213 Y99.05 E.6007
G1 X109.932 Y97.3 E.0955
M204 S1000
; printing object Down_Fishino_Micro_USB_Connector_rev0-1 id:0 copy 0
;WIPE_START
M73 P2 R8
G1 F8640
G1 X112.356 Y94.825 E-.8
;WIPE_END
G1 Z.6 F720
G1 X117.13 Y97.888 F10800
G1 Z.2 F720
G1 E.8 F1500
M204 S800
;TYPE:Perimeter
;WIDTH:0.649999
G1 F1200
G1 X117.406 Y98.141 E.0189
G1 X117.856 Y98.411 E.02649
G1 X118.405 Y98.606 E.02941
G1 X118.709 Y98.658 E.01557
G1 X119.291 Y98.658 E.02938
G1 X119.595 Y98.606 E.01557
G1 X120.144 Y98.411 E.02941
G1 X120.594 Y98.141 E.02649
G1 X120.871 Y97.888 E.01894
G1 X120.871 Y112.106 E.71771
G1 X120.41 Y111.73 E.03003
G1 X119.939 Y111.5 E.02646
G1 X119.376 Y111.353 E.02937
G1 X119.069 Y111.327 E.01555
G1 X118.489 Y111.376 E.02938
G1 X118.163 Y111.46 E.01699
G1 X117.59 Y111.73 E.03197
G1 X117.13 Y112.106 E.02999
G1 X117.132 Y110.73 E.06946
G1 X117.087 Y110.447 E.01446
G1 X116.868 Y110.088 E.02123
G1 X116.516 Y109.867 E.02098
G1 X116.222 Y109.818 E.01505
G1 X112.952 Y109.818 E.16507
G1 X112.952 Y100.182 E.48641
G1 X116.222 Y100.182 E.16507
G1 X116.516 Y100.133 E.01505
G1 X116.869 Y99.912 E.02102
G1 X117.082 Y99.571 E.0203
G1 X117.132 Y99.27 E.0154
G1 X117.13 Y97.978 E.06522
M204 S1000
G1 X117.244 Y96.985 F10800
M204 S800
;TYPE:External perimeter
;WIDTH:0.670371
G1 F1200
G1 X117.144 Y96.802 E.01088
G1 X117.073 Y96.399 E.02135
;WIDTH:0.650072
G1 X117.072 Y95.843 E.02807
;WIDTH:0.64953
G1 X117.246 Y95.223 E.03248
;WIDTH:0.649639
M73 Q2 S8
G1 X117.621 Y94.686 E.03304
;WIDTH:0.64975
G1 X118.154 Y94.304 E.03309
;WIDTH:0.64995
G1 X118.784 Y94.122 E.0331
;WIDTH:0.650655
G1 X119.439 Y94.16 E.03316
;WIDTH:0.650983
G1 X120.044 Y94.414 E.03318
;WIDTH:0.651635
G1 X120.529 Y94.855 E.03318
;WIDTH:0.652276
G1 X120.839 Y95.433 E.03323
G1 X120.944 Y96.078 E.03311
;WIDTH:0.668249
G1 X120.878 Y96.72 E.03356
G1 X120.704 Y97.116 E.02249
;WIDTH:0.651801
G1 X120.538 Y97.355 E.01473
;WIDTH:0.649999
G1 X120.252 Y97.639 E.02035
G1 X119.941 Y97.839 E.01866
G1 X119.392 Y98.034 E.02941
G1 X118.813 Y98.051 E.02924
G1 X118.608 Y98.034 E.01038
G1 X118.059 Y97.839 E.02941
G1 X117.705 Y97.604 E.02145
G1 X117.384 Y97.242 E.02442
;WIDTH:0.670371
G1 X117.287 Y97.064 E.01058
M204 S1000
;WIPE_START
G1 F8640
G1 X117.144 Y96.802 E-.06892
G1 X117.073 Y96.399 E-.09449
G1 X117.072 Y95.843 E-.12838
G1 X117.246 Y95.223 E-.14869
G1 X117.621 Y94.686 E-.15124
G1 X118.154 Y94.304 E-.15142
G1 X118.391 Y94.236 E-.05686
;WIPE_END
G1 Z.6 F720
G1 X116.525 Y99.271 F10800
G1 Z.2 F720
G1 E.8 F1500
M204 S800
;WIDTH:0.649999
G1 F1200
G1 X116.522 Y97.534 E.08768
;WIDTH:0.670371
G1 X116.466 Y96.416 E.0584
;WIDTH:0.650072
G1 X116.471 Y95.767 E.03277
;WIDTH:0.661262
G1 X116.586 Y95.248 E.02733
G1 X116.791 Y94.784 E.02608
;WIDTH:0.651963
G1 X117.198 Y94.252 E.03392
;WIDTH:0.661711
G1 X117.608 Y93.919 E.02718
G1 X118.072 Y93.68 E.02685
;WIDTH:0.650666
G1 X118.711 Y93.519 E.0333
;WIDTH:0.661833
G1 X119.236 Y93.517 E.02702
M73 Q3 S8
G1 X119.762 Y93.623 E.02761
;WIDTH:0.650983
G1 X120.314 Y93.87 E.03058
;WIDTH:0.661659
G1 X120.741 Y94.196 E.02764
G1 X121.114 Y94.636 E.02968
;WIDTH:0.652276
G1 X121.391 Y95.174 E.03066
;WIDTH:0.660122
G1 X121.513 Y95.656 E.02552
G1 X121.543 Y96.217 E.02883
;WIDTH:0.672114
G1 X121.494 Y96.841 E.03275
G1 X121.487 Y97.368 E.02757
;WIDTH:0.651801
M73 P3 R8
G1 X121.475 Y98.039 E.03398
;WIDTH:0.649999
G1 X121.478 Y112.121 E.71084
;WIDTH:0.653271
G1 X121.49 Y112.842 E.0366
;WIDTH:0.65369
G1 X121.532 Y114.173 E.06763
;WIDTH:0.653866
G1 X121.416 Y114.753 E.03005
G1 X121.314 Y115.001 E.01362
;WIDTH:0.654892
G1 X121.024 Y115.493 E.02906
G1 X120.834 Y115.71 E.01468
;WIDTH:0.65586
G1 X120.413 Y116.066 E.0281
G1 X120.145 Y116.219 E.01573
;WIDTH:0.65677
G1 X119.649 Y116.41 E.02713
G1 X119.327 Y116.471 E.01673
;WIDTH:0.657624
G1 X118.815 Y116.487 E.02618
G1 X118.351 Y116.41 E.02404
;WIDTH:0.65677
G1 X117.771 Y116.176 E.03192
;WIDTH:0.659328
G1 X117.296 Y115.838 E.02988
G1 X116.978 Y115.496 E.02394
;WIDTH:0.654906
G1 X116.651 Y114.925 E.03348
;WIDTH:0.66047
G1 X116.496 Y114.393 E.02845
G1 X116.451 Y113.921 E.02435
;WIDTH:0.658006
G1 X116.522 Y112.451 E.07527
;WIDTH:0.649999
G1 X116.51 Y110.635 E.09167
G1 X116.379 Y110.469 E.01067
G1 X116.222 Y110.425 E.00823
G1 X112.345 Y110.425 E.19571
G1 X112.345 Y99.575 E.5477
G1 X116.222 Y99.575 E.19571
G1 X116.32 Y99.559 E.00501
G1 X116.487 Y99.419 E.011
G1 X116.503 Y99.358 E.00318
M204 S1000
G1 X117.095 Y99.083 F10800
;WIPE_START
G1 F8640
G1 X116.522 Y97.534 E-.42119
G1 X116.466 Y96.416 E-.25847
G1 X116.47 Y95.895 E-.12034
;WIPE_END
G1 Z.6 F720
G1 X119.241 Y115.868 F10800
G1 Z.2 F720
G1 E.8 F1500
M204 S800
;WIDTH:0.649994
G1 F1200
G1 X118.723 Y115.868 E.02615
;WIDTH:0.658425
G1 X118.204 Y115.708 E.0278
G1 X117.967 Y115.586 E.01364
;WIDTH:0.655911
G1 X117.579 Y115.269 E.02554
;WIDTH:0.659864
G1 X117.296 Y114.852 E.02585
G1 X117.181 Y114.625 E.01305
;WIDTH:0.65258
G1 X117.066 Y114.084 E.02804
;WIDTH:0.656243
G1 X117.09 Y113.442 E.03276
G1 X117.214 Y113.035 E.0217
;WIDTH:0.654129
G1 X117.39 Y112.738 E.01755
;WIDTH:0.649999
G1 X117.618 Y112.474 E.01761
G1 X117.887 Y112.259 E.01738
G1 X118.365 Y112.032 E.02671
G1 X118.54 Y111.981 E.0092
G1 X119.12 Y111.931 E.02939
G1 X119.786 Y112.087 E.03453
G1 X120.156 Y112.289 E.02128
G1 X120.423 Y112.514 E.01763
G1 X120.641 Y112.783 E.01748
;WIDTH:0.656323
G1 X120.813 Y113.096 E.01822
G1 X120.908 Y113.443 E.01835
;WIDTH:0.65369
G1 X120.939 Y113.957 E.02615
;WIDTH:0.653866
G1 X120.822 Y114.613 E.03385
;WIDTH:0.654892
G1 X120.508 Y115.165 E.03232
;WIDTH:0.65586
G1 X120.032 Y115.586 E.03239
;WIDTH:0.658424
G1 X119.796 Y115.708 E.0136
G1 X119.329 Y115.852 E.02501
M204 S1000
G1 X119.035 Y116.344 F10800
;WIPE_START
G1 F8640
G1 X118.723 Y115.868 E-.13998
G1 X118.204 Y115.708 E-.1254
G1 X117.967 Y115.586 E-.06155
G1 X117.579 Y115.269 E-.11569
G1 X117.296 Y114.852 E-.11637
G1 X117.181 Y114.625 E-.05876
G1 X117.066 Y114.084 E-.12771
G1 X117.075 Y113.848 E-.05454
;WIPE_END
G1 Z.6 F720
G1 X120.625 Y99.683 F10800
G1 Z.2 F720
G1 E.8 F1500
M204 S800
;TYPE:Solid infill
;WIDTH:0.673238
G1 F1200
G1 X119.964 Y99.023 E.04896
G1 X119.75 Y99.098 E.01188
G1 X119.308 Y99.174 E.02351
G1 X119.223 Y99.173 E.00446
G1 X120.352 Y100.302 E.08368
G1 X120.351 Y101.193 E.0467
G1 X118.258 Y99.1 E.15513
G1 X117.643 Y98.879 E.03425
G1 X117.638 Y99.371 E.02579
G1 X120.351 Y102.084 E.20109
G1 X120.351 Y102.975 E.0467
G1 X117.412 Y100.036 E.21784
G1 X117.239 Y100.274 E.01542
G1 X116.97 Y100.486 E.01795
G1 X120.351 Y103.866 E.25056
G1 X120.35 Y104.757 E.0467
M73 Q4 S8
G1 X116.287 Y100.694 E.30115
G1 X115.4 Y100.698 E.04649
M73 P4 R8
G1 X120.35 Y105.648 E.3669
G1 X120.35 Y106.54 E.04675
G1 X114.508 Y100.698 E.43301
G1 X113.617 Y100.698 E.0467
G1 X120.35 Y107.431 E.49905
G1 X120.349 Y108.322 E.0467
G1 X113.468 Y101.441 E.51002
G1 X113.468 Y102.332 E.0467
G1 X120.349 Y109.213 E.51002
G1 X120.349 Y110.104 E.0467
G1 X113.468 Y103.224 E.50999
G1 X113.468 Y104.115 E.0467
G1 X120.349 Y110.995 E.50999
G1 X120.348 Y111.111 E.00608
G1 X120.082 Y111.004 E.01503
G1 X119.488 Y110.849 E.03217
G1 X119.294 Y110.832 E.01021
G1 X113.468 Y105.006 E.43183
G1 X113.468 Y105.898 E.04675
G1 X118.439 Y110.869 E.36845
G1 X118.286 Y110.883 E.00805
G1 X117.747 Y111.068 E.02987
G1 X117.648 Y110.969 E.00734
G1 X117.646 Y110.635 E.01751
G1 X117.58 Y110.29 E.01841
G1 X117.467 Y110.03 E.01486
G1 X117.237 Y109.724 E.02006
G1 X116.963 Y109.508 E.01829
G1 X116.684 Y109.378 E.01613
G1 X116.426 Y109.316 E.01391
G1 X115.981 Y109.302 E.02333
G1 X113.468 Y106.789 E.18626
G1 X113.468 Y107.681 E.04675
G1 X115.089 Y109.302 E.12015
G1 X114.198 Y109.302 E.0467
M73 Q5 S8
G1 X113.195 Y108.299 E.07434
M204 S1000
; stop printing object Down_Fishino_Micro_USB_Connector_rev0-1 id:0 copy 0
; printing object Up_Fishino_Micro_USB_Connector_rev0-1 id:1 copy 0
;WIPE_START
G1 F8640
G1 X114.198 Y109.302 E-.32753
G1 X115.089 Y109.302 E-.20573
M73 P5 R8
G1 X114.272 Y108.485 E-.26674
;WIPE_END
G1 Z.6 F720
G1 X129.132 Y109.818 F10800
G1 Z.2 F720
G1 E.8 F1500
M204 S800
;TYPE:Perimeter
;WIDTH:0.649999
G1 F1200
G1 X129.132 Y100.182 E.48641
G1 X137.048 Y100.182 E.39959
G1 X137.048 Y109.818 E.48641
G1 X129.222 Y109.818 E.39505
M204 S1000
G1 X128.525 Y110.425 F10800
M204 S800
;TYPE:External perimeter
G1 F1200
G1 X128.525 Y99.575 E.5477
G1 X137.655 Y99.575 E.46087
G1 X137.655 Y110.425 E.5477
G1 X128.615 Y110.425 E.45633
M204 S1000
G1 X128.664 Y109.841 F10800
;WIPE_START
G1 F8640
G1 X128.586 Y106.96 E-.8
;WIPE_END
G1 Z.6 F720
G1 X136.805 Y101.683 F10800
G1 Z.2 F720
G1 E.8 F1500
M204 S800
;TYPE:Solid infill
;WIDTH:0.664496
G1 F1200
G1 X135.82 Y100.698 E.072
G1 X134.941 Y100.698 E.04543
G1 X136.532 Y102.289 E.11629
G1 X136.532 Y103.168 E.04543
G1 X134.062 Y100.698 E.18054
G1 X133.183 Y100.698 E.04543
M73 Q6 S8
G1 X136.532 Y104.047 E.24479
G1 X136.532 Y104.926 E.04543
M73 P6 R8
G1 X132.304 Y100.698 E.30904
G1 X131.425 Y100.698 E.04543
G1 X136.532 Y105.805 E.37328
G1 X136.532 Y106.684 E.04543
G1 X130.546 Y100.698 E.43753
G1 X129.667 Y100.698 E.04543
G1 X136.532 Y107.563 E.50178
G1 X136.532 Y108.442 E.04543
G1 X129.648 Y101.558 E.50317
G1 X129.648 Y102.437 E.04543
G1 X136.513 Y109.302 E.50178
G1 X135.634 Y109.302 E.04543
G1 X129.648 Y103.316 E.43753
G1 X129.648 Y104.195 E.04543
G1 X134.755 Y109.302 E.37328
G1 X133.876 Y109.302 E.04543
G1 X129.648 Y105.074 E.30904
G1 X129.648 Y105.953 E.04543
G1 X132.997 Y109.302 E.24479
G1 X132.118 Y109.302 E.04543
G1 X129.648 Y106.832 E.18054
G1 X129.648 Y107.711 E.04543
G1 X131.239 Y109.302 E.11629
G1 X130.359 Y109.302 E.04548
G1 X129.375 Y108.317 E.07196
M204 S1000
; stop printing object Up_Fishino_Micro_USB_Connector_rev0-1 id:1 copy 0
M106 S84.15
;LAYER_CHANGE
;Z:0.35
;HEIGHT:0.15
;BEFORE_LAYER_CHANGE
G92 E0.0
;0.35


;WIPE_START
G1 F8640
G1 X130.359 Y109.302 E-.32148
G1 X131.239 Y109.302 E-.20319
G1 X130.396 Y108.459 E-.27533
;WIPE_END
G1 Z.6 F720
;AFTER_LAYER_CHANGE
;0.35
; printing object Down_Fishino_Micro_USB_Connector_rev0-1 id:0 copy 0
G1 X116.943 Y97.327 F10800
G1 Z.35 F720
M73 P7 R8
M73 Q7 S8
G1 E.8 F1500
M204 S800
;TYPE:Perimeter
;WIDTH:0.649999
G1 F2700
G1 X117.28 Y97.773 E.02154
G1 X117.678 Y98.095 E.01972
G1 X117.952 Y98.247 E.01207
G1 X118.435 Y98.418 E.01974
G1 X118.744 Y98.471 E.01208
G1 X119.256 Y98.471 E.01973
G1 X119.565 Y98.418 E.01208
G1 X120.048 Y98.247 E.01974
G1 X120.322 Y98.095 E.01207
G1 X120.72 Y97.773 E.01972
G1 X121.057 Y97.327 E.02154
G1 X121.057 Y112.629 E.58956
G1 X120.86 Y112.379 E.01226
G1 X120.49 Y112.025 E.01973
G1 X120.231 Y111.849 E.01206
G1 X119.539 Y111.569 E.02876
G1 X119.05 Y111.516 E.01895
G1 X118.539 Y111.559 E.01976
G1 X118.236 Y111.638 E.01206
G1 X117.769 Y111.849 E.01974
G1 X117.51 Y112.025 E.01206
G1 X117.14 Y112.379 E.01973
G1 X116.943 Y112.652 E.01297
G1 X116.943 Y110.934 E.06619
G1 X116.865 Y110.563 E.01461
G1 X116.662 Y110.269 E.01377
G1 X116.335 Y110.064 E.01487
G1 X116.016 Y110.007 E.01249
G1 X112.763 Y110.007 E.12533
G1 X112.763 Y99.993 E.38582
G1 X116.016 Y99.993 E.12533
G1 X116.334 Y99.936 E.01245
G1 X116.661 Y99.732 E.01485
G1 X116.862 Y99.444 E.01353
G1 X116.943 Y99.066 E.01489
G1 X116.943 Y97.417 E.06353
M204 S1000
G1 X117.476 Y96.999 F10800
M204 S800
;TYPE:External perimeter
G1 F1500
G1 X117.33 Y96.777 E.01024
;WIDTH:0.68881
G1 X117.262 Y96.582 E.00846
;WIDTH:0.727621
G1 X117.194 Y96.387 E.00896
;WIDTH:0.766432
G1 X117.126 Y96.192 E.00946
G1 X117.187 Y95.56 E.02907
;WIDTH:0.764532
G1 X117.454 Y94.984 E.029
G1 X117.898 Y94.529 E.02903
;WIDTH:0.764739
G1 X118.499 Y94.237 E.03053
;WIDTH:0.764991
G1 X119.097 Y94.174 E.02748
G1 X119.717 Y94.314 E.02905
;WIDTH:0.765766
G1 X120.254 Y94.652 E.02903
;WIDTH:0.766278
G1 X120.649 Y95.149 E.02906
G1 X120.813 Y95.56 E.02026
;WIDTH:0.767238
G1 X120.879 Y96.068 E.02348
G1 X120.874 Y96.192 E.00569
;WIDTH:0.766452
G1 X120.821 Y96.355 E.00785
;WIDTH:0.731431
G1 X120.767 Y96.518 E.00749
;WIDTH:0.69641
G1 X120.714 Y96.682 E.00714
;WIDTH:0.661388
G1 X120.401 Y97.214 E.02422
;WIDTH:0.649999
G1 X119.933 Y97.614 E.02372
G1 X119.359 Y97.836 E.02371
G1 X118.756 Y97.853 E.02324
G1 X118.257 Y97.7 E.02011
G1 X118.066 Y97.614 E.00807
G1 X117.668 Y97.292 E.01972
G1 X117.525 Y97.074 E.01004
M204 S1000
G1 X117.212 Y97.03 F10800
;WIPE_START
G1 F8640
G1 X117.33 Y96.777 E-.08204
G1 X117.262 Y96.582 E-.04769
G1 X117.194 Y96.387 E-.04769
G1 X117.126 Y96.192 E-.04769
G1 X117.187 Y95.56 E-.14661
G1 X117.454 Y94.984 E-.14659
G1 X117.898 Y94.529 E-.14679
G1 X118.424 Y94.274 E-.1349
;WIPE_END
G1 Z.75 F720
G1 X116.278 Y99.229 F10800
G1 Z.35 F720
G1 E.8 F1500
M204 S800
G1 F2100
G1 X116.325 Y99.066 E.00654
G1 X116.325 Y97.574 E.05748
;WIDTH:0.661393
G1 X116.331 Y96.783 E.03104
;WIDTH:0.698359
G1 X116.349 Y96.603 E.00752
;WIDTH:0.735325
G1 X116.368 Y96.423 E.00794
;WIDTH:0.772291
G1 X116.386 Y96.242 E.0084
;WIDTH:0.774846
G1 X116.424 Y95.62 E.02886
G1 X116.558 Y95.128 E.02362
;WIDTH:0.766586
G1 X116.864 Y94.549 E.02999
;WIDTH:0.775455
G1 X117.256 Y94.11 E.02728
G1 X117.674 Y93.803 E.02404
;WIDTH:0.76554
G1 X118.262 Y93.546 E.02935
;WIDTH:0.775663
G1 X118.815 Y93.448 E.02604
G1 X119.373 Y93.469 E.02589
;WIDTH:0.764852
G1 X119.922 Y93.612 E.02592
;WIDTH:0.764649
G1 X120.209 Y93.739 E.01434
;WIDTH:0.76494
G1 X120.724 Y94.088 E.02843
;WIDTH:0.775323
G1 X121.077 Y94.472 E.02417
G1 X121.365 Y94.948 E.02578
;WIDTH:0.764522
G1 X121.531 Y95.423 E.02298
;WIDTH:0.767129
G1 X121.616 Y96.081 E.03041
G1 X121.617 Y96.271 E.00871
;WIDTH:0.766452
G1 X121.636 Y96.535 E.01212
;WIDTH:0.727635
G1 X121.656 Y96.798 E.01144
;WIDTH:0.688817
G1 X121.675 Y97.062 E.01084
;WIDTH:0.649999
G1 X121.675 Y112.629 E.59977
;WIDTH:0.688104
G1 X121.656 Y112.824 E.00801
;WIDTH:0.726209
