; generated by PrusaSlicer 2.6.1+win64 on 2023-09-22 at 14:20:48 UTC


;
;
; 

; external perimeters extrusion width = 0.45mm
; perimeters extrusion width = 0.45mm
; infill extrusion width = 0.45mm
; solid infill extrusion width = 0.45mm
; top infill extrusion width = 0.40mm
; first layer extrusion width = 0.42mm

M73 P0 R25
M73 Q0 S25
M201 X1000 Y1000 Z200 E5000 ; sets maximum accelerations, mm/sec^2
M203 X200 Y200 Z12 E120 ; sets maximum feedrates, mm / sec
M204 S1250 T1250 ; sets acceleration (S) and retract acceleration (R), mm/sec^2
M205 X8.00 Y8.00 Z0.40 E4.50 ; sets the jerk limits, mm/sec
M205 S0 T0 ; sets the minimum extruding and travel feed rate, mm/sec
;TYPE:Custom
M862.3 P "MK3S" ; printer model check
M862.1 P0.4 ; nozzle diameter check
M115 U3.12.2 ; tell printer latest fw version
G90 ; use absolute coordinates
M83 ; extruder relative mode
M104 S240 ; set extruder temp
M140 S85 ; set bed temp
M190 S85 ; wait for bed temp
M109 S240 ; wait for extruder temp
G28 W ; home all without mesh bed level
G80 ; mesh bed leveling

G1 Z0.2 F720
G1 Y-3 F1000 ; go outside print area
G92 E0
G1 X60 E9 F1000 ; intro line
G1 X100 E12.5 F1000 ; intro line

G92 E0
M221 S95

; Don't change E values below. Excessive value can damage the printer.
M907 E430 ; set extruder motor current
G21 ; set units to millimeters
G90 ; use absolute coordinates
M83 ; use relative distances for extrusion
M900 K0.08 ; Filament gcode LA 1.5
M900 K45 ; Filament gcode LA 1.0
M107
;LAYER_CHANGE
;Z:0.2
;HEIGHT:0.2
;BEFORE_LAYER_CHANGE
G92 E0.0
;0.2


G1 E-1 F2100
G1 Z.2 F720
;AFTER_LAYER_CHANGE
;0.2
G1 Z.4
G1 X101.509 Y99.082 F10800
G1 Z.2 F720
G1 E1 F2100
M204 S800
;TYPE:Skirt/Brim
;WIDTH:0.42
G1 F1200
G1 X114.444 Y86.148 E.57354
G1 X116.125 Y85.451 E.05706
G1 X134.29 Y85.451 E.56955
G1 X135.97 Y86.148 E.05703
G1 X148.49 Y98.668 E.55516
G1 X149.187 Y100.349 E.05706
G1 X149.187 Y120.252 E.62404
G1 X148.49 Y121.933 E.05706
G1 X137.339 Y133.084 E.49445
G1 X135.658 Y133.78 E.05705
G1 X114.366 Y133.78 E.6676
G1 X112.685 Y133.084 E.05705
G1 X101.51 Y121.908 E.49554
G1 X100.813 Y120.228 E.05703
G1 X100.813 Y100.763 E.61031
G1 X101.487 Y99.138 E.05516
M204 S1000
; printing object Front_Left_Wheel_Mount_Tool_rev0-4 id:0 copy 0
;WIPE_START
M73 P0 R24
M73 Q1 S25
G1 F8640
M73 P1 R24
G1 X104.545 Y96.072 E-1
;WIPE_END
G1 Z.4 F720
G1 X146.023 Y100.675 F10800
G1 Z.2 F720
G1 E1 F2100
M204 S800
;TYPE:Perimeter
;WIDTH:0.419999
G1 F1200
G1 X146.023 Y119.926 E.6036
G1 X135.332 Y130.616 E.47403
G1 X114.692 Y130.616 E.64715
G1 X103.977 Y119.902 E.4751
G1 X103.977 Y101.089 E.58987
G1 X116.451 Y88.616 E.55309
G1 X133.964 Y88.616 E.54911
G1 X145.98 Y100.632 E.53281
M204 S1000
G1 X146.4 Y100.518 F10800
M204 S800
;TYPE:External perimeter
G1 F1200
G1 X146.4 Y120.082 E.61341
G1 X135.488 Y130.993 E.48383
G1 X114.536 Y130.993 E.65693
G1 X103.6 Y120.058 E.4849
G1 X103.6 Y100.933 E.59965
G1 X116.295 Y88.239 E.56289
M73 Q1 S24
G1 X134.12 Y88.239 E.55889
G1 X146.357 Y100.476 E.54261
M204 S1000
G1 X146.157 Y100.836 F10800
;WIPE_START
M73 Q2 S24
G1 F8640
G1 X146.366 Y104.807 E-1
;WIPE_END
G1 Z.4 F720
M73 P2 R24
G1 X105.783 Y108.524 F10800
G1 Z.2 F720
G1 E1 F2100
M204 S800
;TYPE:Perimeter
G1 F1200
G1 X106.253 Y105.718 E.08921
G1 X107.089 Y103.112 E.08581
G1 X108.326 Y100.579 E.08838
G1 X109.923 Y98.249 E.08857
G1 X111.895 Y96.127 E.09083
G1 X114.03 Y94.415 E.08581
G1 X116.46 Y92.986 E.08839
G1 X119.073 Y91.925 E.08843
G1 X121.893 Y91.243 E.09097
G1 X124.66 Y90.995 E.0871
G1 X127.432 Y91.141 E.08703
G1 X130.197 Y91.698 E.08844
G1 X132.926 Y92.685 E.09099
G1 X135.406 Y94.025 E.08838
G1 X137.603 Y95.658 E.08583
G1 X139.601 Y97.647 E.0884
G1 X141.287 Y99.906 E.08838
G1 X142.661 Y102.462 E.09099
G1 X143.592 Y105.036 E.08582
G1 X144.16 Y107.797 E.08838
G1 X144.319 Y110.694 E.09097
G1 X144.07 Y113.42 E.08583
G1 X143.412 Y116.161 E.08838
G1 X142.363 Y118.778 E.0884
G1 X140.917 Y121.247 E.08971
G1 X139.129 Y123.478 E.08964
G1 X137.124 Y125.341 E.08581
G1 X134.805 Y126.944 E.08839
G1 X132.237 Y128.206 E.08972
G1 X129.514 Y129.079 E.08966
G1 X126.814 Y129.527 E.08581
G1 X123.996 Y129.585 E.08837
G1 X121.118 Y129.215 E.09098
G1 X118.483 Y128.474 E.08582
G1 X115.906 Y127.33 E.0884
G1 X113.524 Y125.823 E.08838
G1 X111.328 Y123.926 E.09099
G1 X109.539 Y121.855 E.08581
G1 X108.022 Y119.479 E.08839
G1 X106.866 Y116.907 E.08841
G1 X106.081 Y114.114 E.09097
G1 X105.732 Y111.399 E.08583
G1 X105.778 Y108.584 E.08827
M204 S1000
G1 X106.16 Y108.543 F10800
M204 S800
;TYPE:External perimeter
G1 F1200
G1 X106.612 Y105.833 E.08614
G1 X107.448 Y103.227 E.08581
G1 X108.679 Y100.721 E.08754
G1 X110.248 Y98.445 E.08668
G1 X112.111 Y96.44 E.08581
G1 X114.266 Y94.71 E.08665
G1 X116.651 Y93.311 E.0867
G1 X119.24 Y92.266 E.08754
G1 X121.9 Y91.623 E.0858
G1 X124.613 Y91.372 E.08543
G1 X127.44 Y91.521 E.08876
G1 X130.149 Y92.075 E.0867
G1 X132.722 Y93.006 E.08579
G1 X135.158 Y94.313 E.08668
G1 X137.399 Y95.978 E.08754
G1 X139.334 Y97.914 E.08582
G1 X140.985 Y100.131 E.08667
G1 X142.295 Y102.565 E.08667
G1 X143.245 Y105.19 E.08753
G1 X143.791 Y107.872 E.08582
G1 X143.944 Y110.632 E.08667
G1 X143.694 Y113.385 E.08667
G1 X143.046 Y116.073 E.08669
G1 X142.001 Y118.661 E.08751
G1 X140.623 Y121.012 E.08544
G1 X138.891 Y123.181 E.08703
G1 X136.867 Y125.065 E.0867
G1 X134.591 Y126.634 E.08668
G1 X133.718 Y127.065 E.03053
G1 X132.121 Y127.847 E.05575
G1 X129.48 Y128.701 E.08703
G1 X126.753 Y129.155 E.08668
G1 X123.961 Y129.206 E.08756
G1 X121.247 Y128.857 E.0858
G1 X118.585 Y128.111 E.08668
G1 X116.06 Y126.986 E.08667
G1 X113.704 Y125.488 E.08754
G1 X111.613 Y123.68 E.08667
G1 X109.824 Y121.608 E.08583
G1 X108.34 Y119.276 E.08667
G1 X107.211 Y116.753 E.08667
G1 X106.455 Y114.066 E.08752
G1 X106.106 Y111.351 E.08583
G1 X106.154 Y108.603 E.08617
M204 S1000
G1 X105.833 Y108.312 F10800
;WIPE_START
G1 F8640
G1 X106.612 Y105.833 E-.64828
G1 X107.077 Y104.383 E-.35172
;WIPE_END
G1 Z.4 F720
G1 X133.653 Y88.785 F10800
G1 Z.2 F720
G1 E1 F2100
M204 S800
;TYPE:Solid infill
;WIDTH:0.420325
G1 F1200
G1 X145.683 Y100.816 E.53391
G1 X145.683 Y101.349 E.01673
G1 X133.289 Y88.955 E.55004
G1 X132.755 Y88.955 E.01676
M73 Q3 S24
G1 X145.683 Y101.883 E.57374
G1 X145.683 Y102.417 E.01676
M73 P3 R24
G1 X132.221 Y88.955 E.59744
G1 X131.688 Y88.955 E.01673
G1 X145.683 Y102.95 E.6211
G1 X145.683 Y103.484 E.01676
G1 X131.154 Y88.955 E.6448
G1 X130.62 Y88.955 E.01676
G1 X135.175 Y93.51 E.20215
G1 X134.03 Y92.899 E.04073
G1 X130.087 Y88.955 E.17501
G1 X129.553 Y88.955 E.01676
G1 X132.91 Y92.312 E.14898
G1 X132.074 Y92.009 E.0279
G1 X129.019 Y88.955 E.13556
G1 X128.485 Y88.955 E.01676
G1 X131.237 Y91.707 E.12213
G1 X130.401 Y91.405 E.02789
G1 X127.952 Y88.955 E.10871
G1 X127.418 Y88.955 E.01676
G1 X129.727 Y91.264 E.10247
G1 X129.057 Y91.128 E.02145
G1 X126.884 Y88.955 E.09644
G1 X126.35 Y88.955 E.01676
G1 X128.387 Y90.991 E.09038
G1 X127.717 Y90.855 E.02145
G1 X125.817 Y88.955 E.08432
G1 X125.283 Y88.955 E.01676
G1 X127.114 Y90.786 E.08126
G1 X126.552 Y90.757 E.01766
G1 X124.749 Y88.955 E.07999
G1 X124.216 Y88.955 E.01673
G1 X125.99 Y90.729 E.07873
G1 X125.428 Y90.701 E.01766
G1 X123.682 Y88.955 E.07749
G1 X123.148 Y88.955 E.01676
G1 X124.866 Y90.673 E.07624
G1 X124.559 Y90.658 E.00965
G1 X124.337 Y90.678 E.00699
G1 X122.614 Y88.955 E.07647
G1 X122.081 Y88.955 E.01673
G1 X123.849 Y90.723 E.07846
G1 X123.36 Y90.769 E.01541
G1 X121.547 Y88.955 E.08048
G1 X121.013 Y88.955 E.01676
G1 X122.872 Y90.814 E.0825
G1 X122.383 Y90.859 E.01541
G1 X120.479 Y88.955 E.0845
G1 X119.946 Y88.955 E.01673
G1 X121.895 Y90.904 E.0865
G1 X121.452 Y90.995 E.01419
G1 X119.412 Y88.955 E.09054
G1 X118.878 Y88.955 E.01676
G1 X121.022 Y91.099 E.09515
G1 X120.592 Y91.203 E.01388
G1 X118.344 Y88.955 E.09977
G1 X117.811 Y88.955 E.01673
G1 X120.162 Y91.307 E.10436
G1 X119.732 Y91.41 E.01388
G1 X117.277 Y88.955 E.10895
G1 X116.743 Y88.955 E.01676
G1 X119.303 Y91.514 E.11359
G1 X119.061 Y91.573 E.00782
G1 X118.894 Y91.64 E.00565
G1 X116.401 Y89.146 E.11066
G1 X116.134 Y89.413 E.01185
G1 X118.514 Y91.793 E.10562
G1 X118.134 Y91.947 E.01287
G1 X115.867 Y89.68 E.10061
G1 X115.6 Y89.947 E.01185
G1 X117.754 Y92.1 E.09557
G1 X117.373 Y92.254 E.0129
G1 X115.333 Y90.214 E.09054
G1 X115.066 Y90.48 E.01183
G1 X116.993 Y92.407 E.08552
G1 X116.613 Y92.561 E.01287
G1 X114.799 Y90.747 E.08051
G1 X114.533 Y91.014 E.01183
G1 X116.24 Y92.722 E.07578
G1 X115.904 Y92.92 E.01224
G1 X114.266 Y91.281 E.07272
G1 X113.999 Y91.548 E.01185
G1 X115.568 Y93.117 E.06963
G1 X115.233 Y93.315 E.01221
G1 X113.732 Y91.815 E.06659
G1 X113.465 Y92.082 E.01185
G1 X114.897 Y93.513 E.06353
G1 X114.561 Y93.711 E.01224
G1 X113.198 Y92.348 E.06049
G1 X112.931 Y92.615 E.01185
G1 X114.225 Y93.909 E.05743
G1 X113.889 Y94.107 E.01224
G1 X112.664 Y92.882 E.05437
G1 X112.398 Y93.149 E.01183
G1 X113.586 Y94.337 E.05272
G1 X113.29 Y94.575 E.01192
G1 X112.131 Y93.416 E.05144
G1 X111.864 Y93.683 E.01185
G1 X112.994 Y94.813 E.05015
G1 X112.699 Y95.051 E.01189
G1 X111.597 Y93.95 E.04888
G1 X111.33 Y94.216 E.01183
G1 X112.403 Y95.289 E.04762
G1 X112.107 Y95.527 E.01192
G1 X111.063 Y94.483 E.04633
G1 X110.796 Y94.75 E.01185
G1 X111.811 Y95.765 E.04505
G1 X111.528 Y96.016 E.01187
G1 X110.53 Y95.017 E.04431
G1 X110.263 Y95.284 E.01185
G1 X111.271 Y96.292 E.04473
G1 X111.014 Y96.569 E.01186
G1 X109.996 Y95.551 E.04518
G1 X109.729 Y95.818 E.01185
G1 X110.757 Y96.845 E.0456
G1 X110.5 Y97.122 E.01186
G1 X109.462 Y96.085 E.04604
G1 X109.195 Y96.351 E.01183
G1 X110.242 Y97.399 E.04649
G1 X109.985 Y97.675 E.01183
G1 X108.928 Y96.618 E.04691
G1 X108.661 Y96.885 E.01185
G1 X109.728 Y97.952 E.04735
G1 X109.508 Y98.266 E.01203
G1 X108.395 Y97.152 E.04942
G1 X108.128 Y97.419 E.01185
G1 X109.291 Y98.582 E.05161
G1 X109.073 Y98.898 E.01205
G1 X107.861 Y97.686 E.05379
G1 X107.594 Y97.953 E.01185
G1 X108.856 Y99.214 E.05599
G1 X108.638 Y99.531 E.01207
G1 X107.327 Y98.219 E.0582
G1 X107.06 Y98.486 E.01185
G1 X108.421 Y99.847 E.0604
G1 X108.203 Y100.163 E.01205
G1 X106.793 Y98.753 E.06258
G1 X106.527 Y99.02 E.01183
G1 X107.994 Y100.487 E.06511
G1 X107.819 Y100.846 E.01253
G1 X106.26 Y99.287 E.06919
G1 X105.993 Y99.554 E.01185
G1 X107.644 Y101.205 E.07327
G1 X107.469 Y101.563 E.0125
G1 X105.726 Y99.821 E.07733
G1 X105.459 Y100.088 E.01185
G1 X107.294 Y101.922 E.08141
G1 X107.119 Y102.281 E.01253
G1 X105.192 Y100.354 E.08552
G1 X104.925 Y100.621 E.01185
M73 P4 R24
M73 Q4 S24
G1 X106.944 Y102.64 E.0896
G1 X106.769 Y102.998 E.0125
G1 X104.659 Y100.888 E.09364
G1 X104.392 Y101.155 E.01185
G1 X106.639 Y103.402 E.09972
G1 X106.509 Y103.807 E.01335
G1 X104.317 Y101.614 E.0973
G1 X104.317 Y102.148 E.01676
G1 X106.38 Y104.211 E.09156
G1 X106.25 Y104.615 E.01332
G1 X104.317 Y102.681 E.08581
G1 X104.317 Y103.215 E.01676
G1 X106.12 Y105.019 E.08004
G1 X105.991 Y105.423 E.01331
G1 X104.317 Y103.749 E.07429
G1 X104.317 Y104.283 E.01676
G1 X105.887 Y105.853 E.06968
G1 X105.81 Y106.31 E.01454
G1 X104.317 Y104.816 E.06628
G1 X104.317 Y105.35 E.01676
G1 X105.733 Y106.767 E.06286
G1 X105.656 Y107.223 E.01451
G1 X104.317 Y105.884 E.05942
G1 X104.317 Y106.417 E.01673
G1 X105.579 Y107.68 E.05603
G1 X105.502 Y108.136 E.01451
G1 X104.317 Y106.951 E.05259
G1 X104.317 Y107.485 E.01676
G1 X105.445 Y108.613 E.05006
G1 X105.434 Y109.136 E.01642
G1 X104.317 Y108.019 E.04957
G1 X104.317 Y108.552 E.01673
G1 X105.423 Y109.659 E.04911
G1 X105.412 Y110.182 E.01642
G1 X104.317 Y109.086 E.04862
G1 X104.317 Y109.62 E.01676
G1 X105.401 Y110.704 E.04811
G1 X105.39 Y111.227 E.01642
G1 X104.317 Y110.154 E.04762
G1 X104.317 Y110.687 E.01673
G1 X105.451 Y111.821 E.05033
G1 X105.53 Y112.434 E.0194
G1 X104.317 Y111.221 E.05383
G1 X104.317 Y111.755 E.01676
G1 X105.609 Y113.047 E.05734
G1 X105.688 Y113.66 E.0194
G1 X104.317 Y112.289 E.06084
G1 X104.317 Y112.822 E.01673
G1 X105.768 Y114.273 E.0644
G1 X105.979 Y115.018 E.0243
G1 X104.317 Y113.356 E.07376
G1 X104.317 Y113.89 E.01676
G1 X106.191 Y115.764 E.08317
G1 X106.402 Y116.509 E.0243
G1 X104.317 Y114.423 E.09255
G1 X104.317 Y114.957 E.01676
G1 X106.679 Y117.319 E.10483
G1 X107.109 Y118.284 E.03315
G1 X104.317 Y115.491 E.12393
G1 X104.317 Y116.025 E.01676
G1 X107.54 Y119.248 E.14304
G1 X107.677 Y119.554 E.01052
G1 X108.302 Y120.544 E.03674
G1 X104.147 Y116.389 E.1844
M204 S1000
;WIPE_START
G1 F8640
G1 X107.209 Y119.451 E-1
;WIPE_END
G1 Z.4 F720
G1 X141.255 Y99.59 F10800
G1 Z.2 F720
G1 E1 F2100
M204 S800
G1 F1200
G1 X145.683 Y104.018 E.19651
G1 X145.683 Y104.552 E.01676
G1 X142.425 Y101.294 E.14459
G1 X142.931 Y102.235 E.03353
G1 X142.988 Y102.39 E.00518
G1 X145.683 Y105.085 E.1196
G1 X145.683 Y105.619 E.01676
G1 X143.294 Y103.23 E.10602
G1 X143.601 Y104.071 E.0281
G1 X145.683 Y106.153 E.0924
G1 X145.683 Y106.687 E.01676
G1 X143.908 Y104.911 E.0788
G1 X144.048 Y105.585 E.0216
G1 X145.683 Y107.22 E.07256
G1 X145.683 Y107.754 E.01676
G1 X144.185 Y106.255 E.0665
G1 X144.321 Y106.926 E.02149
G1 X145.683 Y108.288 E.06045
G1 X145.683 Y108.821 E.01673
G1 X144.458 Y107.596 E.05437
G1 X144.509 Y107.849 E.0081
G1 X144.527 Y108.199 E.011
G1 X145.683 Y109.355 E.0513
G1 X145.683 Y109.889 E.01676
G1 X144.557 Y108.763 E.04997
G1 X144.586 Y109.326 E.01769
G1 X145.683 Y110.423 E.04868
G1 X145.683 Y110.956 E.01673
G1 X144.615 Y109.889 E.04738
G1 X144.645 Y110.452 E.01769
G1 X145.683 Y111.49 E.04607
G1 X145.683 Y112.024 E.01676
G1 X144.634 Y110.975 E.04655
G1 X144.589 Y111.463 E.01538
G1 X145.683 Y112.558 E.04857
G1 X145.683 Y113.091 E.01673
G1 X144.544 Y111.952 E.05055
G1 X144.499 Y112.44 E.01538
G1 X145.683 Y113.625 E.05257
G1 X145.683 Y114.159 E.01676
G1 X144.453 Y112.929 E.05459
G1 X144.408 Y113.418 E.01541
G1 X145.683 Y114.693 E.05658
G1 X145.683 Y115.226 E.01673
G1 X144.317 Y113.86 E.06062
G1 X144.213 Y114.29 E.01388
G1 X145.683 Y115.76 E.06524
G1 X145.683 Y116.294 E.01676
G1 X144.11 Y114.72 E.06983
G1 X144.006 Y115.15 E.01388
G1 X145.683 Y116.827 E.07443
G1 X145.683 Y117.361 E.01676
G1 X143.902 Y115.58 E.07904
G1 X143.798 Y116.01 E.01388
G1 X145.683 Y117.895 E.08366
G1 X145.683 Y118.429 E.01676
G1 X143.673 Y116.418 E.08923
G1 X143.519 Y116.798 E.01287
G1 X145.683 Y118.962 E.09604
G1 X145.683 Y119.496 E.01676
G1 X143.366 Y117.179 E.10283
G1 X143.212 Y117.559 E.01287
G1 X145.561 Y119.908 E.10425
G1 X145.294 Y120.174 E.01183
G1 X143.059 Y117.939 E.09919
G1 X142.905 Y118.319 E.01287
G1 X145.027 Y120.441 E.09417
G1 X144.76 Y120.708 E.01185
G1 X142.752 Y118.7 E.08911
G1 X142.591 Y119.072 E.01272
G1 X144.493 Y120.975 E.08443
G1 X144.227 Y121.242 E.01183
G1 X142.393 Y119.409 E.08137
G1 X142.196 Y119.745 E.01222
G1 X143.96 Y121.509 E.07829
G1 X143.693 Y121.776 E.01185
G1 X141.999 Y120.081 E.0752
G1 X141.801 Y120.418 E.01227
G1 X143.426 Y122.042 E.0721
G1 X143.159 Y122.309 E.01185
G1 X141.604 Y120.754 E.06901
G1 X141.407 Y121.091 E.01225
G1 X142.892 Y122.576 E.0659
G1 X142.625 Y122.843 E.01185
G1 X141.208 Y121.425 E.06291
G1 X140.971 Y121.722 E.01192
G1 X142.359 Y123.11 E.0616
G1 X142.092 Y123.377 E.01185
G1 X140.734 Y122.019 E.06027
G1 X140.497 Y122.316 E.01192
G1 X141.825 Y123.644 E.05894
G1 X141.558 Y123.911 E.01185
G1 X140.26 Y122.613 E.05761
G1 X140.024 Y122.91 E.0119
G1 X141.291 Y124.177 E.05623
G1 X141.024 Y124.444 E.01185
G1 X139.787 Y123.207 E.0549
G1 X139.55 Y123.504 E.01192
G1 X140.757 Y124.711 E.05357
G1 X140.49 Y124.978 E.01185
G1 X139.292 Y123.779 E.05319
G1 X139.016 Y124.037 E.01186
M73 P4 R23
G1 X140.224 Y125.245 E.05361
G1 X139.957 Y125.512 E.01185
G1 X138.74 Y124.295 E.05401
G1 X138.464 Y124.553 E.01186
G1 X139.69 Y125.779 E.05441
G1 X139.423 Y126.045 E.01183
G1 X138.188 Y124.811 E.05479
G1 X137.912 Y125.069 E.01186
G1 X139.156 Y126.312 E.05519
G1 X138.889 Y126.579 E.01185
G1 X137.637 Y125.326 E.05559
G1 X137.361 Y125.584 E.01186
G1 X138.622 Y126.846 E.05599
G1 X138.356 Y127.113 E.01183
G1 X137.047 Y125.804 E.05809
G1 X136.73 Y126.021 E.01206
G1 X138.089 Y127.38 E.06031
G1 X137.822 Y127.647 E.01185
G1 X136.414 Y126.239 E.06249
G1 X136.098 Y126.457 E.01205
G1 X137.555 Y127.914 E.06466
G1 X137.288 Y128.18 E.01183
G1 X135.782 Y126.674 E.06684
G1 X135.466 Y126.892 E.01205
G1 X137.021 Y128.447 E.06901
G1 X136.754 Y128.714 E.01185
M73 P5 R23
M73 Q5 S24
