; generated by PrusaSlicer 2.6.1+win64 on 2023-09-22 at 16:16:28 UTC


;
;
; 

; external perimeters extrusion width = 0.45mm
; perimeters extrusion width = 0.45mm
; infill extrusion width = 0.45mm
; solid infill extrusion width = 0.45mm
; top infill extrusion width = 0.40mm
; first layer extrusion width = 0.42mm

M73 P0 R38
M73 Q0 S39
M201 X1000 Y1000 Z200 E5000 ; sets maximum accelerations, mm/sec^2
M203 X200 Y200 Z12 E120 ; sets maximum feedrates, mm / sec
M204 S1250 T1250 ; sets acceleration (S) and retract acceleration (R), mm/sec^2
M205 X8.00 Y8.00 Z0.40 E4.50 ; sets the jerk limits, mm/sec
M205 S0 T0 ; sets the minimum extruding and travel feed rate, mm/sec
;TYPE:Custom
M862.3 P "MK3S" ; printer model check
M862.1 P0.4 ; nozzle diameter check
M115 U3.12.2 ; tell printer latest fw version
G90 ; use absolute coordinates
M83 ; extruder relative mode
M104 S240 ; set extruder temp
M140 S85 ; set bed temp
M190 S85 ; wait for bed temp
M109 S240 ; wait for extruder temp
G28 W ; home all without mesh bed level
G80 ; mesh bed leveling

G1 Z0.2 F720
G1 Y-3 F1000 ; go outside print area
G92 E0
G1 X60 E9 F1000 ; intro line
G1 X100 E12.5 F1000 ; intro line

G92 E0
M221 S95

; Don't change E values below. Excessive value can damage the printer.
M907 E430 ; set extruder motor current
G21 ; set units to millimeters
G90 ; use absolute coordinates
M83 ; use relative distances for extrusion
M900 K0.08 ; Filament gcode LA 1.5
M900 K45 ; Filament gcode LA 1.0
M107
;LAYER_CHANGE
;Z:0.2
;HEIGHT:0.2
;BEFORE_LAYER_CHANGE
G92 E0.0
;0.2


M73 Q0 S38
G1 E-1 F2100
G1 Z.2 F720
;AFTER_LAYER_CHANGE
;0.2
G1 Z.4
G1 X101.599 Y94.653 F10800
G1 Z.2 F720
G1 E1 F2100
M204 S800
;TYPE:Skirt/Brim
;WIDTH:0.42
G1 F1200
G1 X113.765 Y82.487 E.53946
G1 X115.446 Y81.791 E.05705
G1 X136.85 Y81.791 E.67111
G1 X138.531 Y82.487 E.05705
G1 X148.401 Y92.356 E.43763
G1 X149.097 Y94.037 E.05705
G1 X149.097 Y115.026 E.6581
G1 X148.401 Y116.707 E.05705
G1 X137.594 Y127.513 E.47918
G1 X135.913 Y128.209 E.05705
G1 X115.875 Y128.209 E.62828
G1 X114.194 Y127.513 E.05705
G1 X101.599 Y114.918 E.55848
G1 X100.903 Y113.237 E.05705
G1 X100.903 Y96.334 E.52998
G1 X101.576 Y94.708 E.05518
M204 S1000
; printing object Front_Left_Wheel_Mount_Tool_rev0-5 id:0 copy 0
;WIPE_START
G1 F8640
G1 X104.634 Y91.642 E-1
;WIPE_END
G1 Z.4 F720
G1 X115.772 Y84.955 F10800
G1 Z.2 F720
G1 E1 F2100
M204 S800
;TYPE:Perimeter
;WIDTH:0.419999
G1 F1200
G1 X136.524 Y84.955 E.65066
G1 X145.933 Y94.363 E.41719
G1 X145.933 Y114.7 E.63765
G1 X135.587 Y125.045 E.45874
G1 X116.201 Y125.045 E.60783
G1 X104.067 Y112.911 E.53804
G1 X104.067 Y96.66 E.50954
G1 X115.73 Y84.997 E.51716
M204 S1000
G1 X115.616 Y84.578 F10800
M204 S800
;TYPE:External perimeter
G1 F1200
G1 X136.681 Y84.578 E.66048
G1 X146.31 Y94.207 E.42697
M73 P1 R38
M73 Q1 S38
G1 X146.31 Y114.856 E.64743
G1 X135.744 Y125.422 E.46851
G1 X116.045 Y125.422 E.61765
G1 X103.69 Y113.067 E.54784
G1 X103.69 Y96.504 E.51932
G1 X115.574 Y84.62 E.52696
M204 S1000
G1 X115.933 Y84.822 F10800
;WIPE_START
G1 F8640
G1 X119.905 Y84.611 E-1
;WIPE_END
G1 Z.4 F720
G1 X125.652 Y116.607 F10800
G1 Z.2 F720
G1 E1 F2100
M204 S800
;TYPE:Perimeter
G1 F1200
G1 X124.764 Y115.783 E.03798
G1 X124.048 Y114.844 E.03702
G1 X123.502 Y113.798 E.037
G1 X123.162 Y112.767 E.03404
G1 X122.979 Y111.601 E.03701
G1 X122.996 Y110.42 E.03703
G1 X123.212 Y109.26 E.037
G1 X123.621 Y108.152 E.03703
G1 X124.267 Y107.051 E.04002
G1 X125.035 Y106.154 E.03703
G1 X125.942 Y105.399 E.037
G1 X126.878 Y104.85 E.03402
G1 X127.98 Y104.426 E.03702
G1 X129.138 Y104.193 E.03704
G1 X130.318 Y104.16 E.03701
G1 X131.58 Y104.349 E.04001
G1 X132.699 Y104.726 E.03702
G1 X133.738 Y105.287 E.03702
G1 X134.667 Y106.016 E.03703
G1 X135.459 Y106.891 E.037
G1 X136.048 Y107.803 E.03404
G1 X136.519 Y108.885 E.037
G1 X136.8 Y110.032 E.03703
G1 X136.883 Y111.21 E.03703
G1 X136.748 Y112.479 E.04001
G1 X136.418 Y113.613 E.03703
G1 X135.951 Y114.592 E.03401
G1 X135.275 Y115.56 E.03702
G1 X134.446 Y116.401 E.03703
G1 X133.485 Y117.09 E.03708
G1 X132.336 Y117.639 E.03993
G1 X131.197 Y117.953 E.03704
G1 X130.023 Y118.07 E.03699
G1 X128.94 Y118.001 E.03403
G1 X127.789 Y117.736 E.03703
G1 X126.7 Y117.28 E.03702
G1 X125.7 Y116.643 E.03718
M204 S1000
G1 X125.875 Y116.303 F10800
M204 S800
;TYPE:External perimeter
G1 F1200
G1 X125.062 Y115.553 E.03468
G1 X124.399 Y114.694 E.03402
G1 X123.872 Y113.709 E.03503
G1 X123.52 Y112.649 E.03502
G1 X123.352 Y111.545 E.03501
G1 X123.373 Y110.428 E.03503
G1 X123.582 Y109.331 E.03501
G1 X123.974 Y108.285 E.03502
G1 X124.556 Y107.294 E.03603
G1 X125.278 Y106.442 E.03502
G1 X126.133 Y105.724 E.03501
G1 X127.069 Y105.175 E.03402
G1 X128.113 Y104.778 E.03502
G1 X129.212 Y104.563 E.03511
G1 X130.326 Y104.537 E.03494
G1 X131.462 Y104.707 E.03602
G1 X132.522 Y105.059 E.03502
G1 X133.507 Y105.586 E.03503
G1 X134.389 Y106.271 E.03502
G1 X135.143 Y107.095 E.03502
G1 X135.731 Y108.007 E.03402
G1 X136.172 Y109.033 E.03502
G1 X136.433 Y110.119 E.03502
G1 X136.507 Y111.234 E.03504
G1 X136.391 Y112.345 E.03502
G1 X136.089 Y113.42 E.03501
G1 X135.594 Y114.457 E.03603
G1 X134.947 Y115.367 E.03501
G1 X134.155 Y116.155 E.03503
G1 X133.269 Y116.782 E.03403
G1 X132.263 Y117.265 E.03499
G1 X131.189 Y117.572 E.03502
G1 X130.079 Y117.693 E.03501
G1 X128.932 Y117.62 E.03604
G1 X127.846 Y117.359 E.03502
G1 X126.848 Y116.933 E.03402
G1 X125.923 Y116.339 E.03447
M204 S1000
G1 X125.504 Y116.454 F10800
;WIPE_START
G1 F8640
G1 X125.062 Y115.553 E-.26919
G1 X124.399 Y114.694 E-.25055
G1 X123.872 Y113.709 E-.25795
G1 X123.569 Y112.795 E-.22231
;WIPE_END
G1 Z.4 F720
G1 X145.763 Y94.675 F10800
G1 Z.2 F720
G1 E1 F2100
M204 S800
;TYPE:Solid infill
;WIDTH:0.421643
G1 F1200
G1 X136.383 Y85.294 E.41776
G1 X135.847 Y85.294 E.01688
G1 X145.593 Y95.041 E.43406
G1 X145.593 Y95.576 E.01685
G1 X135.311 Y85.294 E.45791
G1 X134.776 Y85.294 E.01685
G1 X145.593 Y96.112 E.48176
G1 X145.593 Y96.647 E.01685
G1 X134.24 Y85.294 E.5056
G1 X133.705 Y85.294 E.01685
G1 X145.593 Y97.183 E.52945
G1 X145.593 Y97.719 E.01688
G1 X133.169 Y85.294 E.55332
G1 X132.633 Y85.294 E.01688
G1 X145.593 Y98.254 E.57717
G1 X145.593 Y98.79 E.01688
G1 X132.098 Y85.294 E.60102
G1 X131.562 Y85.294 E.01688
G1 X145.593 Y99.325 E.62487
G1 X145.593 Y99.861 E.01688
G1 X131.027 Y85.294 E.64872
G1 X130.491 Y85.294 E.01688
G1 X145.593 Y100.397 E.67259
G1 X145.593 Y100.932 E.01685
G1 X129.955 Y85.294 E.69644
G1 X129.42 Y85.294 E.01685
M73 P2 R38
M73 Q2 S38
G1 X145.593 Y101.468 E.72029
G1 X145.593 Y102.003 E.01685
G1 X128.884 Y85.294 E.74413
G1 X128.349 Y85.294 E.01685
G1 X145.593 Y102.539 E.76798
G1 X145.593 Y103.074 E.01685
G1 X127.813 Y85.294 E.79183
G1 X127.277 Y85.294 E.01688
G1 X145.593 Y103.61 E.8157
G1 X145.593 Y104.146 E.01688
G1 X126.742 Y85.294 E.83955
G1 X126.206 Y85.294 E.01688
M73 P2 R37
G1 X145.593 Y104.681 E.8634
G1 X145.593 Y105.217 E.01688
G1 X125.671 Y85.294 E.88725
G1 X125.135 Y85.294 E.01688
G1 X145.593 Y105.752 E.9111
G1 X145.593 Y106.288 E.01688
G1 X124.599 Y85.294 E.93497
G1 X124.064 Y85.294 E.01685
G1 X145.593 Y106.824 E.95881
G1 X145.593 Y107.359 E.01685
M73 Q2 S37
G1 X123.528 Y85.294 E.98266
G1 X122.993 Y85.294 E.01685
G1 X145.593 Y107.895 E1.00651
G1 X145.593 Y108.43 E.01685
G1 X122.457 Y85.294 E1.03036
G1 X121.921 Y85.294 E.01688
G1 X145.593 Y108.966 E1.05423
G1 X145.593 Y109.502 E.01688
G1 X121.386 Y85.294 E1.07808
G1 X120.85 Y85.294 E.01688
M73 P3 R37
M73 Q3 S37
G1 X145.593 Y110.037 E1.10193
G1 X145.593 Y110.573 E.01688
G1 X120.315 Y85.294 E1.12578
G1 X119.779 Y85.294 E.01688
G1 X145.593 Y111.108 E1.14962
G1 X145.593 Y111.644 E.01688
G1 X119.243 Y85.294 E1.1735
G1 X118.708 Y85.294 E.01685
G1 X145.593 Y112.18 E1.19734
G1 X145.593 Y112.715 E.01685
G1 X118.172 Y85.294 E1.22119
G1 X117.637 Y85.294 E.01685
G1 X145.593 Y113.251 E1.24504
G1 X145.593 Y113.786 E.01685
G1 X117.101 Y85.294 E1.26889
G1 X116.566 Y85.294 E.01685
G1 X145.593 Y114.322 E1.29274
G1 X145.593 Y114.559 E.00746
G1 X145.444 Y114.708 E.00664
G1 X116.03 Y85.294 E1.30995
G1 X115.913 Y85.294 E.00368
G1 X115.704 Y85.503 E.00931
G1 X145.176 Y114.976 E1.31256
G1 X144.909 Y115.244 E.01191
G1 X115.436 Y85.771 E1.31258
G1 X115.168 Y86.039 E.01194
M73 P4 R37
M73 Q4 S37
G1 X144.641 Y115.512 E1.31258
G1 X144.373 Y115.78 E.01194
G1 X136.448 Y107.854 E.35296
G1 X136.84 Y108.783 E.03175
G1 X144.105 Y116.047 E.32352
G1 X143.837 Y116.315 E.01194
G1 X137.016 Y109.494 E.30377
G1 X137.133 Y109.965 E.01528
G1 X137.147 Y110.16 E.00616
G1 X143.57 Y116.583 E.28605
G1 X143.302 Y116.851 E.01194
G1 X137.188 Y110.737 E.27229
G1 X137.218 Y111.303 E.01785
G1 X143.034 Y117.119 E.25902
G1 X142.766 Y117.386 E.01191
G1 X137.164 Y111.785 E.24946
G1 X137.11 Y112.266 E.01524
G1 X142.498 Y117.654 E.23995
G1 X142.231 Y117.922 E.01191
G1 X137.03 Y112.722 E.2316
G1 X136.909 Y113.136 E.01358
G1 X141.963 Y118.19 E.22508
G1 X141.695 Y118.458 E.01194
G1 X136.788 Y113.55 E.21856
G1 X136.73 Y113.749 E.00653
G1 X136.638 Y113.936 E.00656
G1 X141.427 Y118.725 E.21328
G1 X141.159 Y118.993 E.01194
G1 X136.462 Y114.296 E.20918
G1 X136.286 Y114.656 E.01262
G1 X140.892 Y119.261 E.20511
G1 X140.624 Y119.529 E.01194
G1 X136.09 Y114.995 E.20192
G1 X135.869 Y115.309 E.01209
G1 X140.356 Y119.797 E.19985
G1 X140.088 Y120.064 E.01191
G1 X135.647 Y115.623 E.19778
G1 X135.545 Y115.766 E.00553
G1 X135.401 Y115.913 E.00648
G1 X139.82 Y120.332 E.1968
G1 X139.553 Y120.6 E.01191
G1 X135.136 Y116.183 E.19671
G1 X134.87 Y116.453 E.01194
G1 X139.285 Y120.868 E.19662
G1 X139.017 Y121.136 E.01194
G1 X134.592 Y116.711 E.19707
G1 X134.281 Y116.935 E.01207
G1 X138.749 Y121.403 E.19898
G1 X138.481 Y121.671 E.01194
G1 X133.97 Y117.16 E.2009
G1 X133.657 Y117.382 E.01208
G1 X138.214 Y121.939 E.20295
G1 X137.946 Y122.207 E.01194
G1 X133.297 Y117.557 E.20707
G1 X132.937 Y117.733 E.01262
G1 X137.678 Y122.475 E.21116
G1 X137.41 Y122.742 E.01191
G1 X132.577 Y117.909 E.21524
G1 X132.166 Y118.034 E.01353
G1 X137.143 Y123.01 E.22163
G1 X136.875 Y123.278 E.01194
G1 X131.749 Y118.153 E.22826
G1 X131.333 Y118.272 E.01363
G1 X136.607 Y123.546 E.23488
G1 X136.339 Y123.814 E.01194
G1 X130.854 Y118.328 E.2443
G1 X130.369 Y118.379 E.01536
G1 X136.071 Y124.081 E.25394
G1 X135.804 Y124.349 E.01191
G1 X129.851 Y118.396 E.26512
G1 X129.274 Y118.355 E.01822
G1 X135.536 Y124.617 E.27888
G1 X135.447 Y124.706 E.00396
G1 X135.089 Y124.706 E.01127
G1 X128.679 Y118.295 E.28549
G1 X127.967 Y118.119 E.0231
G1 X134.553 Y124.706 E.29333
G1 X134.018 Y124.706 E.01685
G1 X126.818 Y117.506 E.32065
M204 S1000
;WIPE_START
G1 F8640
G1 X129.88 Y120.568 E-1
;WIPE_END
G1 Z.4 F720
G1 X133.62 Y105.026 F10800
G1 Z.2 F720
G1 E1 F2100
M204 S800
G1 F1200
G1 X114.9 Y86.307 E.83367
G1 X114.632 Y86.575 E.01194
G1 X132.285 Y104.227 E.78615
G1 X131.611 Y104.005 E.02235
M73 P4 R36
G1 X131.513 Y103.991 E.00312
G1 X114.365 Y86.842 E.76371
G1 X114.097 Y87.11 E.01194
G1 X130.888 Y103.901 E.74779
G1 X130.273 Y103.822 E.01953
M73 P5 R36
M73 Q5 S37
G1 X113.829 Y87.378 E.73233
G1 X113.561 Y87.646 E.01194
G1 X129.749 Y103.834 E.72093
G1 X129.226 Y103.846 E.01647
G1 X113.293 Y87.914 E.70955
G1 X113.026 Y88.181 E.01189
G1 X128.766 Y103.921 E.70098
G1 X128.316 Y104.007 E.01443
M73 Q5 S36
G1 X112.758 Y88.449 E.69287
G1 X112.49 Y88.717 E.01194
G1 X127.883 Y104.11 E.68553
G1 X127.491 Y104.254 E.01315
G1 X112.222 Y88.985 E.68
G1 X111.954 Y89.253 E.01194
G1 X127.099 Y104.398 E.67448
G1 X126.834 Y104.495 E.00889
G1 X126.725 Y104.558 E.00396
G1 X111.687 Y89.52 E.66972
G1 X111.419 Y89.788 E.01194
G1 X126.385 Y104.755 E.66653
G1 X126.046 Y104.951 E.01233
G1 X111.151 Y90.056 E.66335
G1 X110.883 Y90.324 E.01194
G1 X125.707 Y105.147 E.66016
G1 X125.416 Y105.392 E.01198
G1 X110.615 Y90.592 E.65914
G1 X110.348 Y90.859 E.01189
G1 X125.125 Y105.637 E.65811
G1 X124.835 Y105.882 E.01196
G1 X110.08 Y91.127 E.65711
G1 X109.812 Y91.395 E.01194
G1 X124.578 Y106.161 E.6576
G1 X124.333 Y106.451 E.01196
G1 X109.544 Y91.663 E.6586
G1 X109.276 Y91.931 E.01194
G1 X124.088 Y106.742 E.65963
G1 X123.958 Y106.896 E.00635
G1 X123.866 Y107.056 E.00581
G1 X109.009 Y92.198 E.66168
G1 X108.741 Y92.466 E.01194
G1 X123.67 Y107.395 E.66486
G1 X123.474 Y107.735 E.01236
G1 X108.473 Y92.734 E.66807
G1 X108.205 Y93.002 E.01194
M73 P6 R36
M73 Q6 S36
G1 X123.286 Y108.082 E.67161
G1 X123.142 Y108.474 E.01315
G1 X107.937 Y93.27 E.67713
G1 X107.67 Y93.537 E.01189
G1 X122.998 Y108.866 E.68265
G1 X122.865 Y109.268 E.01333
G1 X107.402 Y93.805 E.68864
G1 X107.134 Y94.073 E.01194
G1 X122.78 Y109.719 E.69679
G1 X122.694 Y110.169 E.01443
G1 X106.866 Y94.341 E.7049
G1 X106.598 Y94.609 E.01194
G1 X122.653 Y110.663 E.71499
G1 X122.641 Y111.186 E.01647
G1 X106.331 Y94.876 E.72636
G1 X106.063 Y95.144 E.01194
G1 X122.668 Y111.749 E.7395
G1 X122.757 Y112.374 E.01988
G1 X105.795 Y95.412 E.7554
G1 X105.527 Y95.68 E.01194
G1 X122.902 Y113.055 E.77379
G1 X123.165 Y113.854 E.02649
G1 X105.259 Y95.948 E.79744
G1 X104.992 Y96.215 E.01189
G1 X123.727 Y114.951 E.83438
G1 X123.807 Y115.099 E.0053
G1 X124.59 Y116.096 E.03992
G1 X125.407 Y116.846 E.03492
G1 X126.037 Y117.261 E.02376
G1 X133.482 Y124.706 E.33156
G1 X132.947 Y124.706 E.01685
G1 X104.724 Y96.483 E1.25691
G1 X104.456 Y96.751 E.01194
G1 X132.411 Y124.706 E1.24497
G1 X131.875 Y124.706 E.01688
G1 X104.407 Y97.237 E1.22331
G1 X104.407 Y97.773 E.01688
G1 X131.34 Y124.706 E1.19946
G1 X130.804 Y124.706 E.01688
M73 P7 R36
M73 Q7 S36
G1 X104.407 Y98.308 E1.17561
G1 X104.407 Y98.844 E.01688
G1 X130.269 Y124.706 E1.15176
G1 X129.733 Y124.706 E.01688
G1 X104.407 Y99.38 E1.12789
G1 X104.407 Y99.915 E.01685
G1 X129.197 Y124.706 E1.10404
G1 X128.662 Y124.706 E.01685
G1 X104.407 Y100.451 E1.08019
G1 X104.407 Y100.986 E.01685
G1 X128.126 Y124.706 E1.05635
G1 X127.591 Y124.706 E.01685
M73 P7 R35
G1 X104.407 Y101.522 E1.0325
G1 X104.407 Y102.057 E.01685
G1 X127.055 Y124.706 E1.00865
G1 X126.519 Y124.706 E.01688
G1 X104.407 Y102.593 E.98478
G1 X104.407 Y103.129 E.01688
G1 X125.984 Y124.706 E.96093
G1 X125.448 Y124.706 E.01688
M73 Q7 S35
G1 X104.407 Y103.664 E.93708
G1 X104.407 Y104.2 E.01688
G1 X124.913 Y124.706 E.91323
G1 X124.377 Y124.706 E.01688
G1 X104.407 Y104.735 E.88938
G1 X104.407 Y105.271 E.01688
G1 X123.841 Y124.706 E.86551
G1 X123.306 Y124.706 E.01685
M73 P8 R35
M73 Q8 S35
G1 X104.407 Y105.807 E.84167
G1 X104.407 Y106.342 E.01685
G1 X122.77 Y124.706 E.81782
G1 X122.235 Y124.706 E.01685
G1 X104.407 Y106.878 E.79397
G1 X104.407 Y107.413 E.01685
G1 X121.699 Y124.706 E.77012
G1 X121.163 Y124.706 E.01688
G1 X104.407 Y107.949 E.74625
G1 X104.407 Y108.485 E.01688
G1 X120.628 Y124.706 E.7224
G1 X120.092 Y124.706 E.01688
G1 X104.407 Y109.02 E.69855
G1 X104.407 Y109.556 E.01688
G1 X119.557 Y124.706 E.6747
G1 X119.021 Y124.706 E.01688
G1 X104.407 Y110.091 E.65086
G1 X104.407 Y110.627 E.01688
G1 X118.486 Y124.706 E.62701
G1 X117.95 Y124.706 E.01688
G1 X104.407 Y111.163 E.60314
G1 X104.407 Y111.698 E.01685
G1 X117.414 Y124.706 E.57929
G1 X116.879 Y124.706 E.01685
G1 X104.407 Y112.234 E.55544
G1 X104.407 Y112.769 E.01685
G1 X116.513 Y124.876 E.53916
M204 S1000
; stop printing object Front_Left_Wheel_Mount_Tool_rev0-5 id:0 copy 0
;LAYER_CHANGE
;Z:0.4
;HEIGHT:0.2
;BEFORE_LAYER_CHANGE
G92 E0.0
;0.4


;WIPE_START
G1 F8640
G1 X113.451 Y121.814 E-1
;WIPE_END
G1 Z.4 F720
;AFTER_LAYER_CHANGE
;0.4
M104 S250 ; set temperature
M140 S90 ; set bed temperature
; printing object Front_Left_Wheel_Mount_Tool_rev0-5 id:0 copy 0
G1 Z.6
G1 X115.708 Y84.8 F10800
G1 Z.4 F720
G1 E1 F2100
M204 S800
;TYPE:Perimeter
;WIDTH:0.449999
G1 F2700
G1 X136.589 Y84.8 E.7068
G1 X146.088 Y94.299 E.45471
G1 X146.088 Y114.764 E.69271
G1 X135.652 Y125.2 E.49956
G1 X116.137 Y125.2 E.66056
G1 X103.912 Y112.975 E.5852
G1 X103.912 Y96.595 E.55444
G1 X115.666 Y84.842 E.56263
M204 S1000
G1 X115.536 Y84.396 F10800
M204 S800
;TYPE:External perimeter
G1 F1500
G1 X136.757 Y84.393 E.7183
G1 X146.495 Y94.13 E.46613
G1 X146.495 Y114.933 E.70416
G1 X135.82 Y125.607 E.51098
M73 P9 R35
G1 X115.969 Y125.607 E.67193
M73 Q9 S35
G1 X103.505 Y113.144 E.59662
G1 X103.505 Y96.427 E.56585
G1 X115.494 Y84.439 E.57388
M204 S1000
G1 X115.853 Y84.64 F10800
;WIPE_START
G1 F8640
G1 X119.825 Y84.43 E-1
;WIPE_END
