; generated by PrusaSlicer 2.6.1+win64 on 2023-09-23 at 09:06:53 UTC


;
;
; 

; external perimeters extrusion width = 0.45mm
; perimeters extrusion width = 0.45mm
; infill extrusion width = 0.45mm
; solid infill extrusion width = 0.45mm
; top infill extrusion width = 0.40mm
; first layer extrusion width = 0.42mm

M73 P0 R45
M73 Q0 S45
M201 X1000 Y1000 Z200 E5000 ; sets maximum accelerations, mm/sec^2
M203 X200 Y200 Z12 E120 ; sets maximum feedrates, mm / sec
M204 S1250 T1250 ; sets acceleration (S) and retract acceleration (R), mm/sec^2
M205 X8.00 Y8.00 Z0.40 E4.50 ; sets the jerk limits, mm/sec
M205 S0 T0 ; sets the minimum extruding and travel feed rate, mm/sec
;TYPE:Custom
M862.3 P "MK3S" ; printer model check
M862.1 P0.4 ; nozzle diameter check
M115 U3.12.2 ; tell printer latest fw version
G90 ; use absolute coordinates
M83 ; extruder relative mode
M104 S240 ; set extruder temp
M140 S85 ; set bed temp
M190 S85 ; wait for bed temp
M109 S240 ; wait for extruder temp
G28 W ; home all without mesh bed level
G80 ; mesh bed leveling

G1 Z0.2 F720
G1 Y-3 F1000 ; go outside print area
G92 E0
G1 X60 E9 F1000 ; intro line
G1 X100 E12.5 F1000 ; intro line

G92 E0
M221 S95

; Don't change E values below. Excessive value can damage the printer.
M907 E430 ; set extruder motor current
G21 ; set units to millimeters
G90 ; use absolute coordinates
M83 ; use relative distances for extrusion
M900 K0.08 ; Filament gcode LA 1.5
M900 K45 ; Filament gcode LA 1.0
M107
;LAYER_CHANGE
;Z:0.2
;HEIGHT:0.2
;BEFORE_LAYER_CHANGE
G92 E0.0
;0.2


G1 E-1 F2100
G1 Z.2 F720
;AFTER_LAYER_CHANGE
;0.2
G1 Z.4
G1 X101.124 Y85.402 F10800
G1 Z.2 F720
G1 E1 F2100
M204 S800
;TYPE:Skirt/Brim
;WIDTH:0.42
G1 F1200
G1 X113.609 Y72.917 E.55361
G1 X115.29 Y72.22 E.05706
G1 X134.736 Y72.22 E.60972
G1 X136.417 Y72.917 E.05706
G1 X148.876 Y85.376 E.55245
G1 X149.572 Y87.057 E.05705
G1 X149.572 Y105.4 E.57513
G1 X148.876 Y107.08 E.05702
G1 X136.137 Y119.82 E.56489
G1 X134.456 Y120.516 E.05705
G1 X117.313 Y120.516 E.53751
G1 X115.632 Y119.82 E.05705
G1 X101.124 Y105.312 E.64331
G1 X100.428 Y103.631 E.05705
G1 X100.428 Y87.083 E.51885
G1 X101.101 Y85.457 E.05518
M204 S1000
; printing object Front_Left_Wheel_Mount_Tool_rev0-6 id:0 copy 0
;WIPE_START
M73 P0 R44
G1 F8640
G1 X104.159 Y82.391 E-1
;WIPE_END
G1 Z.4 F720
G1 X103.592 Y103.305 F10800
G1 Z.2 F720
G1 E1 F2100
M204 S800
;TYPE:Perimeter
;WIDTH:0.419999
G1 F1200
G1 X103.592 Y87.409 E.49841
G1 X115.616 Y75.384 E.53319
G1 X134.41 Y75.384 E.58927
G1 X146.408 Y87.383 E.53203
G1 X146.408 Y105.074 E.55469
G1 X134.13 Y117.352 E.54443
G1 X117.639 Y117.352 E.51706
G1 X103.634 Y103.347 E.621
M204 S1000
G1 X103.215 Y103.461 F10800
M204 S800
;TYPE:External perimeter
G1 F1200
G1 X103.215 Y87.252 E.50822
G1 X115.46 Y75.007 E.54296
G1 X134.566 Y75.007 E.59905
G1 X146.785 Y87.226 E.54181
G1 X146.785 Y105.23 E.5645
M73 Q0 S44
G1 X134.286 Y117.729 E.55423
M73 Q1 S44
G1 X117.483 Y117.729 E.52685
M73 P1 R44
G1 X103.257 Y103.504 E.63078
M204 S1000
G1 X103.462 Y103.147 F10800
;WIPE_START
G1 F8640
G1 X103.246 Y99.173 E-1
;WIPE_END
G1 Z.4 F720
G1 X133.302 Y107.794 F10800
G1 Z.2 F720
G1 E1 F2100
M204 S800
;TYPE:Perimeter
G1 F1200
G1 X132.343 Y108.486 E.03708
G1 X131.285 Y109 E.03688
G1 X130.153 Y109.329 E.03696
G1 X128.887 Y109.464 E.03992
G1 X127.712 Y109.381 E.03693
G1 X126.659 Y109.13 E.03394
G1 X125.572 Y108.675 E.03695
G1 X124.578 Y108.043 E.03693
G1 X123.666 Y107.206 E.03881
G1 X122.979 Y106.328 E.03495
G1 X122.38 Y105.2 E.04004
G1 X122.041 Y104.172 E.03394
G1 X121.943 Y103.572 E.01906
G1 X121.859 Y103.008 E.01788
G1 X121.876 Y101.83 E.03694
G1 X122.091 Y100.672 E.03693
G1 X122.528 Y99.514 E.03881
G1 X123.087 Y98.549 E.03497
G1 X123.91 Y97.573 E.04003
G1 X124.738 Y96.875 E.03396
G1 X125.836 Y96.231 E.03991
G1 X126.849 Y95.849 E.03395
G1 X127.834 Y95.65 E.03151
G1 X128.099 Y95.607 E.00842
G1 X129.149 Y95.584 E.03293
G1 X130.345 Y95.75 E.03786
G1 X131.469 Y96.111 E.03702
G1 X132.514 Y96.657 E.03697
G1 X133.234 Y97.203 E.02833
G1 X133.674 Y97.601 E.0186
G1 X134.254 Y98.233 E.0269
G1 X134.899 Y99.218 E.03692
G1 X135.369 Y100.299 E.03696
G1 X135.65 Y101.443 E.03694
G1 X135.731 Y102.714 E.03993
G1 X135.598 Y103.885 E.03695
G1 X135.269 Y105.016 E.03693
G1 X134.754 Y106.075 E.03692
G1 X134.129 Y106.959 E.03394
G1 X133.346 Y107.753 E.03496
M204 S1000
G1 X133.045 Y107.519 F10800
M204 S800
;TYPE:External perimeter
G1 F1200
G1 X132.126 Y108.177 E.03544
G1 X131.122 Y108.66 E.03493
G1 X130.051 Y108.966 E.03492
G1 X128.911 Y109.088 E.03595
G1 X127.799 Y109.014 E.03494
G1 X126.746 Y108.763 E.03394
G1 X125.72 Y108.329 E.03493
G1 X124.782 Y107.727 E.03495
G1 X123.963 Y106.974 E.03488
G1 X123.276 Y106.096 E.03495
G1 X122.709 Y104.993 E.03889
G1 X122.399 Y104.052 E.03106
G1 X122.232 Y102.953 E.03485
G1 X122.241 Y102.404 E.01722
G1 X122.253 Y101.838 E.01775
G1 X122.462 Y100.744 E.03492
G1 X122.854 Y99.703 E.03488
G1 X123.414 Y98.739 E.03496
G1 X124.153 Y97.862 E.03596
G1 X124.981 Y97.164 E.03396
G1 X125.969 Y96.584 E.03592
G1 X126.982 Y96.201 E.03396
G1 X127.906 Y96.02 E.02952
G1 X128.107 Y95.984 E.0064
G1 X129.157 Y95.961 E.03293
G1 X130.291 Y96.123 E.03592
G1 X131.351 Y96.469 E.03496
G1 X132.337 Y96.99 E.03497
G1 X133.004 Y97.502 E.02636
G1 X133.396 Y97.856 E.01656
G1 X133.976 Y98.488 E.0269
G1 X134.598 Y99.451 E.03594
G1 X135.022 Y100.447 E.03394
G1 X135.283 Y101.53 E.03493
G1 X135.356 Y102.674 E.03594
G1 X135.235 Y103.782 E.03495
G1 X134.929 Y104.853 E.03492
G1 X134.446 Y105.858 E.03496
G1 X133.821 Y106.741 E.03392
G1 X133.088 Y107.478 E.03259
M204 S1000
G1 X133.117 Y107.913 F10800
;WIPE_START
G1 F8640
G1 X132.126 Y108.177 E-.27457
G1 X131.122 Y108.66 E-.25726
G1 X130.051 Y108.966 E-.25719
G1 X129.142 Y109.063 E-.21098
;WIPE_END
G1 Z.4 F720
G1 X118.314 Y103.339 F10800
G1 Z.2 F720
G1 E1 F2100
M204 S800
;TYPE:Perimeter
G1 F1200
G1 X117.748 Y103.486 E.01834
G1 X117.112 Y103.54 E.02001
G1 X116.476 Y103.486 E.02001
G1 X115.858 Y103.327 E.02001
G1 X115.276 Y103.066 E.02
G1 X114.745 Y102.71 E.02004
G1 X114.282 Y102.271 E.02001
G1 X113.9 Y101.76 E.02
G1 X113.608 Y101.192 E.02002
G1 X112.994 Y99.17 E.06626
G1 X112.735 Y97.072 E.06628
G1 X112.84 Y94.96 E.0663
G1 X113.336 Y92.805 E.06934
G1 X114.163 Y90.859 E.0663
G1 X115.253 Y89.162 E.06324
G1 X116.677 Y87.599 E.0663
G1 X118.347 Y86.303 E.06628
G1 X120.218 Y85.312 E.06638
G1 X122.321 Y84.636 E.06926
G1 X124.416 Y84.352 E.06629
G1 X126.529 Y84.431 E.0663
G1 X128.597 Y84.872 E.0663
G1 X130.558 Y85.66 E.06626
G1 X132.278 Y86.715 E.06327
G1 X133.869 Y88.108 E.0663
G1 X134.276 Y88.601 E.02004
G1 X134.594 Y89.154 E.02
G1 X134.814 Y89.753 E.02001
G1 X134.931 Y90.381 E.02003
G1 X134.94 Y91.019 E.02001
G1 X134.842 Y91.65 E.02002
G1 X134.64 Y92.255 E.02
G1 X134.339 Y92.818 E.02002
G1 X133.947 Y93.322 E.02002
G1 X133.476 Y93.753 E.02002
G1 X132.94 Y94.099 E.02
G1 X132.353 Y94.35 E.02002
G1 X131.779 Y94.489 E.01852
G1 X131.095 Y94.542 E.02151
G1 X129.021 Y94.312 E.06543
G1 X127.622 Y94.392 E.04394
G1 X126.258 Y94.708 E.0439
G1 X124.967 Y95.252 E.04393
G1 X123.787 Y96.007 E.04392
G1 X122.753 Y96.952 E.04392
G1 X121.894 Y98.059 E.04393
G1 X121.236 Y99.296 E.04393
G1 X120.614 Y101.189 E.06248
G1 X120.323 Y101.757 E.02001
G1 X119.957 Y102.247 E.01918
G1 X119.478 Y102.708 E.02084
G1 X118.948 Y103.064 E.02002
G1 X118.372 Y103.323 E.0198
M204 S1000
G1 X118.23 Y102.973 F10800
M204 S800
;TYPE:External perimeter
G1 F1200
G1 X117.658 Y103.119 E.01851
G1 X117.085 Y103.164 E.01802
G1 X116.513 Y103.111 E.01801
G1 X115.957 Y102.963 E.01804
G1 X115.434 Y102.723 E.01804
G1 X114.959 Y102.4 E.01801
G1 X114.543 Y101.999 E.01812
G1 X114.204 Y101.538 E.01794
G1 X113.946 Y101.024 E.01803
G1 X113.355 Y99.062 E.06425
G1 X113.11 Y97.027 E.06427
G1 X113.217 Y94.98 E.06427
G1 X113.683 Y92.951 E.06527
G1 X114.481 Y91.063 E.06427
G1 X115.57 Y89.365 E.06325
G1 X116.954 Y87.854 E.06425
G1 X118.577 Y86.602 E.06427
G1 X120.392 Y85.646 E.06432
G1 X122.373 Y85.01 E.06524
G1 X124.403 Y84.729 E.06426
G1 X126.452 Y84.8 E.06428
G1 X128.457 Y85.222 E.06424
G1 X130.361 Y85.982 E.06428
G1 X132.08 Y87.037 E.06324
G1 X133.619 Y88.39 E.06425
G1 X133.982 Y88.837 E.01805
G1 X134.264 Y89.338 E.01803
G1 X134.459 Y89.879 E.01803
G1 X134.559 Y90.445 E.01802
G1 X134.563 Y91.02 E.01803
G1 X134.47 Y91.587 E.01802
G1 X134.284 Y92.131 E.01803
G1 X134.008 Y92.636 E.01804
G1 X133.652 Y93.087 E.01802
G1 X133.225 Y93.472 E.01803
G1 X132.74 Y93.78 E.01801
G1 X132.209 Y94.002 E.01805
G1 X131.696 Y94.121 E.01651
G1 X131.075 Y94.165 E.01952
G1 X129.032 Y93.934 E.06446
G1 X127.569 Y94.017 E.04595
G1 X126.141 Y94.348 E.04596
G1 X124.79 Y94.917 E.04596
G1 X123.556 Y95.707 E.04594
G1 X122.474 Y96.696 E.04596
G1 X121.576 Y97.854 E.04595
G1 X120.888 Y99.148 E.04595
G1 X120.256 Y101.071 E.06347
G1 X119.99 Y101.581 E.01803
G1 X119.658 Y102.017 E.01718
G1 X119.222 Y102.431 E.01885
G1 X118.742 Y102.748 E.01804
G1 X118.285 Y102.949 E.01565
M204 S1000
G1 X118.155 Y103.366 F10800
;WIPE_START
G1 F8640
G1 X117.658 Y103.119 E-.15
G1 X117.085 Y103.164 E-.13271
G1 X116.513 Y103.111 E-.13264
G1 X115.957 Y102.963 E-.13285
G1 X115.434 Y102.723 E-.13287
G1 X114.959 Y102.4 E-.13263
G1 X114.543 Y101.999 E-.13342
G1 X114.407 Y101.815 E-.05288
;WIPE_END
G1 Z.4 F720
G1 X146.238 Y87.694 F10800
G1 Z.2 F720
G1 E1 F2100
M204 S800
;TYPE:Solid infill
;WIDTH:0.421203
G1 F1200
G1 X134.269 Y75.724 E.53244
G1 X133.734 Y75.724 E.01683
G1 X146.069 Y88.059 E.5487
G1 X146.069 Y88.594 E.01683
G1 X133.199 Y75.724 E.5725
G1 X132.664 Y75.724 E.01683
G1 X146.069 Y89.129 E.5963
G1 X146.069 Y89.664 E.01683
G1 X132.129 Y75.724 E.6201
G1 X131.594 Y75.724 E.01683
G1 X146.069 Y90.199 E.64389
G1 X146.069 Y90.734 E.01683
G1 X131.059 Y75.724 E.66769
G1 X130.524 Y75.724 E.01683
G1 X146.069 Y91.269 E.69149
G1 X146.069 Y91.804 E.01683
G1 X129.989 Y75.724 E.71529
G1 X129.454 Y75.724 E.01683
G1 X146.069 Y92.339 E.73909
G1 X146.069 Y92.874 E.01683
G1 X128.919 Y75.724 E.76289
G1 X128.384 Y75.724 E.01683
M73 Q2 S44
G1 X146.069 Y93.409 E.78669
G1 X146.069 Y93.944 E.01683
M73 P2 R44
G1 X127.849 Y75.724 E.81048
G1 X127.314 Y75.724 E.01683
G1 X146.069 Y94.479 E.83428
G1 X146.069 Y95.014 E.01683
G1 X126.779 Y75.724 E.85808
G1 X126.244 Y75.724 E.01683
G1 X146.069 Y95.549 E.88188
G1 X146.069 Y96.084 E.01683
G1 X125.709 Y75.724 E.90568
G1 X125.174 Y75.724 E.01683
G1 X146.069 Y96.619 E.92948
G1 X146.069 Y97.154 E.01683
G1 X124.639 Y75.724 E.95327
G1 X124.104 Y75.724 E.01683
G1 X146.069 Y97.689 E.97707
G1 X146.069 Y98.224 E.01683
G1 X123.569 Y75.724 E1.00087
G1 X123.034 Y75.724 E.01683
G1 X146.069 Y98.758 E1.02465
G1 X146.069 Y99.293 E.01683
G1 X122.499 Y75.724 E1.04845
G1 X121.964 Y75.724 E.01683
G1 X146.069 Y99.828 E1.07224
G1 X146.069 Y100.363 E.01683
G1 X135.013 Y89.308 E.49178
G1 X135.171 Y89.778 E.0156
G1 X135.212 Y90.042 E.0084
G1 X146.069 Y100.898 E.48293
G1 X146.069 Y101.433 E.01683
M73 P2 R43
G1 X135.279 Y90.643 E.47997
G1 X135.28 Y91.032 E.01224
G1 X135.26 Y91.16 E.00408
G1 X146.069 Y101.968 E.4808
G1 X146.069 Y102.503 E.01683
G1 X135.19 Y91.624 E.48393
G1 X135.069 Y92.038 E.01357
G1 X146.069 Y103.038 E.48931
G1 X146.069 Y103.573 E.01683
G1 X134.928 Y92.432 E.49559
G1 X134.741 Y92.78 E.01243
G1 X146.069 Y104.108 E.50391
G1 X146.069 Y104.643 E.01683
G1 X134.541 Y93.115 E.5128
G1 X134.301 Y93.41 E.01196
G1 X145.946 Y105.056 E.51803
G1 X145.679 Y105.323 E.01188
M73 P3 R43
M73 Q3 S44
G1 X134.05 Y93.694 E.51729
G1 X133.763 Y93.943 E.01195
G1 X145.411 Y105.591 E.51814
G1 X145.144 Y105.858 E.01188
G1 X133.459 Y94.173 E.51979
G1 X133.128 Y94.377 E.01223
G1 X144.876 Y106.126 E.52261
G1 X144.609 Y106.393 E.01188
M73 Q3 S43
G1 X132.763 Y94.548 E.52693
G1 X132.471 Y94.669 E.00994
G1 X132.372 Y94.692 E.0032
G1 X144.341 Y106.661 E.53242
G1 X144.074 Y106.928 E.01188
G1 X131.938 Y94.792 E.53985
G1 X131.694 Y94.849 E.00788
G1 X131.472 Y94.861 E.00699
G1 X143.806 Y107.195 E.54866
G1 X143.539 Y107.463 E.0119
G1 X135.246 Y99.17 E.3689
G1 X135.191 Y99.044 E.00432
G1 X134.548 Y98.054 E.03713
G1 X133.763 Y97.197 E.03656
G1 X132.764 Y96.412 E.03996
G1 X132.168 Y96.092 E.02128
G1 X130.748 Y94.672 E.06317
M204 S1000
;WIPE_START
G1 F8640
G1 X132.168 Y96.092 E-.4637
G1 X132.764 Y96.412 E-.1562
G1 X133.763 Y97.197 E-.29337
G1 X134.017 Y97.474 E-.08673
;WIPE_END
G1 Z.4 F720
G1 X131.487 Y95.946 F10800
G1 Z.2 F720
G1 E1 F2100
M204 S800
G1 F1200
G1 X130.339 Y94.798 E.05107
G1 X129.738 Y94.732 E.01902
G1 X130.429 Y95.423 E.03074
G1 X129.799 Y95.328 E.02004
G1 X129.137 Y94.666 E.02945
G1 X129.012 Y94.652 E.00396
G1 X128.611 Y94.675 E.01263
G1 X129.185 Y95.249 E.02553
G1 X128.657 Y95.256 E.01661
G1 X128.105 Y94.704 E.02455
G1 X127.671 Y94.729 E.01367
G1 X127.609 Y94.743 E.002
G1 X128.133 Y95.267 E.02331
G1 X127.671 Y95.34 E.01471
G1 X127.175 Y94.844 E.02206
G1 X126.741 Y94.944 E.01401
G1 X127.221 Y95.425 E.02137
G1 X126.783 Y95.522 E.01411
G1 X126.314 Y95.053 E.02086
G1 X125.937 Y95.211 E.01286
G1 X126.391 Y95.665 E.0202
G1 X126 Y95.809 E.01311
G1 X125.561 Y95.37 E.01953
G1 X125.185 Y95.528 E.01283
G1 X125.622 Y95.965 E.01944
G1 X125.282 Y96.161 E.01234
G1 X124.85 Y95.729 E.01922
G1 X124.524 Y95.938 E.01218
G1 X124.943 Y96.356 E.01862
G1 X124.604 Y96.553 E.01233
G1 X124.198 Y96.147 E.01806
G1 X123.994 Y96.277 E.00761
G1 X123.889 Y96.373 E.00448
G1 X124.312 Y96.796 E.01882
G1 X124.021 Y97.04 E.01195
G1 X123.61 Y96.629 E.01828
G1 X123.33 Y96.884 E.01191
G1 X123.729 Y97.283 E.01775
G1 X123.472 Y97.561 E.01191
G1 X123.051 Y97.139 E.01875
G1 X123.003 Y97.183 E.00205
G1 X122.809 Y97.433 E.00995
G1 X123.226 Y97.85 E.01855
G1 X122.98 Y98.139 E.01194
G1 X122.576 Y97.734 E.01799
G1 X122.342 Y98.035 E.01199
G1 X122.759 Y98.453 E.01857
G1 X122.564 Y98.792 E.0123
G1 X122.123 Y98.352 E.01959
G1 X121.937 Y98.701 E.01244
G1 X122.368 Y99.132 E.01917
G1 X122.173 Y99.472 E.01233
G1 X121.752 Y99.05 E.01875
G1 X121.566 Y99.399 E.01244
G1 X122.027 Y99.86 E.02051
G1 X121.88 Y100.249 E.01308
G1 X121.427 Y99.796 E.02015
G1 X121.293 Y100.197 E.0133
G1 X121.754 Y100.657 E.02048
G1 X121.665 Y101.104 E.01434
G1 X121.159 Y100.598 E.02251
G1 X121.025 Y100.998 E.01327
G1 X121.577 Y101.55 E.02455
G1 X121.55 Y101.683 E.00427
G1 X121.539 Y102.048 E.01149
G1 X120.891 Y101.399 E.02885
G1 X120.705 Y101.748 E.01244
G1 X121.524 Y102.567 E.03643
G1 X121.513 Y102.93 E.01142
G1 X121.541 Y103.12 E.00604
G1 X120.508 Y102.086 E.04597
G1 X120.272 Y102.385 E.01198
G1 X121.636 Y103.749 E.06068
G1 X121.712 Y104.258 E.01619
G1 X121.763 Y104.411 E.00507
G1 X120.02 Y102.668 E.07753
G1 X119.743 Y102.926 E.01191
G1 X122.369 Y105.552 E.11681
M204 S1000
;WIPE_START
G1 F8640
G1 X119.743 Y102.926 E-.85751
G1 X120.02 Y102.668 E-.08741
G1 X120.189 Y102.837 E-.05508
;WIPE_END
G1 Z.4 F720
G1 X135.333 Y99.792 F10800
G1 Z.2 F720
G1 E1 F2100
M204 S800
G1 F1200
G1 X143.271 Y107.73 E.35311
G1 X143.004 Y107.998 E.0119
G1 X135.852 Y100.846 E.31814
G1 X135.983 Y101.376 E.01717
G1 X135.993 Y101.522 E.0046
G1 X142.736 Y108.265 E.29995
G1 X142.469 Y108.533 E.0119
G1 X136.034 Y102.098 E.28625
G1 X136.072 Y102.671 E.01806
G1 X142.201 Y108.8 E.27264
G1 X141.934 Y109.068 E.0119
G1 X136.019 Y103.153 E.26312
G1 X135.965 Y103.634 E.01522
G1 X141.666 Y109.335 E.2536
G1 X141.399 Y109.603 E.0119
G1 X135.89 Y104.094 E.24506
G1 X135.769 Y104.508 E.01357
G1 X141.131 Y109.87 E.23852
G1 X140.864 Y110.138 E.0119
G1 X135.648 Y104.922 E.23202
G1 X135.58 Y105.152 E.00754
G1 X135.502 Y105.311 E.00557
G1 X140.596 Y110.405 E.2266
G1 X140.329 Y110.673 E.0119
G1 X135.327 Y105.671 E.2225
G1 X135.151 Y106.03 E.01258
G1 X140.062 Y110.94 E.21843
G1 X139.794 Y111.208 E.01192
G1 X134.959 Y106.373 E.21508
G1 X134.737 Y106.686 E.01207
G1 X139.527 Y111.475 E.21305
G1 X139.259 Y111.743 E.01192
G1 X134.516 Y107 E.21098
G1 X134.399 Y107.165 E.00636
G1 X134.274 Y107.292 E.00561
G1 X138.992 Y112.01 E.20987
G1 X138.724 Y112.278 E.01192
G1 X134.009 Y107.562 E.20976
G1 X133.744 Y107.832 E.0119
G1 X138.457 Y112.545 E.20965
G1 X138.189 Y112.813 E.01192
G1 X133.465 Y108.089 E.21014
G1 X133.156 Y108.314 E.01202
G1 X137.922 Y113.08 E.21201
G1 X137.654 Y113.348 E.01192
G1 X132.846 Y108.54 E.21388
G1 X132.536 Y108.765 E.01205
G1 X137.387 Y113.615 E.21577
