; generated by PrusaSlicer 2.6.1+win64 on 2023-09-23 at 11:12:15 UTC


;
;
; 

; external perimeters extrusion width = 0.45mm
; perimeters extrusion width = 0.45mm
; infill extrusion width = 0.45mm
; solid infill extrusion width = 0.45mm
; top infill extrusion width = 0.40mm
; first layer extrusion width = 0.42mm

M73 P0 R110
M73 Q0 S111
M201 X1000 Y1000 Z200 E5000 ; sets maximum accelerations, mm/sec^2
M203 X200 Y200 Z12 E120 ; sets maximum feedrates, mm / sec
M204 S1250 T1250 ; sets acceleration (S) and retract acceleration (R), mm/sec^2
M205 X8.00 Y8.00 Z0.40 E4.50 ; sets the jerk limits, mm/sec
M205 S0 T0 ; sets the minimum extruding and travel feed rate, mm/sec
;TYPE:Custom
M862.3 P "MK3S" ; printer model check
M862.1 P0.4 ; nozzle diameter check
M115 U3.12.2 ; tell printer latest fw version
G90 ; use absolute coordinates
M83 ; extruder relative mode
M104 S240 ; set extruder temp
M140 S85 ; set bed temp
M190 S85 ; wait for bed temp
M109 S240 ; wait for extruder temp
G28 W ; home all without mesh bed level
G80 ; mesh bed leveling

G1 Z0.2 F720
G1 Y-3 F1000 ; go outside print area
G92 E0
G1 X60 E9 F1000 ; intro line
G1 X100 E12.5 F1000 ; intro line

G92 E0
M221 S95

; Don't change E values below. Excessive value can damage the printer.
M907 E430 ; set extruder motor current
G21 ; set units to millimeters
G90 ; use absolute coordinates
M83 ; use relative distances for extrusion
M900 K0.08 ; Filament gcode LA 1.5
M900 K45 ; Filament gcode LA 1.0
M107
;LAYER_CHANGE
;Z:0.2
;HEIGHT:0.2
;BEFORE_LAYER_CHANGE
G92 E0.0
;0.2


M73 Q0 S110
G1 E-1 F2100
G1 Z.2 F720
;AFTER_LAYER_CHANGE
;0.2
G1 Z.4
G1 X89.969 Y74.909 F10800
G1 Z.2 F720
G1 E1 F2100
M204 S800
;TYPE:Skirt/Brim
;WIDTH:0.42
G1 F1200
G1 X91.713 Y74.148 E.05966
G1 X136.613 Y74.148 E1.40781
G1 X137.92 Y74.539 E.04277
G1 X138.609 Y75.235 E.03071
G1 X167.58 Y120.11 E1.67477
G1 X168.167 Y121.525 E.04803
G1 X168.407 Y122.651 E.0361
G1 X168.47 Y123.436 E.02469
G1 X168.477 Y129.625 E.19405
G1 X168.085 Y130.932 E.04278
G1 X167.04 Y131.808 E.04275
G1 X166.1 Y132.002 E.03009
G1 X83.9 Y132.002 E2.57732
G1 X82.593 Y131.61 E.04278
M73 P0 R109
G1 X81.717 Y130.564 E.04278
G1 X81.523 Y129.625 E.03006
G1 X81.523 Y123.625 E.18813
G1 X81.586 Y122.845 E.02454
G1 X89.368 Y76.134 E1.48478
G1 X89.942 Y74.963 E.04089
M204 S1000
; printing object Front_Left_Wheel_Mount_Tool_rev0-6 id:0 copy 0
;WIPE_START
G1 F8640
G1 X91.713 Y74.148 E-.45015
G1 X94.094 Y74.148 E-.54985
;WIPE_END
G1 Z.4 F720
G1 X145.044 Y126.872 F10800
G1 Z.2 F720
G1 E1 F2100
M204 S800
;TYPE:Perimeter
;WIDTH:0.419999
G1 F1200
G1 X145.083 Y126.614 E.00818
G1 X144.95 Y126.211 E.01331
G1 X144.822 Y126.007 E.00755
G1 X144.646 Y125.885 E.00671
G1 X144.418 Y125.838 E.0073
G1 X97.582 Y125.838 E1.46851
G1 X97.519 Y125.841 E.00198
G1 X97.262 Y125.936 E.00859
G1 X97.098 Y126.11 E.0075
G1 X96.917 Y126.614 E.01679
G1 X96.967 Y126.943 E.01043
G1 X97.116 Y127.132 E.00755
G1 X98.751 Y128.485 E.06654
G1 X99.274 Y128.877 E.02049
G1 X98.674 Y128.839 E.01885
G1 X84.687 Y128.838 E.43855
G1 X84.687 Y123.656 E.16248
G1 X84.773 Y123.096 E.01776
G1 X85.016 Y122.619 E.01678
G1 X85.395 Y122.241 E.01678
G1 X85.871 Y121.998 E.01676
G1 X86.431 Y121.912 E.01776
G1 X92.032 Y121.903 E.17562
G1 X92.278 Y121.795 E.00842
G1 X92.433 Y121.612 E.00752
G1 X92.5 Y121.346 E.0086
G1 X92.5 Y77.312 E1.38065
G1 X135.825 Y77.312 E1.35842
G1 X135.825 Y118.846 E1.30227
G1 X135.843 Y118.985 E.00439
G1 X135.971 Y119.225 E.00853
G1 X136.151 Y119.358 E.00702
G1 X136.391 Y119.412 E.00771
G1 X161.069 Y119.412 E.77376
G1 X161.759 Y119.466 E.0217
G1 X162.401 Y119.62 E.0207
G1 X163.011 Y119.873 E.02071
G1 X163.575 Y120.218 E.02073
G1 X164.077 Y120.647 E.0207
G1 X164.506 Y121.15 E.02073
G1 X164.852 Y121.713 E.02072
G1 X165.104 Y122.324 E.02072
G1 X165.259 Y122.966 E.02071
G1 X165.313 Y123.829 E.02711
G1 X165.313 Y128.838 E.15705
G1 X143.376 Y128.839 E.68782
G1 X142.726 Y128.877 E.02042
G1 X143.249 Y128.485 E.02049
G1 X144.884 Y127.132 E.06654
G1 X145.034 Y126.931 E.00786
M204 S1000
G1 X144.693 Y126.778 F10800
M204 S800
;TYPE:External perimeter
G1 F1200
G1 X144.71 Y126.669 E.00346
G1 X144.553 Y126.271 E.01341
G1 X144.418 Y126.215 E.00458
G1 X97.582 Y126.215 E1.46851
G1 X97.431 Y126.29 E.00529
G1 X97.289 Y126.717 E.01411
G1 X97.356 Y126.841 E.00442
G1 X99.412 Y128.521 E.08325
G1 X99.849 Y128.771 E.01579
G1 X100.31 Y128.976 E.01582
G1 X100.957 Y129.409 E.02441
G1 X100.196 Y129.384 E.02387
G1 X99.701 Y129.284 E.01583
G1 X98.674 Y129.216 E.03227
G1 X84.31 Y129.215 E.45037
G1 X84.31 Y123.727 E.17207
G1 X84.337 Y123.298 E.01348
G1 X84.476 Y122.828 E.01537
G1 X84.71 Y122.397 E.01538
G1 X85.048 Y122.041 E.01539
G1 X85.452 Y121.764 E.01536
G1 X85.914 Y121.6 E.01537
G1 X86.416 Y121.535 E.01587
G1 X91.934 Y121.535 E.17301
G1 X92.063 Y121.484 E.00435
G1 X92.123 Y121.346 E.00472
G1 X92.123 Y76.935 E1.39247
G1 X136.203 Y76.935 E1.3821
G1 X136.203 Y118.846 E1.31409
G1 X136.251 Y118.972 E.00423
G1 X136.391 Y119.035 E.00481
G1 X161.084 Y119.035 E.77423
G1 X161.818 Y119.092 E.02308
G1 X162.518 Y119.261 E.02258
G1 X163.183 Y119.536 E.02256
G1 X163.797 Y119.912 E.02257
G1 X164.345 Y120.38 E.0226
G1 X164.812 Y120.927 E.02255
G1 X165.189 Y121.541 E.02259
G1 X165.464 Y122.207 E.02259
G1 X165.632 Y122.907 E.02257
G1 X165.69 Y123.829 E.02897
G1 X165.69 Y129.215 E.16887
G1 X143.377 Y129.216 E.69961
G1 X142.323 Y129.28 E.03311
G1 X141.83 Y129.382 E.01579
G1 X141.043 Y129.409 E.02469
G1 X141.69 Y128.976 E.02441
G1 X142.151 Y128.771 E.01582
G1 X142.611 Y128.506 E.01665
G1 X144.656 Y126.826 E.08298
M204 S1000
G1 X144.804 Y126.765 F10800
;WIPE_START
G1 F8640
G1 X144.71 Y126.669 E-.03834
G1 X144.553 Y126.271 E-.09879
G1 X144.418 Y126.215 E-.03375
G1 X140.827 Y126.215 E-.82912
;WIPE_END
G1 Z.4 F720
G1 X123.552 Y97.583 F10800
G1 Z.2 F720
G1 E1 F2100
M204 S800
;TYPE:Perimeter
G1 F1200
G1 X123.974 Y98.011 E.01885
G1 X124.347 Y98.549 E.02053
G1 X124.624 Y99.143 E.02055
G1 X124.797 Y99.774 E.02051
G1 X124.861 Y100.426 E.02054
G1 X124.813 Y101.079 E.02053
G1 X124.656 Y101.715 E.02054
G1 X124.394 Y102.315 E.02053
G1 X124.048 Y102.842 E.01977
G1 X123.59 Y103.338 E.02117
G1 X123.065 Y103.737 E.02068
G1 X122.484 Y104.039 E.02053
G1 X121.86 Y104.238 E.02054
G1 X121.212 Y104.33 E.02052
G1 X120.557 Y104.31 E.02055
G1 X120.001 Y104.198 E.01778
G1 X119.461 Y104.006 E.01797
G1 X118.933 Y103.724 E.01877
G1 X118.666 Y103.55 E.00999
G1 X118.246 Y103.18 E.01755
G1 X117.828 Y102.676 E.02053
G1 X117.502 Y102.108 E.02053
G1 X117.276 Y101.493 E.02054
G1 X117.154 Y100.829 E.02117
G1 X117.15 Y100.19 E.02004
G1 X117.252 Y99.548 E.02038
G1 X117.462 Y98.928 E.02052
G1 X117.774 Y98.352 E.02054
G1 X118.179 Y97.837 E.02054
G1 X118.666 Y97.399 E.02054
G1 X119.219 Y97.048 E.02054
G1 X119.824 Y96.797 E.02054
G1 X120.462 Y96.651 E.02052
G1 X121.091 Y96.616 E.01975
G1 X121.762 Y96.689 E.02116
G1 X122.395 Y96.874 E.02068
G1 X122.864 Y97.101 E.01634
G1 X123.509 Y97.541 E.02448
M204 S1000
G1 X123.277 Y97.837 F10800
M204 S800
;TYPE:External perimeter
G1 F1200
G1 X123.702 Y98.272 E.01907
G1 X124.035 Y98.761 E.01855
G1 X124.281 Y99.298 E.01852
G1 X124.432 Y99.869 E.01852
G1 X124.485 Y100.458 E.01854
G1 X124.438 Y101.047 E.01853
G1 X124.291 Y101.62 E.01855
G1 X124.05 Y102.16 E.01854
G1 X123.735 Y102.631 E.01777
G1 X123.316 Y103.079 E.01923
G1 X122.841 Y103.434 E.01859
G1 X122.314 Y103.702 E.01854
G1 X121.75 Y103.878 E.01852
G1 X121.164 Y103.956 E.01854
G1 X120.573 Y103.933 E.01854
G1 X120.08 Y103.83 E.01579
G1 X119.602 Y103.656 E.01595
G1 X119.131 Y103.403 E.01676
G1 X118.692 Y103.071 E.01726
G1 X118.305 Y102.666 E.01756
G1 X118.104 Y102.413 E.01013
G1 X117.831 Y101.924 E.01756
G1 X117.631 Y101.368 E.01853
G1 X117.528 Y100.782 E.01866
G1 X117.527 Y100.19 E.01856
G1 X117.623 Y99.612 E.01837
G1 X117.818 Y99.053 E.01856
G1 X118.104 Y98.536 E.01853
G1 X118.473 Y98.074 E.01854
G1 X118.915 Y97.682 E.01852
G1 X119.417 Y97.369 E.01855
G1 X119.964 Y97.147 E.01851
G1 X120.541 Y97.019 E.01853
G1 X121.107 Y96.993 E.01777
G1 X121.717 Y97.064 E.01926
G1 X122.285 Y97.234 E.01859
G1 X122.787 Y97.485 E.0176
G1 X123.228 Y97.802 E.01703
M204 S1000
G1 X123.654 Y97.706 F10800
;WIPE_START
G1 F8640
G1 X123.702 Y98.272 E-.15413
G1 X124.035 Y98.761 E-.13661
G1 X124.281 Y99.298 E-.13639
G1 X124.432 Y99.869 E-.13638
G1 X124.485 Y100.458 E-.13655
G1 X124.438 Y101.047 E-.13643
G1 X124.291 Y101.62 E-.13659
G1 X124.243 Y101.726 E-.02692
;WIPE_END
G1 Z.4 F720
G1 X114.174 Y108.46 F10800
G1 Z.2 F720
G1 E1 F2100
M204 S800
;TYPE:Perimeter
G1 F1200
G1 X113.878 Y108.964 E.01833
G1 X113.467 Y109.452 E.02
G1 X112.979 Y109.864 E.02002
G1 X112.429 Y110.188 E.02001
G1 X111.833 Y110.415 E.02
G1 X111.206 Y110.539 E.02004
G1 X110.568 Y110.556 E.02001
G1 X109.936 Y110.465 E.02002
G1 X109.328 Y110.27 E.02002
G1 X107.465 Y109.274 E.06624
G1 X105.798 Y107.973 E.0663
G1 X104.348 Y106.369 E.0678
G1 X103.205 Y104.532 E.06784
G1 X102.415 Y102.571 E.06629
G1 X101.985 Y100.6 E.06325
G1 X101.886 Y98.488 E.06629
G1 X102.152 Y96.39 E.06631
G1 X102.809 Y94.279 E.06932
G1 X103.782 Y92.402 E.06629
G1 X104.998 Y90.792 E.06326
G1 X105.313 Y90.486 E.01377
G1 X106.613 Y89.282 E.05556
G1 X108.301 Y88.177 E.06326
G1 X110.239 Y87.332 E.06629
G1 X112.293 Y86.832 E.06628
G1 X114.37 Y86.693 E.06527
G1 X115.034 Y86.751 E.0209
G1 X115.656 Y86.919 E.0202
G1 X116.235 Y87.186 E.01999
G1 X116.761 Y87.548 E.02002
G1 X117.219 Y87.992 E.02
G1 X117.596 Y88.507 E.02001
G1 X117.881 Y89.079 E.02004
G1 X118.066 Y89.69 E.02002
G1 X118.134 Y90.22 E.01675
G1 X118.129 Y90.753 E.01671
G1 X118.104 Y91.055 E.0095
G1 X117.983 Y91.585 E.01705
G1 X117.746 Y92.177 E.01999
G1 X117.412 Y92.721 E.02002
G1 X116.991 Y93.202 E.02004
G1 X115.362 Y94.506 E.06542
G1 X114.43 Y95.551 E.0439
G1 X113.688 Y96.74 E.04394
G1 X113.16 Y98.038 E.04394
G1 X112.86 Y99.406 E.04391
G1 X112.797 Y100.806 E.04394
G1 X112.972 Y102.195 E.0439
G1 X113.382 Y103.535 E.04394
G1 X114.28 Y105.314 E.06248
G1 X114.476 Y105.921 E.02
G1 X114.567 Y106.552 E.01999
G1 X114.551 Y107.191 E.02004
G1 X114.446 Y107.731 E.01725
G1 X114.204 Y108.408 E.02254
M204 S1000
G1 X113.856 Y108.261 F10800
M204 S800
;TYPE:External perimeter
G1 F1200
G1 X113.555 Y108.769 E.01851
G1 X113.181 Y109.205 E.01801
G1 X112.739 Y109.573 E.01803
G1 X112.242 Y109.861 E.01801
G1 X111.703 Y110.061 E.01803
G1 X111.138 Y110.168 E.01803
G1 X110.563 Y110.179 E.01803
G1 X109.995 Y110.093 E.01801
G1 X109.448 Y109.912 E.01807
G1 X107.643 Y108.942 E.06425
G1 X106.031 Y107.677 E.06425
G1 X104.649 Y106.142 E.06476
G1 X103.554 Y104.389 E.06481
G1 X102.783 Y102.49 E.06426
G1 X102.353 Y100.519 E.06325
G1 X102.263 Y98.472 E.06424
G1 X102.525 Y96.439 E.06427
G1 X103.145 Y94.451 E.06529
G1 X104.083 Y92.629 E.06425
G1 X105.299 Y91.019 E.06326
G1 X105.57 Y90.762 E.01171
G1 X106.82 Y89.597 E.05358
G1 X108.508 Y88.493 E.06324
G1 X110.388 Y87.678 E.06425
G1 X112.381 Y87.198 E.06428
G1 X114.394 Y87.069 E.06325
G1 X114.997 Y87.127 E.01899
G1 X115.553 Y87.281 E.01809
G1 X116.073 Y87.527 E.01804
G1 X116.544 Y87.856 E.01801
G1 X116.953 Y88.259 E.018
G1 X117.289 Y88.726 E.01804
G1 X117.542 Y89.243 E.01805
G1 X117.704 Y89.794 E.01801
G1 X117.771 Y90.365 E.01803
G1 X117.741 Y90.94 E.01805
G1 X117.615 Y91.501 E.01803
G1 X117.397 Y92.032 E.018
G1 X117.093 Y92.52 E.01803
G1 X116.711 Y92.95 E.01803
G1 X115.102 Y94.231 E.06448
G1 X114.127 Y95.325 E.04595
G1 X113.351 Y96.568 E.04594
G1 X112.798 Y97.925 E.04595
G1 X112.485 Y99.357 E.04596
G1 X112.418 Y100.821 E.04595
G1 X112.602 Y102.275 E.04595
G1 X113.031 Y103.676 E.04594
G1 X113.944 Y105.484 E.06351
G1 X114.116 Y106.032 E.01801
G1 X114.194 Y106.602 E.01804
G1 X114.175 Y107.176 E.01801
G1 X114.059 Y107.74 E.01805
G1 X113.878 Y108.205 E.01565
M204 S1000
G1 X114.081 Y108.593 F10800
;WIPE_START
G1 F8640
G1 X113.555 Y108.769 E-.15007
G1 X113.181 Y109.205 E-.13264
G1 X112.739 Y109.573 E-.1328
G1 X112.242 Y109.861 E-.13263
G1 X111.703 Y110.061 E-.13275
G1 X111.138 Y110.168 E-.13278
G1 X110.563 Y110.179 E-.13279
G1 X110.334 Y110.144 E-.05354
;WIPE_END
G1 Z.4 F720
G1 X135.656 Y78.245 F10800
G1 Z.2 F720
G1 E1 F2100
M204 S800
;TYPE:Solid infill
;WIDTH:0.420762
G1 F1200
G1 X135.062 Y77.651 E.02639
G1 X134.527 Y77.651 E.01681
G1 X135.486 Y78.61 E.04261
G1 X135.486 Y79.144 E.01678
G1 X133.993 Y77.651 E.06634
G1 X133.459 Y77.651 E.01678
G1 X135.486 Y79.679 E.09008
G1 X135.486 Y80.213 E.01678
G1 X132.924 Y77.651 E.11383
G1 X132.39 Y77.651 E.01678
G1 X135.486 Y80.747 E.13756
G1 X135.486 Y81.282 E.01681
G1 X131.855 Y77.651 E.16133
G1 X131.321 Y77.651 E.01678
G1 X135.486 Y81.816 E.18506
G1 X135.486 Y82.35 E.01678
G1 X130.787 Y77.651 E.20878
G1 X130.252 Y77.651 E.01681
G1 X135.486 Y82.885 E.23255
G1 X135.486 Y83.419 E.01678
G1 X129.718 Y77.651 E.25628
G1 X129.184 Y77.651 E.01678
G1 X135.486 Y83.953 E.28001
G1 X135.486 Y84.488 E.01681
M73 Q0 S109
G1 X128.649 Y77.651 E.30378
G1 X128.115 Y77.651 E.01678
G1 X135.486 Y85.022 E.3275
G1 X135.486 Y85.557 E.01681
G1 X127.581 Y77.651 E.35125
G1 X127.046 Y77.651 E.01681
G1 X135.486 Y86.091 E.375
G1 X135.486 Y86.625 E.01678
G1 X126.512 Y77.651 E.39873
G1 X125.978 Y77.651 E.01678
G1 X135.486 Y87.16 E.42248
G1 X135.486 Y87.694 E.01678
M73 P1 R109
M73 Q1 S109
G1 X125.443 Y77.651 E.44622
G1 X124.909 Y77.651 E.01678
G1 X135.486 Y88.228 E.46995
G1 X135.486 Y88.763 E.01681
G1 X124.375 Y77.651 E.4937
G1 X123.84 Y77.651 E.01681
G1 X135.486 Y89.297 E.51745
G1 X135.486 Y89.831 E.01678
G1 X123.306 Y77.651 E.54117
G1 X122.772 Y77.651 E.01678
G1 X135.486 Y90.366 E.56492
G1 X135.486 Y90.9 E.01678
G1 X122.237 Y77.651 E.58867
G1 X121.703 Y77.651 E.01678
G1 X135.486 Y91.434 E.6124
G1 X135.486 Y91.969 E.01681
G1 X121.168 Y77.651 E.63617
G1 X120.634 Y77.651 E.01678
G1 X135.486 Y92.503 E.65989
G1 X135.486 Y93.037 E.01678
M73 P1 R108
G1 X120.1 Y77.651 E.68362
G1 X119.565 Y77.651 E.01681
G1 X135.486 Y93.572 E.70739
G1 X135.486 Y94.106 E.01678
G1 X119.031 Y77.651 E.73112
G1 X118.497 Y77.651 E.01678
G1 X135.486 Y94.64 E.75484
G1 X135.486 Y95.175 E.01681
G1 X117.962 Y77.651 E.77861
G1 X117.428 Y77.651 E.01678
G1 X135.486 Y95.709 E.80234
G1 X135.486 Y96.243 E.01678
G1 X116.894 Y77.651 E.82607
G1 X116.359 Y77.651 E.01681
G1 X135.486 Y96.778 E.84984
G1 X135.486 Y97.312 E.01678
G1 X115.825 Y77.651 E.87356
G1 X115.291 Y77.651 E.01678
G1 X135.486 Y97.847 E.89731
G1 X135.486 Y98.381 E.01678
G1 X114.756 Y77.651 E.92106
G1 X114.222 Y77.651 E.01678
G1 X135.486 Y98.915 E.94479
G1 X135.486 Y99.45 E.01681
G1 X113.688 Y77.651 E.96854
G1 X113.153 Y77.651 E.01681
G1 X135.486 Y99.984 E.99228
G1 X135.486 Y100.518 E.01678
G1 X112.619 Y77.651 E1.01601
G1 X112.085 Y77.651 E.01678
G1 X135.486 Y101.053 E1.03976
G1 X135.486 Y101.587 E.01678
G1 X111.55 Y77.651 E1.06351
G1 X111.016 Y77.651 E.01678
G1 X135.486 Y102.121 E1.08723
G1 X135.486 Y102.656 E.01681
G1 X110.481 Y77.651 E1.11101
G1 X109.947 Y77.651 E.01678
G1 X135.486 Y103.19 E1.13473
G1 X135.486 Y103.724 E.01678
G1 X109.413 Y77.651 E1.15846
G1 X108.878 Y77.651 E.01681
G1 X135.486 Y104.259 E1.18223
G1 X135.486 Y104.793 E.01678
G1 X108.344 Y77.651 E1.20596
G1 X107.81 Y77.651 E.01678
G1 X135.486 Y105.327 E1.22968
G1 X135.486 Y105.862 E.01681
G1 X107.275 Y77.651 E1.25345
G1 X106.741 Y77.651 E.01678
G1 X115.672 Y86.582 E.39682
G1 X115.08 Y86.415 E.01933
G1 X114.96 Y86.404 E.00379
G1 X106.207 Y77.651 E.38891
G1 X105.672 Y77.651 E.01681
G1 X114.376 Y86.355 E.38673
G1 X113.872 Y86.385 E.01586
G1 X105.138 Y77.651 E.38806
G1 X104.604 Y77.651 E.01678
G1 X113.371 Y86.418 E.38953
G1 X112.869 Y86.451 E.01581
G1 X104.069 Y77.651 E.391
G1 X103.535 Y77.651 E.01678
G1 X112.367 Y86.483 E.39242
G1 X112.272 Y86.489 E.00299
G1 X111.924 Y86.574 E.01125
G1 X103.001 Y77.651 E.39646
G1 X102.466 Y77.651 E.01681
G1 X111.494 Y86.679 E.40113
G1 X111.065 Y86.784 E.01388
G1 X101.932 Y77.651 E.40579
G1 X101.398 Y77.651 E.01678
G1 X110.635 Y86.889 E.41043
G1 X110.206 Y86.994 E.01388
M73 Q1 S108
G1 X100.863 Y77.651 E.41512
G1 X100.329 Y77.651 E.01678
G1 X109.822 Y87.144 E.42179
G1 X109.45 Y87.307 E.01276
G1 X99.794 Y77.651 E.42903
G1 X99.26 Y77.651 E.01678
G1 X109.078 Y87.469 E.43623
G1 X108.707 Y87.632 E.01273
G1 X98.726 Y77.651 E.44347
G1 X98.191 Y77.651 E.01681
G1 X108.335 Y87.795 E.45071
