; generated by PrusaSlicer 2.6.1+win64 on 2023-09-23 at 13:18:55 UTC


;
;
; 

; external perimeters extrusion width = 0.45mm
; perimeters extrusion width = 0.45mm
; infill extrusion width = 0.45mm
; solid infill extrusion width = 0.45mm
; top infill extrusion width = 0.40mm
; first layer extrusion width = 0.42mm

M73 P0 R96
M73 Q0 S97
M201 X1000 Y1000 Z200 E5000 ; sets maximum accelerations, mm/sec^2
M203 X200 Y200 Z12 E120 ; sets maximum feedrates, mm / sec
M204 S1250 T1250 ; sets acceleration (S) and retract acceleration (R), mm/sec^2
M205 X8.00 Y8.00 Z0.40 E4.50 ; sets the jerk limits, mm/sec
M205 S0 T0 ; sets the minimum extruding and travel feed rate, mm/sec
;TYPE:Custom
M862.3 P "MK3S" ; printer model check
M862.1 P0.4 ; nozzle diameter check
M115 U3.12.2 ; tell printer latest fw version
G90 ; use absolute coordinates
M83 ; extruder relative mode
M104 S240 ; set extruder temp
M140 S85 ; set bed temp
M190 S85 ; wait for bed temp
M109 S240 ; wait for extruder temp
G28 W ; home all without mesh bed level
G80 ; mesh bed leveling

G1 Z0.2 F720
G1 Y-3 F1000 ; go outside print area
G92 E0
G1 X60 E9 F1000 ; intro line
G1 X100 E12.5 F1000 ; intro line

G92 E0
M221 S95

; Don't change E values below. Excessive value can damage the printer.
M907 E430 ; set extruder motor current
G21 ; set units to millimeters
G90 ; use absolute coordinates
M83 ; use relative distances for extrusion
M900 K0.08 ; Filament gcode LA 1.5
M900 K45 ; Filament gcode LA 1.0
M107
;LAYER_CHANGE
;Z:0.2
;HEIGHT:0.2
;BEFORE_LAYER_CHANGE
G92 E0.0
;0.2


G1 E-1 F2100
G1 Z.2 F720
;AFTER_LAYER_CHANGE
;0.2
G1 Z.4
G1 X111.391 Y75.235 F10800
G1 Z.2 F720
G1 E1 F2100
M204 S800
;TYPE:Skirt/Brim
;WIDTH:0.42
G1 F1200
G1 X112.429 Y74.35 E.04277
G1 X113.387 Y74.148 E.0307
G1 X158.287 Y74.148 E1.40781
G1 X159.595 Y74.54 E.04281
G1 X160.632 Y76.135 E.05965
G1 X168.414 Y122.843 E1.48468
G1 X168.477 Y123.625 E.0246
G1 X168.477 Y129.625 E.18813
G1 X168.086 Y130.932 E.04277
G1 X167.04 Y131.809 E.0428
G1 X166.1 Y132.002 E.03009
G1 X83.9 Y132.002 E2.57732
G1 X82.593 Y131.611 E.04277
G1 X81.716 Y130.565 E.0428
G1 X81.523 Y129.625 E.03009
G1 X81.53 Y123.439 E.19396
G1 X81.65 Y122.293 E.03613
G1 X81.832 Y121.53 E.02459
G1 X82.416 Y120.117 E.04794
G1 X111.358 Y75.286 E1.67311
M204 S1000
; printing object Front_Right_Wheel_Mount_Tool_rev0-7 id:0 copy 0
;WIPE_START
G1 F8640
G1 X112.429 Y74.35 E-.32843
G1 X113.387 Y74.148 E-.22607
G1 X115.316 Y74.148 E-.4455
;WIPE_END
G1 Z.4 F720
G1 X105.144 Y126.054 F10800
G1 Z.2 F720
G1 E1 F2100
M204 S800
;TYPE:Perimeter
;WIDTH:0.419999
G1 F1200
G1 X105.116 Y126.083 E.00126
G1 X104.917 Y126.614 E.01778
G1 X104.967 Y126.944 E.01046
G1 X105.116 Y127.132 E.00752
G1 X106.751 Y128.485 E.06654
G1 X107.274 Y128.877 E.02049
G1 X106.66 Y128.84 E.01929
G1 X84.687 Y128.838 E.68895
G1 X84.687 Y123.656 E.16248
G1 X84.741 Y122.967 E.02167
G1 X84.896 Y122.324 E.02074
G1 X85.148 Y121.714 E.02069
G1 X85.494 Y121.15 E.02075
G1 X85.923 Y120.648 E.0207
G1 X86.425 Y120.219 E.0207
G1 X86.988 Y119.874 E.0207
G1 X87.599 Y119.621 E.02073
G1 X88.241 Y119.467 E.0207
G1 X88.931 Y119.412 E.0217
G1 X113.609 Y119.412 E.77376
G1 X113.707 Y119.404 E.00308
G1 X113.948 Y119.299 E.00824
G1 X114.131 Y119.064 E.00934
G1 X114.175 Y118.847 E.00694
G1 X114.175 Y77.312 E1.3023
G1 X157.5 Y77.312 E1.35842
G1 X157.505 Y121.422 E1.38304
G1 X157.613 Y121.686 E.00894
G1 X157.817 Y121.854 E.00829
G1 X158.066 Y121.912 E.00802
G1 X163.498 Y121.912 E.17032
G1 X163.868 Y121.936 E.01163
G1 X164.377 Y122.101 E.01678
G1 X164.81 Y122.416 E.01679
G1 X165.124 Y122.849 E.01677
G1 X165.258 Y123.227 E.01257
G1 X165.313 Y123.727 E.01577
G1 X165.313 Y128.838 E.16025
G1 X151.377 Y128.84 E.43695
G1 X150.726 Y128.878 E.02045
G1 X151.249 Y128.485 E.02051
G1 X152.884 Y127.132 E.06654
G1 X153.033 Y126.944 E.00752
G1 X153.086 Y126.761 E.00597
G1 X153.056 Y126.505 E.00808
G1 X152.871 Y126.065 E.01497
G1 X152.643 Y125.884 E.00913
G1 X152.418 Y125.838 E.0072
G1 X105.582 Y125.838 E1.46851
G1 X105.484 Y125.847 E.00309
G1 X105.257 Y125.94 E.00769
G1 X105.187 Y126.011 E.00313
M204 S1000
G1 X105.426 Y126.297 F10800
M204 S800
;TYPE:External perimeter
G1 F1200
G1 X105.289 Y126.718 E.01388
G1 X105.356 Y126.842 E.00442
G1 X107.412 Y128.522 E.08325
G1 X107.849 Y128.772 E.01579
G1 X108.31 Y128.976 E.01581
G1 X108.957 Y129.409 E.02441
G1 X108.198 Y129.383 E.02381
G1 X107.704 Y129.286 E.01578
G1 X106.66 Y129.217 E.03281
G1 X84.31 Y129.215 E.70077
G1 X84.31 Y123.641 E.17477
G1 X84.368 Y122.907 E.02309
G1 X84.536 Y122.207 E.02257
G1 X84.811 Y121.542 E.02256
G1 X85.188 Y120.928 E.02259
G1 X85.655 Y120.38 E.02257
G1 X86.203 Y119.913 E.02257
G1 X86.817 Y119.537 E.02257
G1 X87.482 Y119.261 E.02258
G1 X88.182 Y119.093 E.02257
G1 X88.916 Y119.035 E.02309
G1 X113.609 Y119.035 E.77423
G1 X113.749 Y118.973 E.0048
G1 X113.797 Y118.847 E.00423
G1 X113.797 Y76.935 E1.31412
G1 X157.877 Y76.935 E1.3821
G1 X157.877 Y121.347 E1.3925
G1 X157.922 Y121.468 E.00405
M73 Q0 S96
G1 X158.066 Y121.535 E.00498
G1 X163.498 Y121.535 E.17032
G1 X163.927 Y121.562 E.01348
G1 X164.397 Y121.701 E.01537
G1 X164.828 Y121.935 E.01538
G1 X165.183 Y122.273 E.01537
G1 X165.461 Y122.677 E.01538
G1 X165.625 Y123.139 E.01537
G1 X165.69 Y123.727 E.01855
G1 X165.69 Y129.215 E.17207
G1 X151.377 Y129.217 E.44877
G1 X150.317 Y129.282 E.0333
G1 X149.823 Y129.384 E.01582
G1 X149.043 Y129.409 E.02447
G1 X149.71 Y128.968 E.02507
G1 X150.169 Y128.761 E.01579
G1 X150.611 Y128.506 E.016
G1 X152.644 Y126.842 E.08237
G1 X152.693 Y126.779 E.0025
M73 P0 R95
G1 X152.71 Y126.669 E.00349
G1 X152.555 Y126.274 E.0133
G1 X152.418 Y126.215 E.00468
G1 X105.582 Y126.215 E1.46851
G1 X105.477 Y126.264 E.00363
M204 S1000
G1 X105.035 Y126.213 F10800
;WIPE_START
G1 F8640
G1 X105.289 Y126.718 E-.11346
G1 X105.356 Y126.842 E-.03254
G1 X107.412 Y128.522 E-.61307
G1 X107.849 Y128.772 E-.11625
G1 X108.31 Y128.976 E-.1164
G1 X108.34 Y128.996 E-.00828
;WIPE_END
G1 Z.4 F720
G1 X127.876 Y96.785 F10800
G1 Z.2 F720
G1 E1 F2100
M204 S800
;TYPE:Perimeter
G1 F1200
G1 X128.462 Y96.651 E.01885
G1 X129.091 Y96.616 E.01975
G1 X129.762 Y96.69 E.02117
G1 X130.395 Y96.874 E.02067
G1 X130.983 Y97.162 E.02053
G1 X131.515 Y97.545 E.02055
G1 X131.974 Y98.012 E.02053
G1 X132.347 Y98.55 E.02053
G1 X132.624 Y99.143 E.02052
G1 X132.797 Y99.775 E.02054
G1 X132.861 Y100.427 E.02054
G1 X132.813 Y101.08 E.02053
G1 X132.656 Y101.716 E.02054
G1 X132.394 Y102.316 E.02053
G1 X132.034 Y102.863 E.02053
G1 X131.604 Y103.324 E.01977
G1 X131.068 Y103.735 E.02118
G1 X130.484 Y104.039 E.02064
G1 X129.86 Y104.239 E.02055
G1 X129.212 Y104.33 E.02052
G1 X128.557 Y104.31 E.02055
G1 X127.915 Y104.18 E.02054
G1 X127.305 Y103.944 E.02051
G1 X126.743 Y103.607 E.02055
G1 X126.246 Y103.181 E.02052
G1 X125.828 Y102.676 E.02055
G1 X125.502 Y102.109 E.02051
G1 X125.276 Y101.494 E.02054
G1 X125.158 Y100.855 E.02037
G1 X125.15 Y100.19 E.02085
G1 X125.252 Y99.548 E.02038
G1 X125.462 Y98.928 E.02052
G1 X125.774 Y98.353 E.02051
G1 X126.179 Y97.838 E.02054
G1 X126.666 Y97.399 E.02056
G1 X127.219 Y97.049 E.02052
G1 X127.818 Y96.799 E.02035
M204 S1000
G1 X127.949 Y97.153 F10800
M204 S800
;TYPE:External perimeter
G1 F1200
G1 X128.542 Y97.02 E.01905
G1 X129.107 Y96.993 E.01774
G1 X129.717 Y97.064 E.01926
G1 X130.285 Y97.235 E.0186
G1 X130.814 Y97.499 E.01854
G1 X131.291 Y97.848 E.01853
G1 X131.702 Y98.273 E.01854
G1 X132.035 Y98.761 E.01852
G1 X132.281 Y99.299 E.01855
G1 X132.432 Y99.87 E.01852
G1 X132.485 Y100.459 E.01854
G1 X132.438 Y101.048 E.01853
G1 X132.291 Y101.621 E.01855
G1 X132.05 Y102.16 E.01851
G1 X131.722 Y102.652 E.01854
G1 X131.332 Y103.063 E.01776
G1 X130.842 Y103.433 E.01925
G1 X130.314 Y103.703 E.01859
G1 X129.734 Y103.882 E.01903
G1 X129.164 Y103.956 E.01802
G1 X128.573 Y103.934 E.01854
G1 X127.995 Y103.812 E.01852
G1 X127.445 Y103.594 E.01855
G1 X126.94 Y103.286 E.01855
G1 X126.495 Y102.898 E.01851
G1 X126.122 Y102.44 E.01852
G1 X125.831 Y101.925 E.01855
G1 X125.631 Y101.368 E.01856
G1 X125.53 Y100.791 E.01837
G1 X125.527 Y100.19 E.01884
G1 X125.623 Y99.612 E.01837
G1 X125.818 Y99.054 E.01853
G1 X126.104 Y98.536 E.01855
G1 X126.473 Y98.075 E.01851
G1 X126.915 Y97.682 E.01854
G1 X127.417 Y97.37 E.01853
G1 X127.894 Y97.176 E.01615
M204 S1000
G1 X128.036 Y96.763 F10800
;WIPE_START
G1 F8640
G1 X128.542 Y97.02 E-.1539
G1 X129.107 Y96.993 E-.13061
G1 X129.717 Y97.064 E-.1418
G1 X130.285 Y97.235 E-.13697
G1 X130.814 Y97.499 E-.13651
G1 X131.291 Y97.848 E-.13647
G1 X131.702 Y98.273 E-.13652
G1 X131.768 Y98.37 E-.02722
;WIPE_END
G1 Z.4 F720
G1 X156.568 Y77.482 F10800
G1 Z.2 F720
G1 E1 F2100
M204 S800
;TYPE:Solid infill
;WIDTH:0.420051
G1 F1200
G1 X157.161 Y78.075 E.0263
G1 X157.161 Y78.608 E.01671
G1 X156.205 Y77.652 E.0424
G1 X155.671 Y77.652 E.01675
G1 X157.161 Y79.142 E.06608
G1 X157.161 Y79.675 E.01671
G1 X155.138 Y77.652 E.08972
G1 X154.605 Y77.652 E.01671
G1 X157.161 Y80.208 E.11335
G1 X157.162 Y80.742 E.01675
G1 X154.071 Y77.652 E.13706
G1 X153.538 Y77.652 E.01671
G1 X157.162 Y81.275 E.16069
G1 X157.162 Y81.809 E.01675
G1 X153.005 Y77.652 E.18435
G1 X152.471 Y77.652 E.01675
G1 X157.162 Y82.342 E.20801
G1 X157.162 Y82.876 E.01675
G1 X151.938 Y77.652 E.23167
G1 X151.405 Y77.652 E.01671
G1 X157.162 Y83.409 E.25531
G1 X157.162 Y83.942 E.01671
G1 X150.871 Y77.652 E.27897
G1 X150.338 Y77.652 E.01671
G1 X157.162 Y84.476 E.30263
G1 X157.162 Y85.009 E.01671
G1 X149.805 Y77.652 E.32627
G1 X149.271 Y77.652 E.01675
G1 X157.162 Y85.543 E.34995
G1 X157.162 Y86.076 E.01671
G1 X148.738 Y77.652 E.37359
G1 X148.205 Y77.652 E.01671
G1 X157.162 Y86.61 E.39724
G1 X157.163 Y87.143 E.01671
M73 P1 R95
M73 Q1 S96
G1 X147.671 Y77.652 E.42093
G1 X147.138 Y77.652 E.01671
G1 X157.163 Y87.676 E.44456
G1 X157.163 Y88.21 E.01675
G1 X146.604 Y77.652 E.46825
G1 X146.071 Y77.652 E.01671
G1 X157.163 Y88.743 E.49188
G1 X157.163 Y89.277 E.01675
G1 X145.538 Y77.652 E.51554
G1 X145.004 Y77.652 E.01675
G1 X157.163 Y89.81 E.5392
G1 X157.163 Y90.344 E.01675
G1 X144.471 Y77.652 E.56286
G1 X143.938 Y77.652 E.01671
G1 X157.163 Y90.877 E.5865
G1 X157.163 Y91.41 E.01671
G1 X143.404 Y77.652 E.61016
G1 X142.871 Y77.652 E.01671
G1 X157.163 Y91.944 E.63382
G1 X157.163 Y92.477 E.01671
G1 X142.338 Y77.652 E.65745
G1 X141.804 Y77.652 E.01675
G1 X157.163 Y93.011 E.68114
G1 X157.163 Y93.544 E.01671
G1 X141.271 Y77.652 E.70477
G1 X140.738 Y77.652 E.01671
G1 X157.164 Y94.078 E.72846
G1 X157.164 Y94.611 E.01671
G1 X140.204 Y77.652 E.75212
G1 X139.671 Y77.652 E.01671
G1 X157.164 Y95.144 E.77575
G1 X157.164 Y95.678 E.01675
G1 X139.138 Y77.652 E.79941
G1 X138.604 Y77.652 E.01675
G1 X157.164 Y96.211 E.82307
G1 X157.164 Y96.745 E.01675
G1 X138.071 Y77.652 E.84673
G1 X137.538 Y77.652 E.01671
G1 X157.164 Y97.278 E.87037
G1 X157.164 Y97.812 E.01675
G1 X137.004 Y77.652 E.89405
G1 X136.471 Y77.652 E.01671
G1 X157.164 Y98.345 E.91769
G1 X157.164 Y98.878 E.01671
G1 X135.938 Y77.652 E.94132
G1 X135.404 Y77.652 E.01675
G1 X157.164 Y99.412 E.96501
G1 X157.164 Y99.945 E.01671
G1 X134.871 Y77.652 E.98864
G1 X134.338 Y77.652 E.01671
G1 X157.165 Y100.479 E1.01233
G1 X157.165 Y101.012 E.01671
G1 X133.804 Y77.652 E1.03598
G1 X133.271 Y77.652 E.01671
G1 X157.165 Y101.545 E1.05962
G1 X157.165 Y102.079 E.01675
G1 X132.738 Y77.652 E1.08328
G1 X132.204 Y77.652 E.01675
G1 X157.165 Y102.612 E1.10694
G1 X157.165 Y103.146 E.01675
G1 X131.671 Y77.652 E1.1306
G1 X131.138 Y77.652 E.01671
G1 X157.165 Y103.679 E1.15424
G1 X157.165 Y104.213 E.01675
G1 X130.604 Y77.652 E1.17792
G1 X130.071 Y77.652 E.01671
G1 X157.165 Y104.746 E1.20156
G1 X157.165 Y105.279 E.01671
M73 Q1 S95
G1 X129.537 Y77.652 E1.22522
G1 X129.004 Y77.652 E.01671
G1 X157.165 Y105.813 E1.24888
G1 X157.165 Y106.346 E.01671
M73 P1 R94
G1 X128.471 Y77.652 E1.27251
G1 X127.937 Y77.652 E.01675
G1 X157.166 Y106.88 E1.29622
G1 X157.166 Y107.413 E.01671
G1 X127.404 Y77.652 E1.31985
G1 X126.871 Y77.652 E.01671
G1 X157.166 Y107.947 E1.34351
G1 X157.166 Y108.48 E.01671
M73 P2 R94
G1 X126.337 Y77.652 E1.36717
G1 X125.804 Y77.652 E.01671
M73 Q2 S95
G1 X157.166 Y109.013 E1.39081
G1 X157.166 Y109.547 E.01675
G1 X125.271 Y77.652 E1.41447
G1 X124.737 Y77.652 E.01675
G1 X157.166 Y110.08 E1.43813
G1 X157.166 Y110.614 E.01675
G1 X124.204 Y77.652 E1.46179
G1 X123.671 Y77.652 E.01671
G1 X157.166 Y111.147 E1.48543
G1 X157.166 Y111.681 E.01675
G1 X123.137 Y77.652 E1.50911
G1 X122.604 Y77.652 E.01671
G1 X157.166 Y112.214 E1.53275
G1 X157.166 Y112.747 E.01671
G1 X122.071 Y77.652 E1.55638
G1 X121.537 Y77.652 E.01675
G1 X157.167 Y113.281 E1.58009
G1 X157.167 Y113.814 E.01671
G1 X121.004 Y77.652 E1.60372
G1 X120.471 Y77.652 E.01671
G1 X157.167 Y114.348 E1.62738
G1 X157.167 Y114.881 E.01671
G1 X119.937 Y77.652 E1.65104
G1 X119.404 Y77.652 E.01671
G1 X157.167 Y115.415 E1.6747
G1 X157.167 Y115.948 E.01671
G1 X118.871 Y77.652 E1.69834
G1 X118.337 Y77.652 E.01675
G1 X157.167 Y116.481 E1.722
G1 X157.167 Y117.015 E.01675
G1 X117.804 Y77.652 E1.74566
G1 X117.271 Y77.652 E.01671
G1 X157.167 Y117.548 E1.7693
G1 X157.167 Y118.082 E.01675
G1 X116.737 Y77.652 E1.79298
G1 X116.204 Y77.652 E.01671
M73 Q2 S94
G1 X157.167 Y118.615 E1.81662
G1 X157.167 Y119.149 E.01675
M73 P2 R93
G1 X115.671 Y77.652 E1.84027
G1 X115.137 Y77.652 E.01675
G1 X157.168 Y119.682 E1.86396
G1 X157.168 Y120.215 E.01671
G1 X114.604 Y77.652 E1.88759
G1 X114.514 Y77.652 E.00282
M73 P3 R93
M73 Q3 S94
G1 X114.514 Y78.095 E.01389
G1 X157.337 Y120.919 E1.89912
M204 S1000
;WIPE_START
G1 F8640
G1 X154.275 Y117.857 E-1
;WIPE_END
G1 Z.4 F720
G1 X163.861 Y122.109 F10800
G1 Z.2 F720
G1 E1 F2100
M204 S800
G1 F1200
G1 X164.867 Y123.115 E.04461
G1 X164.953 Y123.411 E.00967
G1 X164.974 Y123.755 E.01081
G1 X163.471 Y122.252 E.06665
G1 X162.937 Y122.252 E.01675
G1 X164.974 Y124.288 E.09031
G1 X164.974 Y124.821 E.01671
G1 X162.404 Y122.252 E.11395
G1 X161.871 Y122.252 E.01671
G1 X164.974 Y125.355 E.13761
G1 X164.974 Y125.888 E.01671
G1 X161.337 Y122.252 E.16127
G1 X160.804 Y122.252 E.01671
G1 X164.974 Y126.421 E.18491
G1 X164.974 Y126.955 E.01675
G1 X160.271 Y122.252 E.20857
G1 X159.737 Y122.252 E.01675
G1 X164.974 Y127.488 E.23223
G1 X164.974 Y128.021 E.01671
G1 X159.204 Y122.252 E.25586
G1 X158.671 Y122.252 E.01671
G1 X164.918 Y128.499 E.27704
G1 X164.384 Y128.499 E.01675
G1 X158.137 Y122.252 E.27704
G1 X157.884 Y122.234 E.00795
G1 X157.669 Y122.161 E.00712
G1 X157.514 Y122.065 E.00572
G1 X157.374 Y121.931 E.00608
G1 X157.263 Y121.768 E.00618
G1 X157.168 Y121.471 E.00978
G1 X157.168 Y121.282 E.00593
G1 X114.514 Y78.628 E1.89161
G1 X114.514 Y79.162 E.01675
G1 X163.851 Y128.499 E2.18798
G1 X163.317 Y128.498 E.01675
G1 X114.514 Y79.695 E2.1643
G1 X114.514 Y80.228 E.01671
G1 X162.784 Y128.498 E2.14066
G1 X162.25 Y128.498 E.01675
G1 X133.003 Y99.251 E1.29704
G1 X133.142 Y99.761 E.01658
G1 X133.157 Y99.938 E.00557
G1 X161.717 Y128.498 E1.26657
G1 X161.183 Y128.498 E.01675
G1 X133.199 Y100.514 E1.24103
G1 X133.157 Y101.005 E.01545
G1 X160.65 Y128.498 E1.21925
G1 X160.116 Y128.498 E.01675
G1 X133.07 Y101.451 E1.19945
G1 X132.956 Y101.871 E.01365
G1 X159.583 Y128.498 E1.18085
G1 X159.049 Y128.497 E.01675
G1 X132.794 Y102.242 E1.16435
G1 X132.62 Y102.602 E.01254
G1 X158.516 Y128.497 E1.14841
G1 X157.983 Y128.497 E.01671
G1 X132.404 Y102.919 E1.13435
G1 X132.28 Y103.103 E.00696
G1 X132.17 Y103.218 E.00499
G1 X157.449 Y128.497 E1.12107
G1 X156.916 Y128.497 E.01671
G1 X131.911 Y103.492 E1.10891
G1 X131.621 Y103.736 E.01188
G1 X156.382 Y128.497 E1.09809
G1 X155.849 Y128.497 E.01671
G1 X131.32 Y103.968 E1.08781
G1 X131.227 Y104.039 E.00367
M73 Q3 S93
G1 X130.983 Y104.164 E.0086
G1 X152.317 Y125.499 E.94614
G1 X152.642 Y125.525 E.01022
G1 X152.925 Y125.652 E.00973
G1 X153.076 Y125.78 E.00621
G1 X153.196 Y125.938 E.00622
G1 X153.377 Y126.394 E.01538
G1 X153.421 Y126.602 E.00667
G1 X155.315 Y128.497 E.08402
G1 X154.782 Y128.496 E.01671
G1 X153.348 Y127.063 E.06357
G1 X153.123 Y127.371 E.01196
G1 X154.248 Y128.496 E.04989
G1 X153.715 Y128.496 E.01671
G1 X152.834 Y127.615 E.03907
G1 X152.543 Y127.857 E.01187
G1 X153.181 Y128.496 E.02832
G1 X152.648 Y128.496 E.01671
G1 X152.251 Y128.099 E.01761
G1 X151.96 Y128.341 E.01187
G1 X152.284 Y128.665 E.01437
M204 S1000
