; generated by PrusaSlicer 2.6.0+win64 on 2023-09-05 at 07:41:23 UTC


;
;
; 

; external perimeters extrusion width = 0.65mm
; perimeters extrusion width = 0.65mm
; infill extrusion width = 0.65mm
; solid infill extrusion width = 0.65mm
; top infill extrusion width = 0.60mm
; first layer extrusion width = 0.65mm

M73 P0 R3
M73 Q0 S3
M201 X1000 Y1000 Z200 E5000 ; sets maximum accelerations, mm/sec^2
M203 X200 Y200 Z12 E120 ; sets maximum feedrates, mm / sec
M204 S1250 T1250 ; sets acceleration (S) and retract acceleration (R), mm/sec^2
M205 X8.00 Y8.00 Z0.40 E4.50 ; sets the jerk limits, mm/sec
M205 S0 T0 ; sets the minimum extruding and travel feed rate, mm/sec
;TYPE:Custom
M862.3 P "MK3S" ; printer model check
M862.1 P0.6 ; nozzle diameter check
M115 U3.12.2 ; tell printer latest fw version
G90 ; use absolute coordinates
M83 ; extruder relative mode
M104 S240 ; set extruder temp
M140 S85 ; set bed temp
M190 S85 ; wait for bed temp
M109 S240 ; wait for extruder temp
G28 W ; home all without mesh bed level
G80 ; mesh bed leveling

G1 Z0.2 F720
G1 Y-3 F1000 ; go outside print area
G92 E0
G1 X60 E9 F1000 ; intro line
G1 X100 E12.5 F1000 ; intro line

G92 E0
M221 S95
G21 ; set units to millimeters
G90 ; use absolute coordinates
M83 ; use relative distances for extrusion
M900 K0.04 ; Filament gcode LA 1.5
M900 K24 ; Filament gcode LA 1.0
M107
;LAYER_CHANGE
;Z:0.2
;HEIGHT:0.2
;BEFORE_LAYER_CHANGE
G92 E0.0
;0.2


M73 P1 R3
M73 Q1 S3
G1 E-1 F2100
M73 P3 R3
M73 Q3 S3
G1 Z.2 F720
;AFTER_LAYER_CHANGE
;0.2
G1 Z.4
G1 X113.25 Y102.535 F10800
G1 Z.2 F720
G1 E1 F1500
M204 S800
;TYPE:Skirt/Brim
;WIDTH:0.65
G1 F1200
G1 X114.197 Y101.747 E.06219
G1 X115.174 Y101.17 E.05728
G1 X128.823 Y95.394 E.74814
G1 X130.228 Y94.986 E.07385
M73 P4 R3
M73 Q4 S3
G1 X131.887 Y94.863 E.08397
G1 X132.924 Y94.982 E.05269
G1 X134.098 Y95.302 E.06142
G1 X134.826 Y95.611 E.03992
G1 X135.795 Y96.182 E.05677
G1 X136.731 Y96.957 E.06134
G1 X137.468 Y97.797 E.05641
G1 X138.125 Y98.842 E.06231
G1 X138.45 Y99.563 E.03992
G1 X138.774 Y100.64 E.05677
G1 X138.936 Y101.836 E.06092
G1 X138.908 Y102.961 E.05681
G1 X138.788 Y103.735 E.03954
G1 X138.435 Y104.915 E.06217
G1 X137.948 Y105.921 E.05642
G1 X137.246 Y106.925 E.06184
G1 X136.707 Y107.507 E.04004
G1 X135.836 Y108.23 E.05714
G1 X134.558 Y108.956 E.07419
G1 X121.38 Y114.52 E.72207
G1 X120.148 Y114.934 E.06561
M73 P5 R3
M73 Q5 S3
G1 X119.375 Y115.078 E.03969
G1 X118.262 Y115.139 E.05627
G1 X117.044 Y115.012 E.06182
G1 X116.274 Y114.822 E.04003
G1 X115.234 Y114.418 E.05632
G1 X114.532 Y114.033 E.04042
G1 X113.889 Y113.585 E.03956
G1 X113.002 Y112.767 E.06091
G1 X112.07 Y111.51 E.07899
G1 X111.569 Y110.484 E.05764
G1 X111.155 Y108.992 E.07816
G1 X111.054 Y107.762 E.0623
G1 X111.222 Y106.216 E.0785
G1 X111.55 Y105.122 E.05765
G1 X112.258 Y103.745 E.07816
G1 X113.193 Y102.605 E.07443
M204 S1000
G1 X113.656 Y103.036 F10800
M204 S800
G1 F1200
G1 X113.994 Y102.673 E.02504
G1 X114.785 Y102.084 E.04978
G1 X115.827 Y101.54 E.05934
G1 X129.059 Y95.954 E.72502
G1 X130.358 Y95.579 E.06825
M73 P6 R3
M73 Q6 S3
G1 X131.872 Y95.47 E.07662
G1 X132.796 Y95.575 E.04694
G1 X133.909 Y95.878 E.05823
G1 X134.822 Y96.292 E.0506
G1 X135.788 Y96.933 E.05852
G1 X136.508 Y97.597 E.04944
G1 X137.227 Y98.508 E.05858
G1 X137.594 Y99.137 E.03676
G1 X137.984 Y100.06 E.05058
G1 X138.258 Y101.177 E.05806
G1 X138.339 Y102.164 E.04999
G1 X138.249 Y103.32 E.05853
G1 X138.092 Y104.032 E.0368
G1 X137.758 Y104.96 E.04979
G1 X137.199 Y105.975 E.05849
G1 X136.586 Y106.76 E.05028
G1 X136.063 Y107.277 E.03712
G1 X135.132 Y107.969 E.05856
G1 X134.322 Y108.397 E.04624
G1 X121.144 Y113.96 E.72205
G1 X119.988 Y114.348 E.06155
M73 P7 R3
M73 Q7 S3
G1 X119.277 Y114.479 E.03649
G1 X118.293 Y114.533 E.04975
G1 X117.139 Y114.412 E.05857
G1 X116.432 Y114.236 E.03678
G1 X115.513 Y113.878 E.04979
G1 X114.868 Y113.527 E.03707
G1 X114.277 Y113.118 E.03628
G1 X113.436 Y112.342 E.05776
M73 P7 R2
G1 X112.584 Y111.187 E.07245
G1 X112.14 Y110.278 E.05107
G1 X111.757 Y108.91 E.07171
G1 X111.668 Y107.461 E.07328
G1 X111.884 Y106.057 E.07171
G1 X112.281 Y104.951 E.05932
G1 X113.009 Y103.731 E.07172
G1 X113.595 Y103.102 E.0434
M204 S1000
; printing object Gripper_Spacer_rev0 id:0 copy 0
;WIPE_START
G1 F8640
G1 X113.994 Y102.673 E-.13528
G1 X114.785 Y102.084 E-.22772
G1 X115.827 Y101.54 E-.27142
G1 X117.286 Y100.924 E-.36558
;WIPE_END
G1 Z.4 F720
G1 X118.573 Y104.728 F10800
G1 Z.2 F720
G1 E1 F1500
M204 S800
;TYPE:Perimeter
;WIDTH:0.572423
M73 Q7 S2
G1 F1200
G1 X119.245 Y104.846 E.03004
G1 X119.872 Y105.099 E.02977
;WIDTH:0.56595
G1 X120.342 Y105.412 E.02456
G1 X120.66 Y105.725 E.01941
;WIDTH:0.558323
G1 X121.029 Y106.223 E.02656
;WIDTH:0.559475
G1 X121.226 Y106.61 E.01865
;WIDTH:0.560261
G1 X121.406 Y107.203 E.02666
;WIDTH:0.569302
G1 X121.465 Y107.726 E.02304
G1 X121.412 Y108.372 E.02837
;WIDTH:0.572402
G1 X121.213 Y108.991 E.02863
M73 Q8 S2
G1 X120.885 Y109.571 E.02934
;WIDTH:0.565129
G1 X120.51 Y109.999 E.02471
G1 X120.167 Y110.267 E.0189
;WIDTH:0.558075
G1 X119.626 Y110.57 E.02656
;WIDTH:0.559916
G1 X119.217 Y110.717 E.01868
;WIDTH:0.56079
G1 X118.606 Y110.819 E.02667
;WIDTH:0.569827
G1 X118.064 Y110.809 E.02375
G1 X117.43 Y110.67 E.02844
;WIDTH:0.572236
G1 X116.844 Y110.392 E.02855
G1 X116.324 Y110.004 E.02856
;WIDTH:0.570073
G1 X115.936 Y109.555 E.02601
M73 P8 R2
G1 X115.681 Y109.117 E.02222
;WIDTH:0.559682
G1 X115.546 Y108.8 E.0148
;WIDTH:0.572143
G1 X115.415 Y108.317 E.02202
G1 X115.365 Y107.67 E.02856
;WIDTH:0.565553
G1 X115.439 Y107.112 E.02446
;WIDTH:0.563931
G1 X115.573 Y106.697 E.01889
;WIDTH:0.557789
G1 X115.851 Y106.144 E.0265
;WIDTH:0.560665
G1 X116.107 Y105.792 E.01874
;WIDTH:0.561192
G1 X116.561 Y105.362 E.02695
;WIDTH:0.57054
G1 X117.034 Y105.061 E.0246
G1 X117.638 Y104.825 E.02845
;WIDTH:0.573487
G1 X118.258 Y104.732 E.02766
G1 X118.483 Y104.729 E.00993
M204 S1000
G1 X118.598 Y104.16 F10800
M204 S800
;TYPE:External perimeter
;WIDTH:0.649999
G1 F1200
G1 X119.369 Y104.284 E.03942
G1 X120.086 Y104.565 E.03887
G1 X120.728 Y104.99 E.03887
G1 X121.265 Y105.542 E.03887
G1 X121.674 Y106.195 E.03889
G1 X121.905 Y106.836 E.03439
G1 X121.963 Y107.129 E.01508
G1 X122.03 Y107.771 E.03258
G1 X121.976 Y108.451 E.03443
G1 X121.753 Y109.188 E.03887
G1 X121.38 Y109.862 E.03889
G1 X120.873 Y110.441 E.03885
G1 X120.255 Y110.901 E.03889
G1 X119.553 Y111.219 E.0389
G1 X118.801 Y111.382 E.03884
G1 X118.03 Y111.382 E.03892
G1 X117.278 Y111.219 E.03884
G1 X116.576 Y110.901 E.0389
G1 X115.958 Y110.441 E.03889
G1 X115.451 Y109.862 E.03885
G1 X115.078 Y109.188 E.03889
G1 X114.855 Y108.451 E.03887
G1 X114.794 Y107.683 E.03889
G1 X114.896 Y106.92 E.03886
G1 X115.157 Y106.195 E.0389
G1 X115.566 Y105.542 E.03889
G1 X116.103 Y104.99 E.03887
G1 X116.745 Y104.565 E.03887
G1 X117.462 Y104.284 E.03887
G1 X118.168 Y104.171 E.03609
G1 X118.508 Y104.162 E.01717
M204 S1000
G1 X118.861 Y104.699 F10800
;WIPE_START
G1 F8640
G1 X119.369 Y104.284 E-.20079
G1 X120.086 Y104.565 E-.17782
G1 X120.728 Y104.99 E-.17778
M73 Q9 S2
G1 X121.265 Y105.542 E-.17782
G1 X121.674 Y106.195 E-.17791
G1 X121.803 Y106.553 E-.08788
;WIPE_END
G1 Z.4 F720
G1 X117.236 Y105.554 F10800
G1 Z.2 F720
G1 E1 F1500
M204 S800
;TYPE:Perimeter
;WIDTH:0.56002
M73 P9 R2
G1 F1200
G1 X117.638 Y105.373 E.01896
;WIDTH:0.559268
G1 X117.923 Y105.299 E.01264
;WIDTH:0.566519
G1 X118.49 Y105.248 E.02479
;WIDTH:0.572423
G1 X119.082 Y105.349 E.02644
G1 X119.555 Y105.515 E.02207
;WIDTH:0.56595
G1 X120.051 Y105.847 E.02596
;WIDTH:0.572038
G1 X120.394 Y106.217 E.0222
G1 X120.695 Y106.665 E.02375
;WIDTH:0.5703
G1 X120.871 Y107.195 E.02449
G1 X120.94 Y107.604 E.01819
;WIDTH:0.561354
G1 X120.915 Y108.168 E.02434
;WIDTH:0.560406
G1 X120.852 Y108.454 E.0126
;WIDTH:0.557872
G1 X120.642 Y108.979 E.02421
;WIDTH:0.564322
G1 X120.491 Y109.23 E.0127
;WIDTH:0.565146
G1 X120.115 Y109.658 E.02474
;WIDTH:0.572246
G1 X119.7 Y109.948 E.02228
G1 X119.22 Y110.186 E.02358
;WIDTH:0.569824
G1 X118.667 Y110.292 E.02467
G1 X118.269 Y110.305 E.01745
;WIDTH:0.560787
G1 X117.712 Y110.209 E.02434
;WIDTH:0.559916
G1 X117.437 Y110.111 E.01255
;WIDTH:0.558073
G1 X116.943 Y109.835 E.02424
G1 X116.563 Y109.507 E.0215
;WIDTH:0.570073
G1 X116.359 Y109.243 E.01462
G1 X116.075 Y108.76 E.02456
;WIDTH:0.560921
G1 X116.037 Y108.652 E.00493
;WIDTH:0.558192
G1 X115.899 Y108.033 E.02717
;WIDTH:0.565553
G1 X115.884 Y107.738 E.01284
G1 X115.957 Y107.175 E.02467
;WIDTH:0.572464
G1 X116.147 Y106.681 E.02331
G1 X116.413 Y106.221 E.0234
;WIDTH:0.569015
G1 X116.818 Y105.823 E.02484
G1 X117.123 Y105.605 E.0164
;WIDTH:0.56002
G1 X117.154 Y105.591 E.00146
M204 S1000
G1 X117.377 Y106.125 F10800
M204 S800
;TYPE:External perimeter
;WIDTH:0.649999
G1 F1200
G1 X117.473 Y106.064 E.00574
G1 X117.946 Y105.861 E.02598
G1 X118.537 Y105.811 E.02994
G1 X119.181 Y105.962 E.03339
G1 X119.734 Y106.315 E.03312
G1 X120.153 Y106.846 E.03414
G1 X120.329 Y107.361 E.02747
G1 X120.378 Y107.58 E.01133
G1 X120.354 Y108.145 E.02855
G1 X120.121 Y108.769 E.03362
G1 X119.694 Y109.281 E.03365
G1 X119.121 Y109.621 E.03363
G1 X118.571 Y109.733 E.02833
G1 X118.364 Y109.751 E.01049
G1 X117.807 Y109.655 E.02853
G1 X117.217 Y109.346 E.03362
G1 X116.902 Y109.043 E.02206
G1 X116.573 Y108.491 E.03244
G1 X116.448 Y107.914 E.0298
G1 X116.515 Y107.251 E.03364
G1 X116.8 Y106.648 E.03367
G1 X117.21 Y106.232 E.02948
G1 X117.301 Y106.173 E.00547
M204 S1000
G1 X117.365 Y106.012 F10800
; stop printing object Gripper_Spacer_rev0 id:0 copy 0
; printing object Gripper_Spacer_rev0 id:0 copy 1
;WIPE_START
G1 F8640
G1 X117.473 Y106.064 E-.04702
G1 X117.946 Y105.861 E-.11885
G1 X118.537 Y105.811 E-.13695
G1 X119.181 Y105.962 E-.15273
G1 X119.734 Y106.315 E-.15149
G1 X120.153 Y106.846 E-.15618
G1 X120.329 Y107.361 E-.12567
M73 Q10 S2
G1 X120.378 Y107.58 E-.05182
G1 X120.367 Y107.837 E-.05929
;WIPE_END
G1 Z.4 F720
G1 X131.742 Y99.169 F10800
G1 Z.2 F720
M73 P10 R2
G1 E1 F1500
M204 S800
;TYPE:Perimeter
;WIDTH:0.572423
G1 F1200
G1 X132.414 Y99.287 E.03004
G1 X133.041 Y99.54 E.02977
;WIDTH:0.56595
G1 X133.511 Y99.854 E.02458
G1 X133.829 Y100.166 E.01937
;WIDTH:0.558323
G1 X134.198 Y100.664 E.02656
;WIDTH:0.559475
G1 X134.395 Y101.051 E.01865
;WIDTH:0.560261
G1 X134.575 Y101.644 E.02666
;WIDTH:0.569302
G1 X134.634 Y102.167 E.02304
G1 X134.581 Y102.814 E.02841
;WIDTH:0.572402
G1 X134.382 Y103.432 E.02858
G1 X134.054 Y104.012 E.02934
;WIDTH:0.565129
G1 X133.679 Y104.44 E.02471
G1 X133.336 Y104.708 E.0189
;WIDTH:0.558075
G1 X132.795 Y105.011 E.02656
;WIDTH:0.559916
G1 X132.386 Y105.158 E.01868
;WIDTH:0.56079
G1 X131.775 Y105.261 E.02668
;WIDTH:0.569827
G1 X131.232 Y105.25 E.0238
G1 X130.599 Y105.112 E.02838
;WIDTH:0.572236
G1 X130.013 Y104.833 E.02857
G1 X129.493 Y104.445 E.02856
;WIDTH:0.570073
G1 X129.105 Y103.996 E.02601
G1 X128.85 Y103.559 E.02218
;WIDTH:0.559682
G1 X128.715 Y103.242 E.0148
;WIDTH:0.572143
G1 X128.583 Y102.758 E.02208
G1 X128.534 Y102.112 E.02851
;WIDTH:0.565553
G1 X128.608 Y101.553 E.0245
;WIDTH:0.563931
G1 X128.742 Y101.138 E.01889
;WIDTH:0.557789
G1 X129.02 Y100.585 E.0265
;WIDTH:0.560665
G1 X129.276 Y100.234 E.0187
;WIDTH:0.561192
G1 X129.73 Y99.803 E.02698
;WIDTH:0.57054
G1 X130.203 Y99.502 E.0246
G1 X130.807 Y99.267 E.02843
;WIDTH:0.573487
G1 X131.427 Y99.173 E.02767
G1 X131.652 Y99.17 E.00993
M204 S1000
G1 X131.767 Y98.601 F10800
M204 S800
;TYPE:External perimeter
;WIDTH:0.649999
G1 F1200
G1 X132.538 Y98.725 E.03942
G1 X133.255 Y99.006 E.03887
G1 X133.897 Y99.432 E.03889
G1 X134.434 Y99.983 E.03884
G1 X134.843 Y100.636 E.03889
G1 X135.074 Y101.277 E.03439
G1 X135.132 Y101.57 E.01508
G1 X135.199 Y102.213 E.03263
G1 X135.145 Y102.892 E.03438
G1 X134.922 Y103.629 E.03887
G1 X134.549 Y104.303 E.03889
G1 X134.042 Y104.883 E.03889
G1 X133.424 Y105.342 E.03886
G1 X132.722 Y105.66 E.0389
G1 X131.97 Y105.823 E.03884
G1 X131.199 Y105.823 E.03892
M73 Q11 S2
G1 X130.447 Y105.66 E.03884
G1 X129.745 Y105.342 E.0389
G1 X129.127 Y104.883 E.03886
G1 X128.62 Y104.303 E.03889
G1 X128.247 Y103.629 E.03889
G1 X128.024 Y102.892 E.03887
G1 X127.963 Y102.124 E.03889
M73 P11 R2
G1 X128.065 Y101.361 E.03886
G1 X128.326 Y100.636 E.0389
G1 X128.735 Y99.983 E.03889
G1 X129.272 Y99.431 E.03887
G1 X129.914 Y99.006 E.03887
G1 X130.631 Y98.725 E.03887
G1 X131.336 Y98.612 E.03604
G1 X131.677 Y98.603 E.01722
M204 S1000
G1 X132.029 Y99.141 F10800
;WIPE_START
G1 F8640
G1 X132.538 Y98.725 E-.20079
G1 X133.255 Y99.006 E-.17782
G1 X133.897 Y99.432 E-.17791
G1 X134.434 Y99.983 E-.17766
G1 X134.843 Y100.636 E-.17791
G1 X134.972 Y100.994 E-.08791
;WIPE_END
G1 Z.4 F720
G1 X130.405 Y99.995 F10800
G1 Z.2 F720
G1 E1 F1500
M204 S800
;TYPE:Perimeter
;WIDTH:0.56002
G1 F1200
G1 X130.807 Y99.814 E.01896
;WIDTH:0.559268
G1 X131.092 Y99.74 E.01264
;WIDTH:0.566519
G1 X131.659 Y99.689 E.02479
;WIDTH:0.572423
G1 X132.25 Y99.79 E.0264
G1 X132.724 Y99.956 E.02211
;WIDTH:0.56595
G1 X133.22 Y100.288 E.02596
;WIDTH:0.572038
G1 X133.563 Y100.658 E.0222
G1 X133.864 Y101.106 E.02375
;WIDTH:0.5703
G1 X134.04 Y101.636 E.02449
G1 X134.109 Y102.045 E.01819
;WIDTH:0.561354
G1 X134.084 Y102.61 E.02438
;WIDTH:0.560406
G1 X134.021 Y102.895 E.01256
;WIDTH:0.557872
G1 X133.811 Y103.42 E.02421
;WIDTH:0.564322
G1 X133.66 Y103.671 E.0127
;WIDTH:0.565146
G1 X133.284 Y104.099 E.02474
;WIDTH:0.572246
G1 X132.869 Y104.389 E.02228
G1 X132.389 Y104.627 E.02358
;WIDTH:0.569824
G1 X131.836 Y104.733 E.02467
G1 X131.438 Y104.746 E.01745
;WIDTH:0.560787
G1 X130.881 Y104.65 E.02434
;WIDTH:0.559916
G1 X130.606 Y104.552 E.01255
;WIDTH:0.558073
G1 X130.112 Y104.277 E.02422
G1 X129.732 Y103.948 E.02153
;WIDTH:0.570073
G1 X129.528 Y103.685 E.01459
G1 X129.244 Y103.201 E.0246
;WIDTH:0.560921
G1 X129.206 Y103.093 E.00493
;WIDTH:0.558192
G1 X129.068 Y102.474 E.02717
;WIDTH:0.565553
G1 X129.053 Y102.179 E.01284
G1 X129.126 Y101.616 E.02467
;WIDTH:0.572464
G1 X129.316 Y101.122 E.02331
G1 X129.582 Y100.663 E.02336
;WIDTH:0.569015
G1 X129.987 Y100.264 E.02487
G1 X130.292 Y100.046 E.0164
;WIDTH:0.56002
G1 X130.323 Y100.032 E.00146
M204 S1000
G1 X130.546 Y100.566 F10800
M204 S800
;TYPE:External perimeter
;WIDTH:0.649999
G1 F1200
G1 X130.642 Y100.505 E.00574
G1 X131.115 Y100.302 E.02598
G1 X131.706 Y100.253 E.02994
G1 X132.35 Y100.403 E.03338
M73 Q12 S2
G1 X132.903 Y100.756 E.03312
G1 X133.322 Y101.287 E.03414
G1 X133.498 Y101.802 E.02747
G1 X133.546 Y102.021 E.01132
G1 X133.522 Y102.586 E.02855
G1 X133.29 Y103.211 E.03365
G1 X132.863 Y103.722 E.03361
G1 X132.29 Y104.062 E.03363
G1 X131.74 Y104.174 E.02833
M73 P12 R2
G1 X131.533 Y104.192 E.01049
G1 X130.976 Y104.096 E.02853
G1 X130.386 Y103.787 E.03362
G1 X130.071 Y103.485 E.02203
G1 X129.742 Y102.932 E.03248
G1 X129.617 Y102.355 E.0298
G1 X129.684 Y101.692 E.03364
G1 X129.969 Y101.09 E.03362
G1 X130.379 Y100.673 E.02952
G1 X130.47 Y100.614 E.00547
M204 S1000
G1 X130.534 Y100.453 F10800
; stop printing object Gripper_Spacer_rev0 id:0 copy 1
;LAYER_CHANGE
;Z:0.5
;HEIGHT:0.3
;BEFORE_LAYER_CHANGE
G92 E0.0
;0.5


;WIPE_START
G1 F8640
G1 X130.642 Y100.505 E-.04702
G1 X131.115 Y100.302 E-.11885
G1 X131.706 Y100.253 E-.13693
G1 X132.35 Y100.403 E-.15268
G1 X132.903 Y100.756 E-.15149
G1 X133.322 Y101.287 E-.15618
G1 X133.498 Y101.802 E-.12567
G1 X133.546 Y102.021 E-.05177
G1 X133.535 Y102.278 E-.05941
;WIPE_END
G1 Z.4 F720
G1 Z.5
;AFTER_LAYER_CHANGE
;0.5
M104 S250 ; set temperature
M140 S90 ; set bed temperature
; printing object Gripper_Spacer_rev0 id:0 copy 0
G1 Z.7
G1 X118.545 Y104.625 F10800
G1 Z.5 F720
G1 E1 F1500
M204 S800
;TYPE:Perimeter
;WIDTH:0.795668
G1 F900
G1 X119.007 Y104.687 E.04252
;WIDTH:0.791223
G1 X119.46 Y104.81 E.04255
;WIDTH:0.797775
G1 X119.972 Y105.032 E.05105
G1 X120.385 Y105.325 E.04632
;WIDTH:0.79165
G1 X120.802 Y105.726 E.05248
;WIDTH:0.797433
G1 X121.114 Y106.144 E.04769
G1 X121.399 Y106.745 E.06081
;WIDTH:0.803352
G1 X121.546 Y107.4 E.06187
G1 X121.56 Y107.666 E.02455
;WIDTH:0.792711
G1 X121.539 Y108.187 E.04737
;WIDTH:0.798856
G1 X121.44 Y108.692 E.04714
G1 X121.245 Y109.163 E.0467
;WIDTH:0.792561
G1 X120.942 Y109.655 E.05248
;WIDTH:0.790452
G1 X120.663 Y109.987 E.03927
;WIDTH:0.80225
G1 X120.265 Y110.334 E.04859
G1 X119.721 Y110.657 E.05822
