; generated by PrusaSlicer 2.6.0+win64 on 2023-07-25 at 15:05:27 UTC


;
;
; 

; external perimeters extrusion width = 0.65mm
; perimeters extrusion width = 0.65mm
; infill extrusion width = 0.65mm
; solid infill extrusion width = 0.65mm
; top infill extrusion width = 0.60mm
; first layer extrusion width = 0.65mm

M73 P0 R10
M73 Q0 S10
M201 X1000 Y1000 Z200 E5000 ; sets maximum accelerations, mm/sec^2
M203 X200 Y200 Z12 E120 ; sets maximum feedrates, mm / sec
M204 S1250 T1250 ; sets acceleration (S) and retract acceleration (R), mm/sec^2
M205 X8.00 Y8.00 Z0.40 E4.50 ; sets the jerk limits, mm/sec
M205 S0 T0 ; sets the minimum extruding and travel feed rate, mm/sec
;TYPE:Custom
M862.3 P "MK3S" ; printer model check
M862.1 P0.6 ; nozzle diameter check
M115 U3.12.2 ; tell printer latest fw version
G90 ; use absolute coordinates
M83 ; extruder relative mode
M104 S215 ; set extruder temp
M140 S60 ; set bed temp
M190 S60 ; wait for bed temp
M109 S215 ; wait for extruder temp
G28 W ; home all without mesh bed level
G80 ; mesh bed leveling

G1 Z0.2 F720
G1 Y-3 F1000 ; go outside print area
G92 E0
G1 X60 E9 F1000 ; intro line
G1 X100 E12.5 F1000 ; intro line

G92 E0
M221 S95
G21 ; set units to millimeters
G90 ; use absolute coordinates
M83 ; use relative distances for extrusion
M900 K0.04 ; Filament gcode LA 1.5
M900 K18 ; Filament gcode LA 1.0
M107
;LAYER_CHANGE
;Z:0.2
;HEIGHT:0.2
;BEFORE_LAYER_CHANGE
G92 E0.0
;0.2


G1 E-.8 F2100
G1 Z.4 F720
;AFTER_LAYER_CHANGE
;0.2
G1 X118.21 Y87.802 F10800
G1 Z.2 F720
M73 P1 R10
M73 Q1 S10
G1 E.8 F1500
M204 S800
;TYPE:Skirt/Brim
;WIDTH:0.65
G1 F1200
G1 X118.862 Y87.09 E.04873
G1 X120.091 Y86.17 E.0775
G1 X121.652 Y85.65 E.08305
G1 X129.576 Y85.643 E.39999
G1 X130.951 Y86.035 E.07217
G1 X131.912 Y87.094 E.07219
G1 X132.183 Y88.25 E.05994
G1 X132.183 Y121.75 E1.69104
G1 X131.79 Y123.125 E.07219
G1 X130.731 Y124.087 E.07222
G1 X129.576 Y124.357 E.05987
G1 X120.424 Y124.357 E.46198
G1 X119.049 Y123.965 E.07217
G1 X118.088 Y122.906 E.07219
G1 X117.817 Y121.75 E.05994
G1 X117.817 Y89.177 E1.64425
G1 X118.185 Y87.888 E.06767
M204 S1000
; printing object Left_Side_Bracket_rev0 id:0 copy 0
;WIPE_START
G1 F8640
G1 X118.862 Y87.09 E-.24164
G1 X120.091 Y86.17 E-.35448
G1 X120.929 Y85.891 E-.20388
;WIPE_END
G1 Z.6 F720
G1 X123.138 Y90.089 F10800
G1 Z.2 F720
M73 Q2 S10
G1 E.8 F1500
M204 S800
;TYPE:Perimeter
;WIDTH:0.724068
G1 F1200
G1 X123.039 Y90.095 E.00562
;WIDTH:0.768466
G1 X122.907 Y90.136 E.00834
;WIDTH:0.812864
G1 X122.775 Y90.176 E.00883
;WIDTH:0.857262
G1 X122.643 Y90.216 E.00934
;WIDTH:0.90166
G1 X122.511 Y90.257 E.00987
;WIDTH:0.910845
G1 X122.439 Y90.321 E.00695
G1 X122.394 Y90.498 E.01318
;WIDTH:0.861729
G1 X122.35 Y90.675 E.01242
;WIDTH:0.812613
G1 X122.305 Y90.852 E.01169
;WIDTH:0.763497
G1 X122.26 Y91.029 E.01094
;WIDTH:0.714381
G1 X122.26 Y118.971 E1.56006
;WIDTH:0.724068
G1 X122.27 Y119.135 E.00931
;WIDTH:0.766003
M73 P2 R10
G1 X122.307 Y119.251 E.00732
;WIDTH:0.807938
G1 X122.345 Y119.367 E.00776
;WIDTH:0.849873
G1 X122.383 Y119.483 E.00819
;WIDTH:0.891808
G1 X122.421 Y119.6 E.00868
;WIDTH:0.933743
G1 X122.459 Y119.716 E.00904
G1 X122.608 Y119.755 E.01141
;WIDTH:0.889871
G1 X122.756 Y119.795 E.0108
;WIDTH:0.845999
G1 X122.905 Y119.835 E.0103
;WIDTH:0.802126
G1 X123.054 Y119.875 E.00974
;WIDTH:0.758254
G1 X123.203 Y119.914 E.00916
;WIDTH:0.714381
G1 X128.411 Y119.914 E.29077
G1 X128.411 Y120.25 E.01876
G1 X128.411 Y120.586 E.01876
G1 X123.203 Y120.586 E.29077
;WIDTH:0.758254
G1 X122.991 Y120.564 E.01268
;WIDTH:0.802126
G1 X122.779 Y120.542 E.01346
;WIDTH:0.845999
G1 X122.567 Y120.52 E.01423
;WIDTH:0.889871
G1 X122.356 Y120.498 E.01494
;WIDTH:0.933743
G1 X122.144 Y120.476 E.01579
G1 X121.698 Y120.476 E.03304
G1 X121.698 Y120.031 E.03296
G1 X121.676 Y119.819 E.01579
;WIDTH:0.889871
G1 X121.654 Y119.607 E.01501
;WIDTH:0.845999
G1 X121.633 Y119.395 E.01423
;WIDTH:0.802126
G1 X121.611 Y119.183 E.01346
;WIDTH:0.758254
G1 X121.589 Y118.971 E.01268
;WIDTH:0.714381
G1 X121.589 Y91.029 E1.56006
;WIDTH:0.763497
G1 X121.613 Y90.778 E.01511
;WIDTH:0.812613
G1 X121.638 Y90.527 E.01614
;WIDTH:0.861729
G1 X121.662 Y90.277 E.0171
;WIDTH:0.910845
G1 X121.687 Y89.809 E.03382
G1 X122.081 Y89.508 E.03578
;WIDTH:0.90166
G1 X122.469 Y89.485 E.02775
;WIDTH:0.854841
G1 X122.714 Y89.461 E.01662
;WIDTH:0.808021
G1 X122.958 Y89.438 E.01559
;WIDTH:0.761201
G1 X123.203 Y89.414 E.0147
;WIDTH:0.714381
G1 X128.411 Y89.414 E.29077
G1 X128.411 Y90.086 E.03752
G1 X123.227 Y90.086 E.28943
M204 S1000
G1 X123.203 Y90.725 F10800
M204 S800
;TYPE:External perimeter
;WIDTH:0.649999
G1 F1200
G1 X123 Y90.803 E.01098
G1 X122.899 Y91.029 E.0125
G1 X122.899 Y118.971 E1.41048
G1 X122.988 Y119.186 E.01175
G1 X123.203 Y119.275 E.01175
G1 X129.051 Y119.275 E.2952
G1 X129.051 Y121.225 E.09843
G1 X120.949 Y121.225 E.40898
M73 Q3 S10
G1 X120.949 Y89.44 E1.60447
M73 P3 R10
G1 X121.837 Y88.775 E.056
G1 X129.051 Y88.775 E.36415
G1 X129.051 Y90.725 E.09843
G1 X123.293 Y90.725 E.29066
M204 S1000
G1 X123.036 Y90.586 F10800
; stop printing object Left_Side_Bracket_rev0 id:0 copy 0
M106 S84.15
;LAYER_CHANGE
;Z:0.4
;HEIGHT:0.2
;BEFORE_LAYER_CHANGE
G92 E0.0
;0.4


;WIPE_START
G1 F8640
G1 X123 Y90.803 E-.07001
G1 X122.899 Y91.029 E-.05716
G1 X122.899 Y93.943 E-.67283
;WIPE_END
G1 Z.6 F720
;AFTER_LAYER_CHANGE
;0.4
; printing object Left_Side_Bracket_rev0 id:0 copy 0
G1 X122.784 Y90.566 F10800
G1 Z.4 F720
G1 E.8 F1500
M204 S800
;TYPE:Perimeter
;WIDTH:0.69593
G1 F1129
G1 X122.743 Y90.601 E.00293
;WIDTH:0.694063
G1 X122.679 Y90.705 E.00661
;WIDTH:0.738127
G1 X122.616 Y90.81 E.00708
;WIDTH:0.78219
G1 X122.552 Y90.915 E.00756
;WIDTH:0.826254
G1 X122.488 Y91.019 E.00795
;WIDTH:0.870318
G1 X122.424 Y91.124 E.00846
;WIDTH:0.914381
G1 X122.36 Y91.229 E.00891
G1 X122.36 Y118.771 E1.99576
;WIDTH:0.925584
G1 X122.37 Y118.953 E.01338
G1 X122.435 Y119.03 E.0074
;WIDTH:0.879654
G1 X122.5 Y119.107 E.00701
;WIDTH:0.833723
G1 X122.565 Y119.184 E.00663
;WIDTH:0.787792
G1 X122.629 Y119.261 E.0062
;WIDTH:0.741861
G1 X122.694 Y119.338 E.00586
;WIDTH:0.69593
G1 X122.759 Y119.415 E.00547
;WIDTH:0.694063
G1 X122.866 Y119.482 E.00684
;WIDTH:0.738127
G1 X122.974 Y119.548 E.00732
;WIDTH:0.78219
G1 X123.081 Y119.615 E.00776
;WIDTH:0.826254
G1 X123.188 Y119.681 E.00819
;WIDTH:0.870318
G1 X123.296 Y119.748 E.00874
;WIDTH:0.914381
G1 X123.403 Y119.814 E.00911
G1 X128.511 Y119.814 E.37014
G1 X128.511 Y120.25 E.03159
G1 X128.511 Y120.686 E.03159
G1 X123.403 Y120.686 E.37014
G1 X123.301 Y120.708 E.00756
;WIDTH:0.870318
G1 X123.199 Y120.73 E.00718
;WIDTH:0.826254
G1 X123.097 Y120.752 E.0068
;WIDTH:0.78219
G1 X122.995 Y120.774 E.00641
;WIDTH:0.738127
G1 X122.893 Y120.796 E.00603
;WIDTH:0.694063
G1 X122.791 Y120.818 E.00565
;WIDTH:0.649999
G1 X121.356 Y120.818 E.07244
G1 X121.356 Y119.996 E.04149
;WIDTH:0.68692
G1 X121.375 Y119.792 E.01097
;WIDTH:0.723841
G1 X121.393 Y119.588 E.0116
;WIDTH:0.760761
G1 X121.412 Y119.384 E.01223
;WIDTH:0.801967
G1 X121.432 Y119.295 E.00576
;WIDTH:0.843173
G1 X121.453 Y119.206 E.00608
;WIDTH:0.884379
G1 X121.474 Y119.118 E.00633
;WIDTH:0.925584
G1 X121.494 Y119.029 E.00669
G1 X121.489 Y118.771 E.01894
;WIDTH:0.914381
G1 X121.489 Y91.229 E1.99576
G1 X121.467 Y91.031 E.01444
;WIDTH:0.870318
M73 P4 R10
M73 Q4 S10
G1 X121.445 Y90.834 E.01364
;WIDTH:0.826254
G1 X121.423 Y90.637 E.01291
;WIDTH:0.78219
G1 X121.401 Y90.44 E.01218
;WIDTH:0.738127
G1 X121.379 Y90.243 E.01146
;WIDTH:0.694063
G1 X121.356 Y90.046 E.01074
;WIDTH:0.649999
G1 X121.356 Y89.644 E.02029
G1 X121.973 Y89.182 E.03891
G1 X122.238 Y89.182 E.01338
;WIDTH:0.69593
G1 X122.39 Y89.205 E.00835
;WIDTH:0.741861
G1 X122.541 Y89.228 E.00888
;WIDTH:0.787792
G1 X122.692 Y89.251 E.00946
;WIDTH:0.833723
G1 X122.843 Y89.274 E.01004
;WIDTH:0.879654
G1 X122.994 Y89.297 E.01063
;WIDTH:0.925584
G1 X123.146 Y89.32 E.01128
G1 X123.403 Y89.314 E.01887
;WIDTH:0.914381
G1 X128.511 Y89.314 E.37014
G1 X128.511 Y90.186 E.06319
G1 X123.403 Y90.186 E.37014
;WIDTH:0.925584
G1 X123.222 Y90.196 E.0133
G1 X123.142 Y90.263 E.00766
;WIDTH:0.879654
G1 X123.062 Y90.331 E.00731
;WIDTH:0.833723
G1 X122.983 Y90.398 E.00681
;WIDTH:0.787792
G1 X122.903 Y90.466 E.0065
;WIDTH:0.741861
G1 X122.853 Y90.508 E.0038
M204 S1000
G1 X123.196 Y91.007 F10800
M204 S800
;TYPE:External perimeter
;WIDTH:0.649999
G1 F1129
G1 X123.099 Y91.229 E.01223
G1 X123.104 Y118.824 E1.39296
G1 X123.188 Y118.986 E.00921
G1 X123.403 Y119.075 E.01175
G1 X129.251 Y119.075 E.2952
G1 X129.251 Y121.425 E.11863
G1 X120.749 Y121.425 E.42917
G1 X120.749 Y89.34 E1.61961
G1 X121.771 Y88.575 E.06444
G1 X129.251 Y88.575 E.37758
G1 X129.251 Y90.925 E.11863
G1 X123.403 Y90.925 E.2952
M73 Q5 S10
G1 X123.28 Y90.974 E.00668
M204 S1000
M73 P5 R10
G1 X122.963 Y90.942 F10800
; stop printing object Left_Side_Bracket_rev0 id:0 copy 0
M106 S170.85
;LAYER_CHANGE
;Z:0.6
;HEIGHT:0.2
;BEFORE_LAYER_CHANGE
G92 E0.0
;0.6


;WIPE_START
G1 F8640
G1 X123.099 Y91.229 E-.07221
G1 X123.1 Y94.381 E-.72779
;WIPE_END
G1 Z.8 F720
;AFTER_LAYER_CHANGE
;0.6
; printing object Left_Side_Bracket_rev0 id:0 copy 0
G1 X122.784 Y90.566 F10800
G1 Z.6 F720
G1 E.8 F1500
M204 S800
;TYPE:Perimeter
;WIDTH:0.69593
G1 F1130
G1 X122.743 Y90.601 E.00293
;WIDTH:0.694063
G1 X122.679 Y90.705 E.00661
;WIDTH:0.738127
G1 X122.616 Y90.81 E.00708
;WIDTH:0.78219
G1 X122.552 Y90.915 E.00756
;WIDTH:0.826254
G1 X122.488 Y91.019 E.00795
;WIDTH:0.870318
G1 X122.424 Y91.124 E.00846
;WIDTH:0.914381
G1 X122.36 Y91.229 E.00891
G1 X122.36 Y118.771 E1.99576
;WIDTH:0.925584
G1 X122.37 Y118.953 E.01338
G1 X122.435 Y119.03 E.0074
;WIDTH:0.879654
G1 X122.5 Y119.107 E.00701
;WIDTH:0.833723
G1 X122.565 Y119.184 E.00663
;WIDTH:0.787792
G1 X122.629 Y119.261 E.0062
;WIDTH:0.741861
G1 X122.694 Y119.338 E.00586
;WIDTH:0.69593
G1 X122.759 Y119.415 E.00547
;WIDTH:0.694063
G1 X122.866 Y119.482 E.00684
;WIDTH:0.738127
G1 X122.974 Y119.548 E.00732
;WIDTH:0.78219
G1 X123.081 Y119.615 E.00776
;WIDTH:0.826254
G1 X123.188 Y119.681 E.00819
;WIDTH:0.870318
G1 X123.296 Y119.748 E.00874
;WIDTH:0.914381
G1 X123.403 Y119.814 E.00911
G1 X128.511 Y119.814 E.37014
G1 X128.511 Y120.25 E.03159
G1 X128.511 Y120.686 E.03159
G1 X123.403 Y120.686 E.37014
G1 X123.301 Y120.708 E.00756
;WIDTH:0.870318
G1 X123.199 Y120.73 E.00718
;WIDTH:0.826254
G1 X123.097 Y120.752 E.0068
;WIDTH:0.78219
G1 X122.995 Y120.774 E.00641
;WIDTH:0.738127
G1 X122.893 Y120.796 E.00603
;WIDTH:0.694063
G1 X122.791 Y120.818 E.00565
;WIDTH:0.649999
G1 X121.356 Y120.818 E.07244
G1 X121.356 Y119.996 E.04149
;WIDTH:0.68692
G1 X121.375 Y119.792 E.01097
;WIDTH:0.723841
G1 X121.393 Y119.588 E.0116
;WIDTH:0.760761
G1 X121.412 Y119.384 E.01223
;WIDTH:0.801967
G1 X121.432 Y119.295 E.00576
;WIDTH:0.843173
G1 X121.453 Y119.206 E.00608
;WIDTH:0.884379
G1 X121.474 Y119.118 E.00633
;WIDTH:0.925584
G1 X121.494 Y119.029 E.00669
G1 X121.489 Y118.771 E.01894
;WIDTH:0.914381
G1 X121.489 Y91.229 E1.99576
G1 X121.467 Y91.031 E.01444
;WIDTH:0.870318
M73 P5 R9
G1 X121.445 Y90.834 E.01364
;WIDTH:0.826254
G1 X121.423 Y90.637 E.01291
;WIDTH:0.78219
G1 X121.401 Y90.44 E.01218
;WIDTH:0.738127
G1 X121.379 Y90.243 E.01146
;WIDTH:0.694063
G1 X121.356 Y90.046 E.01074
;WIDTH:0.649999
G1 X121.356 Y89.644 E.02029
G1 X121.973 Y89.182 E.03891
G1 X122.238 Y89.182 E.01338
;WIDTH:0.69593
G1 X122.39 Y89.205 E.00835
;WIDTH:0.741861
G1 X122.541 Y89.228 E.00888
;WIDTH:0.787792
G1 X122.692 Y89.251 E.00946
;WIDTH:0.833723
G1 X122.843 Y89.274 E.01004
;WIDTH:0.879654
G1 X122.994 Y89.297 E.01063
;WIDTH:0.925584
G1 X123.146 Y89.32 E.01128
G1 X123.403 Y89.314 E.01887
;WIDTH:0.914381
G1 X128.511 Y89.314 E.37014
G1 X128.511 Y90.186 E.06319
G1 X123.403 Y90.186 E.37014
;WIDTH:0.925584
G1 X123.222 Y90.196 E.0133
G1 X123.142 Y90.263 E.00766
;WIDTH:0.879654
G1 X123.062 Y90.331 E.00731
;WIDTH:0.833723
G1 X122.983 Y90.398 E.00681
;WIDTH:0.787792
G1 X122.903 Y90.466 E.0065
;WIDTH:0.741861
G1 X122.853 Y90.508 E.0038
M204 S1000
G1 X123.196 Y91.007 F10800
M204 S800
;TYPE:External perimeter
;WIDTH:0.649999
G1 F1130
G1 X123.099 Y91.229 E.01223
G1 X123.104 Y118.824 E1.39296
G1 X123.188 Y118.986 E.00921
M73 P6 R9
M73 Q6 S9
G1 X123.403 Y119.075 E.01175
G1 X129.251 Y119.075 E.2952
G1 X129.251 Y121.425 E.11863
G1 X120.749 Y121.425 E.42917
G1 X120.749 Y89.34 E1.61961
G1 X121.771 Y88.575 E.06444
G1 X129.251 Y88.575 E.37758
G1 X129.251 Y90.925 E.11863
G1 X123.403 Y90.925 E.2952
G1 X123.28 Y90.974 E.00668
M204 S1000
G1 X122.963 Y90.942 F10800
; stop printing object Left_Side_Bracket_rev0 id:0 copy 0
M106 S255
;LAYER_CHANGE
;Z:0.8
;HEIGHT:0.2
;BEFORE_LAYER_CHANGE
G92 E0.0
;0.8


;WIPE_START
G1 F8640
G1 X123.099 Y91.229 E-.07221
G1 X123.1 Y94.381 E-.72779
;WIPE_END
G1 Z1 F720
;AFTER_LAYER_CHANGE
;0.8
; printing object Left_Side_Bracket_rev0 id:0 copy 0
G1 X122.784 Y90.566 F10800
G1 Z.8 F720
G1 E.8 F1500
M204 S800
;TYPE:Perimeter
;WIDTH:0.69593
G1 F1130
G1 X122.743 Y90.601 E.00293
;WIDTH:0.694063
G1 X122.679 Y90.705 E.00661
;WIDTH:0.738127
G1 X122.616 Y90.81 E.00708
;WIDTH:0.78219
G1 X122.552 Y90.915 E.00756
;WIDTH:0.826254
G1 X122.488 Y91.019 E.00795
;WIDTH:0.870318
G1 X122.424 Y91.124 E.00846
;WIDTH:0.914381
G1 X122.36 Y91.229 E.00891
G1 X122.36 Y118.771 E1.99576
;WIDTH:0.925584
G1 X122.37 Y118.953 E.01338
G1 X122.435 Y119.03 E.0074
;WIDTH:0.879654
G1 X122.5 Y119.107 E.00701
;WIDTH:0.833723
G1 X122.565 Y119.184 E.00663
;WIDTH:0.787792
G1 X122.629 Y119.261 E.0062
;WIDTH:0.741861
G1 X122.694 Y119.338 E.00586
;WIDTH:0.69593
G1 X122.759 Y119.415 E.00547
;WIDTH:0.694063
G1 X122.866 Y119.482 E.00684
;WIDTH:0.738127
G1 X122.974 Y119.548 E.00732
;WIDTH:0.78219
G1 X123.081 Y119.615 E.00776
;WIDTH:0.826254
G1 X123.188 Y119.681 E.00819
;WIDTH:0.870318
G1 X123.296 Y119.748 E.00874
;WIDTH:0.914381
G1 X123.403 Y119.814 E.00911
G1 X128.511 Y119.814 E.37014
G1 X128.511 Y120.25 E.03159
M73 P7 R9
M73 Q7 S9
G1 X128.511 Y120.686 E.03159
G1 X123.403 Y120.686 E.37014
G1 X123.301 Y120.708 E.00756
;WIDTH:0.870318
G1 X123.199 Y120.73 E.00718
;WIDTH:0.826254
G1 X123.097 Y120.752 E.0068
;WIDTH:0.78219
G1 X122.995 Y120.774 E.00641
;WIDTH:0.738127
G1 X122.893 Y120.796 E.00603
;WIDTH:0.694063
G1 X122.791 Y120.818 E.00565
;WIDTH:0.649999
G1 X121.356 Y120.818 E.07244
G1 X121.356 Y119.996 E.04149
;WIDTH:0.68692
G1 X121.375 Y119.792 E.01097
;WIDTH:0.723841
G1 X121.393 Y119.588 E.0116
;WIDTH:0.760761
G1 X121.412 Y119.384 E.01223
;WIDTH:0.801967
G1 X121.432 Y119.295 E.00576
;WIDTH:0.843173
G1 X121.453 Y119.206 E.00608
;WIDTH:0.884379
G1 X121.474 Y119.118 E.00633
;WIDTH:0.925584
G1 X121.494 Y119.029 E.00669
G1 X121.489 Y118.771 E.01894
;WIDTH:0.914381
G1 X121.489 Y91.229 E1.99576
G1 X121.467 Y91.031 E.01444
;WIDTH:0.870318
G1 X121.445 Y90.834 E.01364
;WIDTH:0.826254
G1 X121.423 Y90.637 E.01291
;WIDTH:0.78219
G1 X121.401 Y90.44 E.01218
;WIDTH:0.738127
G1 X121.379 Y90.243 E.01146
;WIDTH:0.694063
G1 X121.356 Y90.046 E.01074
;WIDTH:0.649999
G1 X121.356 Y89.644 E.02029
G1 X121.973 Y89.182 E.03891
G1 X122.238 Y89.182 E.01338
;WIDTH:0.69593
G1 X122.39 Y89.205 E.00835
;WIDTH:0.741861
G1 X122.541 Y89.228 E.00888
;WIDTH:0.787792
G1 X122.692 Y89.251 E.00946
;WIDTH:0.833723
G1 X122.843 Y89.274 E.01004
;WIDTH:0.879654
G1 X122.994 Y89.297 E.01063
;WIDTH:0.925584
G1 X123.146 Y89.32 E.01128
G1 X123.403 Y89.314 E.01887
;WIDTH:0.914381
G1 X128.511 Y89.314 E.37014
G1 X128.511 Y90.186 E.06319
G1 X123.403 Y90.186 E.37014
;WIDTH:0.925584
G1 X123.222 Y90.196 E.0133
G1 X123.142 Y90.263 E.00766
;WIDTH:0.879654
G1 X123.062 Y90.331 E.00731
;WIDTH:0.833723
G1 X122.983 Y90.398 E.00681
;WIDTH:0.787792
G1 X122.903 Y90.466 E.0065
;WIDTH:0.741861
G1 X122.853 Y90.508 E.0038
M204 S1000
G1 X123.196 Y91.007 F10800
M204 S800
;TYPE:External perimeter
;WIDTH:0.649999
G1 F1130
G1 X123.099 Y91.229 E.01223
G1 X123.104 Y118.824 E1.39296
G1 X123.188 Y118.986 E.00921
G1 X123.403 Y119.075 E.01175
G1 X129.251 Y119.075 E.2952
G1 X129.251 Y121.425 E.11863
G1 X120.749 Y121.425 E.42917
G1 X120.749 Y89.34 E1.61961
G1 X121.771 Y88.575 E.06444
M73 P8 R9
M73 Q8 S9
G1 X129.251 Y88.575 E.37758
G1 X129.251 Y90.925 E.11863
G1 X123.403 Y90.925 E.2952
G1 X123.28 Y90.974 E.00668
M204 S1000
G1 X122.963 Y90.942 F10800
