; generated by PrusaSlicer 2.6.0+win64 on 2023-09-06 at 16:45:33 UTC


;
;
; 

; external perimeters extrusion width = 0.65mm
; perimeters extrusion width = 0.65mm
; infill extrusion width = 0.65mm
; solid infill extrusion width = 0.65mm
; top infill extrusion width = 0.60mm
; support material extrusion width = 0.55mm
; first layer extrusion width = 0.65mm

M73 P0 R49
M73 Q0 S50
M201 X1000 Y1000 Z200 E5000 ; sets maximum accelerations, mm/sec^2
M203 X200 Y200 Z12 E120 ; sets maximum feedrates, mm / sec
M204 S1250 T1250 ; sets acceleration (S) and retract acceleration (R), mm/sec^2
M205 X8.00 Y8.00 Z0.40 E4.50 ; sets the jerk limits, mm/sec
M205 S0 T0 ; sets the minimum extruding and travel feed rate, mm/sec
;TYPE:Custom
M862.3 P "MK3S" ; printer model check
M862.1 P0.6 ; nozzle diameter check
M115 U3.12.2 ; tell printer latest fw version
G90 ; use absolute coordinates
M83 ; extruder relative mode
M104 S240 ; set extruder temp
M140 S85 ; set bed temp
M190 S85 ; wait for bed temp
M109 S240 ; wait for extruder temp
G28 W ; home all without mesh bed level
G80 ; mesh bed leveling

G1 Z0.2 F720
G1 Y-3 F1000 ; go outside print area
G92 E0
G1 X60 E9 F1000 ; intro line
G1 X100 E12.5 F1000 ; intro line

G92 E0
M221 S95
G21 ; set units to millimeters
G90 ; use absolute coordinates
M83 ; use relative distances for extrusion
M900 K0.04 ; Filament gcode LA 1.5
M900 K24 ; Filament gcode LA 1.0
M107
;LAYER_CHANGE
;Z:0.2
;HEIGHT:0.2
;BEFORE_LAYER_CHANGE
G92 E0.0
;0.2


G1 E-1 F2100
G1 Z.2 F720
;AFTER_LAYER_CHANGE
;0.2
G1 Z.4
G1 X91.597 Y91.597 F10800
G1 Z.2 F720
G1 E1 F1500
M204 S800
;TYPE:Skirt/Brim
;WIDTH:0.65
G1 F1200
G1 X92.897 Y90.296 E.09284
G1 X93.575 Y89.808 E.04217
G1 X103.517 Y84.837 E.5611
G1 X104.683 Y84.561 E.06048
G1 X130.403 Y84.561 E1.29832
G1 X131.43 Y84.772 E.05292
G1 X166.229 Y99.686 E1.91114
G1 X167.045 Y100.239 E.04976
G1 X169.531 Y102.724 E.17743
G1 X170.295 Y104.568 E.10076
G1 X170.295 Y120.346 E.79646
G1 X169.531 Y122.189 E.10071
G1 X167.045 Y124.675 E.17747
G1 X165.202 Y125.439 E.10071
G1 X149.328 Y125.437 E.8013
G1 X82.216 Y122.951 E3.39006
G1 X80.856 Y122.508 E.0722
G1 X79.934 Y121.414 E.07222
G1 X79.705 Y120.346 E.05514
G1 X79.705 Y107.054 E.67097
G1 X79.981 Y105.888 E.06048
G1 X82.466 Y100.916 E.28058
G1 X82.955 Y100.239 E.04216
G1 X91.533 Y91.66 E.6124
M204 S1000
; printing object Left_Gripper_rev2-1 id:0 copy 0
;WIPE_START
G1 F8640
G1 X92.897 Y90.296 E-.44541
G1 X93.575 Y89.808 E-.19289
G1 X94.976 Y89.107 E-.3617
;WIPE_END
G1 Z.4 F720
G1 X130.403 Y89.654 F10800
G1 Z.2 F720
G1 E1 F1500
M204 S800
;TYPE:Support material
G1 F1200
G1 X134.889 Y89.654 E.22645
G1 X134.889 Y91.934 E.11509
G1 X135.094 Y92.004 E.01093
G1 X131.889 Y92.004 E.16178
G1 X131.889 Y96.975 E.25093
G1 X129.403 Y96.975 E.12549
M73 Q0 S49
G1 X129.403 Y100.597 E.18283
G1 X132.929 Y100.597 E.17799
G1 X133.422 Y100.927 E.02995
G1 X134.641 Y101.815 E.07613
G1 X136.071 Y102.996 E.09362
G1 X152.884 Y117.86 E1.13282
G1 X153.862 Y118.579 E.06127
G1 X154.932 Y119.109 E.06028
G1 X156.007 Y119.434 E.05669
G1 X157.192 Y119.584 E.06029
G1 X158.458 Y119.519 E.06399
G1 X159.553 Y119.27 E.05669
G1 X160.658 Y118.815 E.06032
G1 X161.726 Y118.133 E.06397
G1 X162.555 Y117.376 E.05667
G1 X163.291 Y116.434 E.06034
G1 X163.882 Y115.313 E.06397
G1 X164.229 Y114.245 E.05669
G1 X164.403 Y113.063 E.06031
G1 X164.364 Y111.796 E.06399
G1 X164.116 Y110.627 E.06032
G1 X163.672 Y109.518 E.0603
G1 X163.044 Y108.501 E.06034
G1 X162.251 Y107.607 E.06032
G1 X161.351 Y106.885 E.05824
G1 X157.777 Y104.582 E.21462
G1 X152.426 Y101.489 E.31199
G1 X150.792 Y100.665 E.09238
G1 X151.079 Y99.597 E.05582
G1 X157.745 Y99.597 E.33649
G1 X157.745 Y102.082 E.12544
G1 X165.202 Y102.082 E.37642
G1 X165.202 Y104.568 E.12549
G1 X167.688 Y104.568 E.12549
G1 X167.688 Y120.346 E.79646
G1 X165.202 Y120.346 E.12549
G1 X165.202 Y122.831 E.12544
G1 X149.424 Y122.831 E.79646
G1 X149.424 Y120.346 E.12544
G1 X144.453 Y120.346 E.25093
G1 X144.453 Y117.86 E.12549
G1 X141.967 Y117.86 E.12549
G1 X141.967 Y115.375 E.12544
G1 X136.996 Y115.375 E.25093
G1 X136.996 Y112.889 E.12549
G1 X134.51 Y112.889 E.12549
G1 X134.51 Y110.403 E.12549
G1 X132.025 Y110.403 E.12544
G1 X132.025 Y107.918 E.12544
G1 X129.539 Y107.918 E.12549
G1 X129.539 Y105.432 E.12549
G1 X124.568 Y105.432 E.25093
G1 X124.568 Y102.946 E.12549
G1 X110.518 Y102.946 E.70923
G1 X110.518 Y105.432 E.12549
G1 X105.547 Y105.432 E.25093
M73 P1 R49
M73 Q1 S49
G1 X105.547 Y107.918 E.12549
G1 X103.062 Y107.918 E.12544
G1 X103.062 Y110.403 E.12544
G1 X100.576 Y110.403 E.12549
G1 X100.576 Y115.375 E.25098
G1 X95.605 Y115.375 E.25093
G1 X95.605 Y120.346 E.25093
G1 X82.312 Y120.346 E.67102
G1 X82.312 Y107.054 E.67097
G1 X84.798 Y107.054 E.12549
G1 X84.798 Y102.082 E.25098
G1 X87.284 Y102.082 E.12549
G1 X87.284 Y99.597 E.12544
G1 X89.769 Y99.597 E.12544
G1 X89.769 Y97.111 E.12549
G1 X92.255 Y97.111 E.12549
G1 X92.255 Y94.625 E.12549
G1 X94.74 Y94.625 E.12544
G1 X94.74 Y92.14 E.12544
G1 X99.712 Y92.14 E.25098
G1 X99.712 Y89.654 E.12549
G1 X104.683 Y89.654 E.25093
G1 X104.683 Y87.169 E.12544
G1 X130.403 Y87.169 E1.29832
G1 X130.403 Y89.563 E.12085
M204 S1000
;WIPE_START
G1 F8640
G1 X130.403 Y87.169 E-.55278
G1 X128.466 Y87.169 E-.44722
;WIPE_END
G1 Z.4 F720
G1 X166.821 Y120.073 F10800
G1 Z.2 F720
G1 E1 F1500
M204 S800
G1 F1200
G1 X166.821 Y105.114 E.75511
G1 X166.146 Y105.114 E.03407
G1 X166.146 Y119.799 E.74128
G1 X165.472 Y119.799 E.03402
G1 X165.472 Y105.114 E.74128
G1 X164.797 Y105.114 E.03407
G1 X164.797 Y119.799 E.74128
G1 X164.656 Y119.799 E.00712
G1 X164.656 Y122.285 E.12549
G1 X164.123 Y122.285 E.02691
G1 X164.123 Y116.042 E.31514
G1 X163.802 Y116.649 E.03466
G1 X163.448 Y117.124 E.0299
G1 X163.448 Y122.285 E.26052
G1 X162.774 Y122.285 E.03402
G1 X162.774 Y117.916 E.22054
G1 X162.099 Y118.532 E.04613
G1 X162.099 Y122.285 E.18945
G1 X161.425 Y122.285 E.03402
G1 X161.425 Y118.981 E.16678
G1 X160.997 Y119.255 E.02565
G1 X160.75 Y119.369 E.01373
G1 X160.75 Y122.285 E.1472
G1 X160.076 Y122.285 E.03402
G1 X160.076 Y119.651 E.13296
G1 X159.697 Y119.798 E.02052
G1 X159.401 Y119.865 E.01532
G1 X159.401 Y122.285 E.12216
G1 X158.727 Y122.285 E.03402
G1 X158.727 Y120.019 E.11439
G1 X158.438 Y120.074 E.01485
G1 X158.052 Y120.094 E.01951
G1 X158.052 Y122.285 E.1106
G1 X157.378 Y122.285 E.03402
G1 X157.378 Y120.128 E.10888
G1 X157.15 Y120.13 E.01151
M73 P1 R48
G1 X156.703 Y120.075 E.02273
G1 X156.703 Y122.285 E.11156
G1 X156.028 Y122.285 E.03407
G1 X156.028 Y119.993 E.1157
G1 X155.871 Y119.964 E.00806
G1 X155.354 Y119.808 E.02726
G1 X155.354 Y122.285 E.12504
G1 X154.679 Y122.285 E.03407
G1 X154.679 Y119.597 E.13569
G1 X154.005 Y119.262 E.03799
G1 X154.005 Y122.285 E.1526
G1 X153.33 Y122.285 E.03407
G1 X153.33 Y118.873 E.17223
G1 X152.656 Y118.373 E.04236
G1 X152.656 Y122.285 E.19747
G1 X151.981 Y122.285 E.03407
G1 X151.981 Y117.791 E.22685
G1 X151.307 Y117.195 E.04542
G1 X151.307 Y122.285 E.25694
G1 X150.632 Y122.285 E.03407
G1 X150.632 Y116.598 E.28707
G1 X149.958 Y116.002 E.04542
G1 X149.958 Y119.799 E.19167
G1 X149.283 Y119.799 E.03407
G1 X149.283 Y115.406 E.22175
G1 X148.609 Y114.809 E.04545
G1 X148.609 Y119.799 E.25189
G1 X147.934 Y119.799 E.03407
G1 X147.934 Y114.213 E.28197
G1 X147.26 Y113.617 E.04542
G1 X147.26 Y119.799 E.31206
G1 X146.585 Y119.799 E.03407
G1 X146.585 Y113.02 E.3422
G1 X145.91 Y112.424 E.04545
G1 X145.91 Y119.799 E.37228
G1 X145.236 Y119.799 E.03402
G1 X145.236 Y111.828 E.40237
G1 X144.561 Y111.231 E.04549
G1 X144.561 Y117.314 E.30706
G1 X143.887 Y117.314 E.03402
G1 X143.887 Y110.635 E.33715
G1 X143.212 Y110.039 E.04545
G1 X143.212 Y117.314 E.36723
G1 X142.538 Y117.314 E.03402
G1 X142.538 Y109.442 E.39737
G1 X141.863 Y108.846 E.04545
G1 X141.863 Y114.828 E.30196
G1 X141.189 Y114.828 E.03402
G1 X141.189 Y108.25 E.33205
G1 X140.514 Y107.653 E.04549
G1 X140.514 Y114.828 E.36219
G1 X139.84 Y114.828 E.03402
G1 X139.84 Y107.057 E.39227
G1 X139.165 Y106.461 E.04545
G1 X139.165 Y114.828 E.42236
G1 X138.491 Y114.828 E.03402
G1 X138.491 Y105.864 E.45249
G1 X137.816 Y105.268 E.04545
G1 X137.816 Y114.828 E.48258
G1 X137.542 Y114.828 E.01383
G1 X137.542 Y112.343 E.12544
G1 X137.142 Y112.343 E.02019
G1 X137.142 Y104.672 E.38722
G1 X136.467 Y104.075 E.04549
G1 X136.467 Y112.343 E.41736
G1 X135.793 Y112.343 E.03402
G1 X135.793 Y103.479 E.44744
G1 X135.118 Y102.917 E.04434
G1 X135.118 Y112.343 E.47581
G1 X135.057 Y112.343 E.00308
G1 X135.057 Y109.857 E.12549
G1 X134.443 Y109.857 E.03099
G1 X134.443 Y102.36 E.37844
G1 X133.769 Y101.856 E.04248
G1 X133.769 Y109.857 E.40388
G1 X133.094 Y109.857 E.03407
G1 X133.094 Y101.365 E.42867
G1 X132.765 Y101.143 E.02003
G1 X132.42 Y101.143 E.01742
G1 X132.42 Y107.371 E.31438
G1 X131.745 Y107.371 E.03407
G1 X131.745 Y101.143 E.31438
G1 X131.071 Y101.143 E.03402
G1 X131.071 Y107.371 E.31438
G1 X130.396 Y107.371 E.03407
G1 X130.396 Y101.143 E.31438
G1 X129.722 Y101.143 E.03402
G1 X129.722 Y104.886 E.18894
G1 X129.047 Y104.886 E.03407
G1 X129.047 Y87.715 E.86677
G1 X129.722 Y87.715 E.03407
G1 X129.722 Y96.429 E.43987
G1 X130.396 Y96.429 E.03402
G1 X130.396 Y90.201 E.31438
G1 X131.071 Y90.201 E.03407
M73 P2 R48
G1 X131.071 Y96.429 E.31438
G1 X131.343 Y96.429 E.01373
M73 Q2 S49
G1 X131.343 Y91.458 E.25093
G1 X131.745 Y91.458 E.02029
G1 X131.745 Y90.201 E.06345
G1 X132.42 Y90.201 E.03407
G1 X132.42 Y91.458 E.06345
G1 X133.094 Y91.458 E.03402
G1 X133.094 Y90.201 E.06345
G1 X133.769 Y90.201 E.03407
G1 X133.769 Y91.731 E.07723
M204 S1000
;WIPE_START
G1 F8640
G1 X133.769 Y90.201 E-.35328
G1 X133.094 Y90.201 E-.15586
G1 X133.094 Y91.458 E-.29024
G1 X132.42 Y91.458 E-.15563
G1 X132.42 Y91.263 E-.04499
;WIPE_END
G1 Z.4 F720
G1 X164.123 Y109.9 F10800
G1 Z.2 F720
G1 E1 F1500
M204 S800
G1 F1200
G1 X164.123 Y102.629 E.36703
G1 X163.448 Y102.629 E.03407
G1 X163.448 Y108.133 E.27784
G1 X162.774 Y107.365 E.05158
G1 X162.774 Y102.629 E.23907
G1 X162.099 Y102.629 E.03407
G1 X162.099 Y106.783 E.20969
G1 X161.719 Y106.477 E.02463
G1 X161.425 Y106.282 E.01781
G1 X161.425 Y102.629 E.1844
G1 X160.75 Y102.629 E.03407
G1 X160.75 Y105.848 E.16249
G1 X160.076 Y105.413 E.04049
G1 X160.076 Y102.629 E.14053
G1 X159.401 Y102.629 E.03407
G1 X159.401 Y104.978 E.11857
G1 X158.727 Y104.543 E.04049
G1 X158.727 Y102.629 E.09662
G1 X158.052 Y102.629 E.03407
G1 X158.052 Y104.11 E.07476
G1 X157.378 Y103.72 E.03931
G1 X157.378 Y102.629 E.05507
G1 X157.199 Y102.629 E.00904
G1 X157.199 Y100.143 E.12549
G1 X156.703 Y100.143 E.02504
G1 X156.703 Y103.33 E.16088
G1 X156.028 Y102.94 E.03935
G1 X156.028 Y100.143 E.14119
G1 X155.354 Y100.143 E.03402
G1 X155.354 Y102.55 E.1215
G1 X154.679 Y102.16 E.03935
G1 X154.679 Y100.143 E.10182
G1 X154.005 Y100.143 E.03402
G1 X154.005 Y101.77 E.08213
G1 X153.33 Y101.38 E.03935
G1 X153.33 Y100.143 E.06244
G1 X152.656 Y100.143 E.03402
G1 X152.656 Y100.992 E.04286
G1 X151.981 Y100.652 E.03815
G1 X151.981 Y99.87 E.03947
M204 S1000
;WIPE_START
G1 F8640
G1 X151.981 Y100.652 E-.18057
G1 X152.656 Y100.992 E-.17451
G1 X152.656 Y100.143 E-.19604
G1 X153.33 Y100.143 E-.15563
G1 X153.33 Y101.38 E-.28563
G1 X153.359 Y101.397 E-.00762
;WIPE_END
G1 Z.4 F720
G1 X128.373 Y105.159 F10800
G1 Z.2 F720
G1 E1 F1500
M204 S800
G1 F1200
G1 X128.373 Y87.715 E.88055
G1 X127.698 Y87.715 E.03407
G1 X127.698 Y104.886 E.86677
G1 X127.024 Y104.886 E.03402
G1 X127.024 Y87.715 E.86677
G1 X126.349 Y87.715 E.03407
G1 X126.349 Y104.886 E.86677
G1 X125.675 Y104.886 E.03402
G1 X125.675 Y87.715 E.86677
G1 X125 Y87.715 E.03407
G1 X125 Y102.4 E.74128
G1 X124.325 Y102.4 E.03407
G1 X124.325 Y87.715 E.74128
G1 X123.651 Y87.715 E.03402
G1 X123.651 Y102.4 E.74128
G1 X122.976 Y102.4 E.03407
G1 X122.976 Y87.715 E.74128
G1 X122.302 Y87.715 E.03402
G1 X122.302 Y102.4 E.74128
G1 X121.627 Y102.4 E.03407
G1 X121.627 Y87.715 E.74128
G1 X120.953 Y87.715 E.03402
G1 X120.953 Y102.4 E.74128
G1 X120.278 Y102.4 E.03407
G1 X120.278 Y87.715 E.74128
G1 X119.604 Y87.715 E.03402
G1 X119.604 Y102.4 E.74128
G1 X118.929 Y102.4 E.03407
G1 X118.929 Y87.715 E.74128
G1 X118.255 Y87.715 E.03402
G1 X118.255 Y102.4 E.74128
G1 X117.58 Y102.4 E.03407
G1 X117.58 Y87.715 E.74128
G1 X116.906 Y87.715 E.03402
M73 Q2 S48
G1 X116.906 Y102.4 E.74128
G1 X116.231 Y102.4 E.03407
G1 X116.231 Y87.715 E.74128
G1 X115.557 Y87.715 E.03402
G1 X115.557 Y102.4 E.74128
G1 X114.882 Y102.4 E.03407
G1 X114.882 Y87.715 E.74128
G1 X114.207 Y87.715 E.03407
G1 X114.207 Y102.4 E.74128
G1 X113.533 Y102.4 E.03402
G1 X113.533 Y87.715 E.74128
G1 X112.858 Y87.715 E.03407
G1 X112.858 Y102.4 E.74128
G1 X112.184 Y102.4 E.03402
G1 X112.184 Y87.715 E.74128
G1 X111.509 Y87.715 E.03407
G1 X111.509 Y102.4 E.74128
G1 X110.835 Y102.4 E.03402
G1 X110.835 Y87.715 E.74128
G1 X110.16 Y87.715 E.03407
G1 X110.16 Y102.4 E.74128
G1 X109.972 Y102.4 E.00949
G1 X109.972 Y104.886 E.12549
G1 X109.486 Y104.886 E.02453
G1 X109.486 Y87.715 E.86677
G1 X108.811 Y87.715 E.03407
M73 P3 R48
G1 X108.811 Y104.886 E.86677
G1 X108.137 Y104.886 E.03402
M73 Q3 S48
G1 X108.137 Y87.715 E.86677
G1 X107.462 Y87.715 E.03407
G1 X107.462 Y104.886 E.86677
G1 X106.788 Y104.886 E.03402
G1 X106.788 Y87.715 E.86677
G1 X106.113 Y87.715 E.03407
G1 X106.113 Y104.886 E.86677
G1 X105.439 Y104.886 E.03402
G1 X105.439 Y87.715 E.86677
G1 X105.229 Y87.715 E.0106
G1 X105.229 Y90.201 E.12549
G1 X104.764 Y90.201 E.02347
G1 X104.764 Y107.371 E.86672
G1 X104.09 Y107.371 E.03402
G1 X104.09 Y90.201 E.86672
G1 X103.415 Y90.201 E.03407
G1 X103.415 Y107.371 E.86672
G1 X102.74 Y107.371 E.03407
G1 X102.74 Y90.201 E.86672
G1 X102.066 Y90.201 E.03402
G1 X102.066 Y109.857 E.99221
G1 X101.391 Y109.857 E.03407
G1 X101.391 Y90.201 E.99221
G1 X100.717 Y90.201 E.03402
G1 X100.717 Y109.857 E.99221
G1 X100.042 Y109.857 E.03407
G1 X100.042 Y92.686 E.86677
G1 X99.368 Y92.686 E.03402
M73 P3 R47
G1 X99.368 Y114.828 E1.1177
G1 X98.693 Y114.828 E.03407
G1 X98.693 Y92.686 E1.1177
G1 X98.019 Y92.686 E.03402
G1 X98.019 Y114.828 E1.1177
G1 X97.344 Y114.828 E.03407
G1 X97.344 Y92.686 E1.1177
G1 X96.67 Y92.686 E.03402
G1 X96.67 Y114.828 E1.1177
G1 X95.995 Y114.828 E.03407
G1 X95.995 Y92.686 E1.1177
G1 X95.321 Y92.686 E.03402
G1 X95.321 Y114.828 E1.1177
G1 X95.058 Y114.828 E.01328
G1 X95.058 Y119.799 E.25093
G1 X94.646 Y119.799 E.0208
G1 X94.646 Y95.172 E1.24314
G1 X93.972 Y95.172 E.03402
G1 X93.972 Y119.799 E1.24314
G1 X93.297 Y119.799 E.03407
G1 X93.297 Y95.172 E1.24314
G1 X92.801 Y95.172 E.02504
G1 X92.801 Y97.657 E.12544
G1 X92.622 Y97.657 E.00904
G1 X92.622 Y119.799 E1.1177
G1 X91.948 Y119.799 E.03402
G1 X91.948 Y97.657 E1.1177
G1 X91.273 Y97.657 E.03407
G1 X91.273 Y119.799 E1.1177
G1 X90.599 Y119.799 E.03402
G1 X90.599 Y97.657 E1.1177
G1 X90.316 Y97.657 E.01429
M73 P4 R47
G1 X90.316 Y100.143 E.12549
G1 X89.924 Y100.143 E.01979
G1 X89.924 Y119.799 E.99221
M73 Q4 S48
G1 X89.25 Y119.799 E.03402
G1 X89.25 Y100.143 E.99221
G1 X88.575 Y100.143 E.03407
G1 X88.575 Y119.799 E.99221
G1 X87.901 Y119.799 E.03402
G1 X87.901 Y100.143 E.99221
G1 X87.83 Y100.143 E.00358
G1 X87.83 Y102.629 E.12549
G1 X87.226 Y102.629 E.03049
G1 X87.226 Y119.799 E.86672
G1 X86.552 Y119.799 E.03402
G1 X86.552 Y102.629 E.86672
G1 X85.877 Y102.629 E.03407
G1 X85.877 Y119.799 E.86672
G1 X85.203 Y119.799 E.03402
G1 X85.203 Y107.6 E.61579
G1 X84.528 Y107.6 E.03407
G1 X84.528 Y119.799 E.61579
G1 X83.854 Y119.799 E.03402
G1 X83.854 Y107.6 E.61579
G1 X83.179 Y107.6 E.03407
G1 X83.179 Y120.073 E.62962
M204 S1000
;WIPE_START
G1 F8640
G1 X83.179 Y115.742 E-1
;WIPE_END
G1 Z.4 F720
G1 X130.257 Y97.543 F10800
G1 Z.2 F720
G1 E1 F1500
M204 S800
;TYPE:Support material interface
;WIDTH:0.55
G1 F1200
G1 X129.971 Y97.543 E.01206
G1 X129.971 Y100.029 E.10482
G1 X130.499 Y100.029 E.02226
G1 X130.499 Y97.543 E.10482
G1 X131.285 Y97.543 E.03314
G1 X131.285 Y100.029 E.10482
G1 X132.071 Y100.029 E.03314
G1 X132.071 Y99.734 E.01244
G1 X131.987 Y99.395 E.01473
G1 X132.071 Y99.252 E.00699
G1 X132.071 Y97.543 E.07206
G1 X132.457 Y97.543 E.01628
G1 X132.457 Y92.572 E.2096
G1 X132.613 Y92.572 E.00658
M204 S1000
;WIPE_START
G1 F8640
G1 X132.457 Y92.572 E-.03602
G1 X132.457 Y96.747 E-.96398
;WIPE_END
G1 Z.4 F720
G1 X134.97 Y92.572 F10800
G1 Z.2 F720
G1 E1 F1500
M204 S800
