; generated by PrusaSlicer 2.6.0+win64 on 2023-07-21 at 16:20:29 UTC


;
;
; 

; external perimeters extrusion width = 0.65mm
; perimeters extrusion width = 0.65mm
; infill extrusion width = 0.65mm
; solid infill extrusion width = 0.65mm
; top infill extrusion width = 0.60mm
; first layer extrusion width = 0.65mm

M73 P0 R91
M73 Q0 S93
M201 X1000 Y1000 Z200 E5000 ; sets maximum accelerations, mm/sec^2
M203 X200 Y200 Z12 E120 ; sets maximum feedrates, mm / sec
M204 S1250 T1250 ; sets acceleration (S) and retract acceleration (R), mm/sec^2
M205 X8.00 Y8.00 Z0.40 E4.50 ; sets the jerk limits, mm/sec
M205 S0 T0 ; sets the minimum extruding and travel feed rate, mm/sec
;TYPE:Custom
M862.3 P "MK3S" ; printer model check
M862.1 P0.6 ; nozzle diameter check
M115 U3.12.2 ; tell printer latest fw version
G90 ; use absolute coordinates
M83 ; extruder relative mode
M104 S240 ; set extruder temp
M140 S85 ; set bed temp
M190 S85 ; wait for bed temp
M109 S240 ; wait for extruder temp
G28 W ; home all without mesh bed level
G80 ; mesh bed leveling

G1 Z0.2 F720
G1 Y-3 F1000 ; go outside print area
G92 E0
G1 X60 E9 F1000 ; intro line
G1 X100 E12.5 F1000 ; intro line

G92 E0
M221 S95
G21 ; set units to millimeters
G90 ; use absolute coordinates
M83 ; use relative distances for extrusion
M900 K0.04 ; Filament gcode LA 1.5
M900 K24 ; Filament gcode LA 1.0
M107
;LAYER_CHANGE
;Z:0.2
;HEIGHT:0.2
;BEFORE_LAYER_CHANGE
G92 E0.0
;0.2


G1 E-1 F2100
G1 Z.2 F720
;AFTER_LAYER_CHANGE
;0.2
G1 Z.4
G1 X63.216 Y82.382 F10800
G1 Z.2 F720
G1 E1 F1500
M204 S800
;TYPE:Skirt/Brim
;WIDTH:0.65
G1 F1200
G1 X66.858 Y80.402 E.20926
G1 X70.382 Y79.22 E.18763
G1 X74.053 Y78.634 E.18765
M73 P0 R90
G1 X175.947 Y78.634 E5.14349
G1 X179.618 Y79.22 E.18765
G1 X183.142 Y80.402 E.18763
G1 X186.425 Y82.146 E.18765
G1 X189.376 Y84.406 E.18763
G1 X191.916 Y87.121 E.18768
G1 X193.976 Y90.215 E.18763
G1 X195.499 Y93.607 E.18769
G1 X196.444 Y97.202 E.18764
G1 X196.795 Y101.118 E.19847
G1 X196.795 Y128.768 E1.39574
G1 X196.403 Y130.144 E.07222
G1 X195.344 Y131.105 E.07219
G1 X194.188 Y131.375 E.05992
G1 X55.812 Y131.375 E6.98506
G1 X54.437 Y130.983 E.07217
M73 Q0 S92
G1 X53.475 Y129.924 E.07222
G1 X53.205 Y128.768 E.05992
G1 X53.205 Y101.118 E1.39574
G1 X53.485 Y97.626 E.17684
G1 X54.362 Y94.013 E.18768
G1 X56.024 Y90.215 E.20927
G1 X57.82 Y87.46 E.16601
G1 X60.286 Y84.722 E.186
G1 X63.145 Y82.438 E.18472
M204 S1000
; printing object Left_Motor_Bracket_34,8mm_rev0-1 id:0 copy 0
;WIPE_START
G1 F8640
G1 X66.858 Y80.402 E-.97778
G1 X66.949 Y80.371 E-.02222
;WIPE_END
G1 Z.4 F720
G1 X116.588 Y96.306 F10800
G1 Z.2 F720
G1 E1 F1500
M204 S800
;TYPE:Perimeter
;WIDTH:0.694846
G1 F1200
G1 X116.144 Y96.477 E.02579
;WIDTH:0.657641
G1 X115.647 Y96.903 E.03346
;WIDTH:0.649999
G1 X115.401 Y97.384 E.02727
G1 X115.336 Y97.823 E.0224
G1 X115.336 Y100.152 E.11757
G1 X113.553 Y97.064 E.18
G1 X113.048 Y96.538 E.03681
;WIDTH:0.671682
G1 X112.239 Y96.294 E.04418
G1 X113.122 Y96.283 E.04617
;WIDTH:0.649999
G1 X115.34 Y96.283 E.11196
;WIDTH:0.694846
G1 X116.498 Y96.304 E.06278
M204 S1000
;WIPE_START
G1 F8640
G1 X116.144 Y96.477 E-.09098
G1 X115.647 Y96.903 E-.15115
G1 X115.401 Y97.384 E-.12475
G1 X115.336 Y97.823 E-.10247
G1 X115.336 Y100.121 E-.53065
;WIPE_END
G1 Z.4 F720
G1 X94.968 Y96.306 F10800
G1 Z.2 F720
G1 E1 F1500
M204 S800
G1 F1200
G1 X94.742 Y96.407 E.01342
;WIDTH:0.653053
G1 X94.516 Y96.508 E.01256
;WIDTH:0.61126
G1 X94.25 Y96.701 E.01553
;WIDTH:0.598781
G1 X93.983 Y97.249 E.02818
G1 X93.644 Y95.997 E.05995
G1 X94.127 Y96.221 E.02461
;WIDTH:0.61126
G1 X94.454 Y96.264 E.01559
;WIDTH:0.653053
G1 X94.711 Y96.285 E.01308
;WIDTH:0.694846
G1 X94.879 Y96.298 E.00913
M204 S1000
;WIPE_START
G1 F8640
G1 X94.742 Y96.407 E-.04042
G1 X94.516 Y96.508 E-.05716
G1 X94.25 Y96.701 E-.07588
G1 X93.983 Y97.249 E-.14075
G1 X93.644 Y95.997 E-.2995
G1 X94.127 Y96.221 E-.12294
G1 X94.454 Y96.264 E-.07616
G1 X94.711 Y96.285 E-.05954
G1 X94.879 Y96.298 E-.03891
;WIPE_END
G1 E-.08874 F2100
G1 Z.4 F720
G1 X93.973 Y105.105 F10800
G1 Z.2 F720
G1 E1 F1500
M204 S800
;WIDTH:0.649999
G1 F1200
G1 X93.973 Y127.029 E1.1067
G1 X77.601 Y127.029 E.82644
G1 X77.601 Y119.653 E.37233
G1 X78.979 Y119.524 E.06986
G1 X79.239 Y119.477 E.01334
G1 X82.121 Y118.688 E.15083
G1 X82.368 Y118.596 E.01331
G1 X85.07 Y117.32 E.15084
G1 X85.298 Y117.187 E.01332
G1 X87.737 Y115.461 E.15083
G1 X87.938 Y115.291 E.01329
G1 X90.042 Y113.169 E.15084
G1 X90.211 Y112.966 E.01333
G1 X91.914 Y110.511 E.15082
G1 X92.045 Y110.282 E.01332
G1 X93.298 Y107.57 E.1508
G1 X93.387 Y107.321 E.01335
G1 X93.95 Y105.192 E.11116
M204 S1000
;WIPE_START
G1 F8640
G1 X93.955 Y109.523 E-1
;WIPE_END
G1 Z.4 F720
G1 X73.923 Y119.653 F10800
G1 Z.2 F720
G1 E1 F1500
M204 S800
G1 F1200
G1 X73.923 Y127.029 E.37233
G1 X57.551 Y127.029 E.82644
G1 X57.551 Y105.105 E1.1067
G1 X58.137 Y107.321 E.11571
G1 X58.227 Y107.57 E.01337
G1 X59.479 Y110.282 E.15078
G1 X59.61 Y110.511 E.01332
G1 X61.314 Y112.966 E.15085
G1 X61.483 Y113.169 E.01333
G1 X63.586 Y115.291 E.15081
G1 X63.787 Y115.461 E.01329
G1 X66.148 Y117.131 E.14598
G1 X66.455 Y117.32 E.0182
G1 X69.156 Y118.596 E.15079
G1 X69.404 Y118.688 E.01335
G1 X72.285 Y119.477 E.15078
G1 X72.545 Y119.524 E.01334
G1 X73.833 Y119.644 E.0653
M204 S1000
;WIPE_START
G1 F8640
G1 X73.886 Y123.975 E-1
;WIPE_END
G1 Z.4 F720
G1 X156.027 Y105.105 F10800
G1 Z.2 F720
G1 E1 F1500
M204 S800
G1 F1200
G1 X156.613 Y107.321 E.11571
G1 X156.702 Y107.57 E.01335
G1 X157.955 Y110.282 E.1508
G1 X158.086 Y110.511 E.01332
G1 X159.789 Y112.966 E.15082
G1 X159.958 Y113.169 E.01333
G1 X162.061 Y115.291 E.15081
G1 X162.263 Y115.461 E.01333
G1 X164.623 Y117.131 E.14594
G1 X164.93 Y117.32 E.0182
G1 X167.632 Y118.596 E.15084
G1 X167.879 Y118.688 E.01331
G1 X170.761 Y119.477 E.15083
G1 X171.021 Y119.524 E.01334
G1 X172.399 Y119.653 E.06986
G1 X172.399 Y127.029 E.37233
G1 X156.027 Y127.029 E.82644
G1 X156.027 Y105.195 E1.10215
M204 S1000
;WIPE_START
G1 F8640
G1 X156.613 Y107.321 E-.50921
G1 X156.702 Y107.57 E-.06106
G1 X157.483 Y109.259 E-.42973
;WIPE_END
G1 Z.4 F720
G1 X148.792 Y97.665 F10800
G1 Z.2 F720
G1 E1 F1500
M204 S800
G1 F1200
G1 X148.754 Y97.398 E.01361
G1 X148.511 Y96.912 E.02743
G1 X148.011 Y96.483 E.03326
;WIDTH:0.671682
G1 X147.297 Y96.294 E.03861
G1 X148.061 Y96.283 E.03995
;WIDTH:0.649999
G1 X155.546 Y96.283 E.37783
G1 X156.311 Y96.064 E.04017
G1 X155.823 Y97.956 E.09863
G1 X155.554 Y100.931 E.15079
G1 X155.553 Y101.195 E.01333
G1 X155.697 Y102.901 E.08642
G1 X155.123 Y102.434 E.03735
G1 X154.509 Y102.305 E.03167
G1 X148.814 Y102.305 E.28748
G1 X148.805 Y97.754 E.22973
M204 S1000
;WIPE_START
G1 F8640
G1 X148.754 Y97.398 E-.08304
G1 X148.511 Y96.912 E-.12546
G1 X148.011 Y96.483 E-.15212
G1 X147.297 Y96.294 E-.17054
G1 X148.061 Y96.283 E-.17643
G1 X149.327 Y96.283 E-.29241
;WIPE_END
G1 Z.4 F720
G1 X176.077 Y119.653 F10800
G1 Z.2 F720
G1 E1 F1500
M204 S800
G1 F1200
G1 X177.455 Y119.524 E.06986
G1 X177.715 Y119.477 E.01334
G1 X180.596 Y118.688 E.15078
G1 X180.844 Y118.596 E.01335
G1 X183.545 Y117.32 E.15079
G1 X183.773 Y117.187 E.01332
G1 X186.213 Y115.461 E.15087
G1 X186.414 Y115.291 E.01329
G1 X188.517 Y113.169 E.15081
G1 X188.686 Y112.966 E.01333
G1 X190.39 Y110.511 E.15085
G1 X190.521 Y110.282 E.01332
G1 X191.773 Y107.57 E.15078
G1 X191.863 Y107.321 E.01337
G1 X192.449 Y105.105 E.11571
G1 X192.449 Y127.029 E1.1067
G1 X176.077 Y127.029 E.82644
G1 X176.077 Y119.743 E.36779
M204 S1000
;WIPE_START
G1 F8640
G1 X177.455 Y119.524 E-.32218
G1 X177.715 Y119.477 E-.06101
G1 X180.291 Y118.771 E-.61681
;WIPE_END
G1 Z.4 F720
G1 X148.196 Y97.744 F10800
G1 Z.2 F720
G1 E1 F1500
M204 S800
G1 F1200
G1 X148.171 Y97.568 E.00897
G1 X148.025 Y97.276 E.01648
G1 X147.725 Y97.019 E.01994
G1 X147.297 Y96.912 E.02227
G1 X116.854 Y96.912 E1.53673
G1 X116.429 Y97.017 E.0221
G1 X116.13 Y97.271 E.0198
G1 X115.982 Y97.56 E.01639
G1 X115.943 Y97.823 E.01342
G1 X115.943 Y102.417 E.2319
G1 X113.028 Y97.367 E.29434
G1 X112.724 Y97.052 E.0221
G1 X112.239 Y96.912 E.02548
G1 X95.235 Y96.912 E.85834
G1 X95.077 Y96.926 E.00801
G1 X94.798 Y97.023 E.01491
G1 X94.634 Y97.138 E.01011
;WIDTH:0.677685
G1 X94.466 Y97.455 E.01894
;WIDTH:0.705371
G1 X94.298 Y97.771 E.01971
;WIDTH:0.7269
G1 X94.293 Y97.95 E.01018
G1 X94.533 Y100.928 E.16992
;WIDTH:0.716312
G1 X94.547 Y101.176 E.01391
;WIDTH:0.758226
G1 X94.526 Y102.172 E.05925
;WIDTH:0.800139
G1 X94.505 Y103.168 E.06273
;WIDTH:0.842052
G1 X94.484 Y104.163 E.06613
G1 X94.5 Y104.41 E.01645
;WIDTH:0.809818
G1 X94.52 Y105.156 E.04759
;WIDTH:0.769864
G1 X94.54 Y105.903 E.04517
;WIDTH:0.729909
G1 X94.56 Y106.65 E.04269
;WIDTH:0.689954
G1 X94.58 Y107.397 E.0402
;WIDTH:0.649999
G1 X94.58 Y127.636 E1.02164
G1 X76.994 Y127.636 E.88772
G1 X76.994 Y119.099 E.43094
G1 X78.923 Y118.92 E.09779
G1 X79.079 Y118.891 E.00801
G1 X81.96 Y118.102 E.15078
G1 X82.109 Y118.047 E.00802
G1 X84.81 Y116.771 E.15079
G1 X84.947 Y116.691 E.00801
G1 X87.386 Y114.966 E.1508
G1 X87.507 Y114.863 E.00802
G1 X89.611 Y112.741 E.15084
G1 X89.712 Y112.62 E.00796
G1 X91.416 Y110.165 E.15085
G1 X91.494 Y110.028 E.00796
G1 X92.747 Y107.315 E.15085
G1 X92.8 Y107.166 E.00798
;WIDTH:0.689954
G1 X93.01 Y106.449 E.0402
;WIDTH:0.729909
G1 X93.221 Y105.732 E.04269
;WIDTH:0.769864
G1 X93.431 Y105.015 E.04516
;WIDTH:0.809818
G1 X93.641 Y104.298 E.04764
;WIDTH:0.842052
G1 X93.686 Y104.129 E.01162
G1 X93.749 Y103.136 E.06612
;WIDTH:0.800139
G1 X93.812 Y102.142 E.06271
;WIDTH:0.758226
G1 X93.875 Y101.148 E.05924
;WIDTH:0.716312
G1 X93.87 Y100.983 E.00924
;WIDTH:0.7269
G1 X93.611 Y98.007 E.16989
G1 X93.571 Y97.847 E.00938
;WIDTH:0.705371
M73 P1 R90
G1 X93.404 Y97.282 E.03245
;WIDTH:0.677685
G1 X93.237 Y96.717 E.0311
;WIDTH:0.649999
G1 X93.059 Y96.058 E.03446
;WIDTH:0.695535
G1 X92.991 Y95.722 E.0186
;WIDTH:0.741071
G1 X92.924 Y95.387 E.01983
G1 X92.732 Y94.811 E.03525
;WIDTH:0.725992
G1 X91.622 Y92.412 E.15014
G1 X91.38 Y91.966 E.02882
;WIDTH:0.730867
G1 X89.972 Y89.932 E.14151
G1 X89.556 Y89.399 E.03868
;WIDTH:0.734962
M73 Q1 S92
G1 X87.939 Y87.756 E.13265
G1 X87.315 Y87.187 E.04859
;WIDTH:0.712854
G1 X86.447 Y86.565 E.05948
;WIDTH:0.738292
G1 X85.578 Y85.943 E.06179
G1 X85.152 Y85.67 E.02926
;WIDTH:0.711632
G1 X84.725 Y85.397 E.02818
;WIDTH:0.712908
G1 X83.839 Y84.969 E.05482
;WIDTH:0.740845
G1 X82.952 Y84.541 E.05715
G1 X82.485 Y84.339 E.02953
;WIDTH:0.713222
G1 X82.017 Y84.136 E.02843
;WIDTH:0.685598
G1 X81.864 Y84.082 E.00867
;WIDTH:0.71296
G1 X80.999 Y83.835 E.05012
;WIDTH:0.742627
G1 X80.134 Y83.588 E.05234
G1 X79.556 Y83.449 E.03459
;WIDTH:0.71316
G1 X78.978 Y83.31 E.03313
;WIDTH:0.683692
G1 X78.819 Y83.283 E.00859
;WIDTH:0.713012
G1 X78.008 Y83.196 E.04545
;WIDTH:0.743639
G1 X77.197 Y83.11 E.04752
G1 X76.52 Y83.066 E.03953
;WIDTH:0.713104
G1 X75.843 Y83.023 E.0378
;WIDTH:0.682569
G1 X75.682 Y83.023 E.00856
;WIDTH:0.713069
G1 X74.952 Y83.071 E.04077
;WIDTH:0.743882
G1 X74.222 Y83.119 E.04264
G1 X73.464 Y83.201 E.04444
;WIDTH:0.71305
G1 X72.705 Y83.283 E.04254
;WIDTH:0.682902
G1 X72.546 Y83.31 E.00858
;WIDTH:0.713132
G1 X71.918 Y83.463 E.03602
;WIDTH:0.743361
G1 X71.289 Y83.615 E.03769
G1 X70.474 Y83.849 E.04938
;WIDTH:0.713007
G1 X69.66 Y84.082 E.04718
;WIDTH:0.684331
G1 X69.508 Y84.137 E.00862
;WIDTH:0.713197
G1 X68.992 Y84.361 E.03135
;WIDTH:0.742063
G1 X68.476 Y84.585 E.0327
G1 X67.638 Y84.991 E.05413
;WIDTH:0.712946
G1 X66.799 Y85.397 E.05193
;WIDTH:0.686508
G1 X66.659 Y85.477 E.00863
;WIDTH:0.713222
G1 X66.259 Y85.739 E.02665
;WIDTH:0.739936
G1 X65.86 Y86.002 E.0277
G1 X65.035 Y86.595 E.05888
;WIDTH:0.71242
G1 X64.21 Y87.188 E.05656
;WIDTH:0.688498
G1 X64.085 Y87.291 E.00869
;WIDTH:0.736778
G1 X63.499 Y87.841 E.04637
G1 X61.969 Y89.4 E.12602
;WIDTH:0.693451
G1 X61.861 Y89.525 E.00894
;WIDTH:0.734332
G1 X61.492 Y90.017 E.03536
G1 X60.123 Y92.011 E.13905
;WIDTH:0.695232
G1 X60.106 Y92.036 E.00164
;WIDTH:0.729113
G1 X59.856 Y92.507 E.03042
G1 X58.794 Y94.812 E.1448
;WIDTH:0.723963
G1 X58.651 Y95.232 E.02512
G1 X57.955 Y97.848 E.15329
;WIDTH:0.718036
G1 X57.908 Y98.119 E.01544
G1 X57.655 Y100.983 E.1614
;WIDTH:0.716437
G1 X57.65 Y101.152 E.00947
;WIDTH:0.7583
G1 X57.713 Y102.145 E.05919
;WIDTH:0.800162
G1 X57.775 Y103.137 E.06258
;WIDTH:0.842024
G1 X57.838 Y104.129 E.06605
G1 X57.883 Y104.298 E.01162
;WIDTH:0.809791
G1 X58.094 Y105.015 E.04766
;WIDTH:0.769843
G1 X58.304 Y105.732 E.04516
;WIDTH:0.729895
G1 X58.514 Y106.449 E.04268
;WIDTH:0.689947
G1 X58.724 Y107.166 E.0402
;WIDTH:0.649999
G1 X58.778 Y107.315 E.008
G1 X60.03 Y110.028 E.15083
G1 X60.109 Y110.165 E.00798
G1 X61.812 Y112.62 E.15082
G1 X61.914 Y112.741 E.00799
G1 X64.017 Y114.863 E.15081
G1 X64.138 Y114.966 E.00802
G1 X66.498 Y116.635 E.14591
G1 X66.714 Y116.771 E.01288
G1 X69.415 Y118.047 E.15079
G1 X69.564 Y118.102 E.00802
G1 X72.446 Y118.891 E.15083
G1 X72.602 Y118.92 E.00801
G1 X74.53 Y119.099 E.09774
G1 X74.53 Y127.636 E.43094
G1 X56.944 Y127.636 E.88772
G1 X56.944 Y107.397 E1.02164
;WIDTH:0.689947
G1 X56.964 Y106.65 E.0402
;WIDTH:0.729895
G1 X56.984 Y105.903 E.04269
;WIDTH:0.769843
G1 X57.004 Y105.157 E.04511
;WIDTH:0.809791
G1 X57.024 Y104.41 E.04765
;WIDTH:0.842024
G1 X57.04 Y104.163 E.01645
G1 X57.019 Y103.169 E.06606
;WIDTH:0.800162
G1 X56.998 Y102.175 E.0626
;WIDTH:0.7583
G1 X56.978 Y101.18 E.0592
;WIDTH:0.716437
G1 X56.993 Y100.926 E.01425
;WIDTH:0.718036
G1 X57.235 Y98.061 E.1614
G1 X57.318 Y97.681 E.02183
;WIDTH:0.723963
G1 X57.992 Y95.06 E.15325
G1 X58.198 Y94.542 E.03157
;WIDTH:0.729113
G1 X59.231 Y92.224 E.1448
G1 X59.582 Y91.646 E.03858
;WIDTH:0.734332
G1 X60.919 Y89.63 E.13907
G1 X61.503 Y88.953 E.0514
;WIDTH:0.736778
G1 X62.998 Y87.36 E.12604
G1 X63.434 Y86.997 E.03273
;WIDTH:0.710841
G1 X63.828 Y86.672 E.02837
;WIDTH:0.71242
G1 X64.637 Y86.057 E.05657
;WIDTH:0.739936
G1 X65.446 Y85.442 E.0589
G1 X66.003 Y85.118 E.03735
;WIDTH:0.711883
G1 X66.511 Y84.825 E.03262
;WIDTH:0.712946
G1 X67.336 Y84.393 E.05188
;WIDTH:0.742063
G1 X68.162 Y83.961 E.05419
G1 X68.741 Y83.74 E.03603
;WIDTH:0.713197
G1 X69.268 Y83.543 E.03136
;WIDTH:0.684331
G1 X69.473 Y83.471 E.01159
;WIDTH:0.713007
G1 X70.278 Y83.209 E.04717
;WIDTH:0.743361
G1 X71.084 Y82.946 E.04938
G1 X71.775 Y82.809 E.04103
;WIDTH:0.713132
G1 X72.41 Y82.686 E.03605
;WIDTH:0.682902
G1 X72.624 Y82.649 E.01156
;WIDTH:0.71305
G1 X73.379 Y82.537 E.04253
;WIDTH:0.743882
G1 X74.133 Y82.425 E.04443
G1 X74.922 Y82.402 E.04601
;WIDTH:0.713069
G1 X75.653 Y82.385 E.04074
;WIDTH:0.682569
G1 X75.87 Y82.384 E.01154
;WIDTH:0.713104
G1 X76.548 Y82.398 E.03779
;WIDTH:0.743639
G1 X77.284 Y82.415 E.04289
G1 X78.091 Y82.532 E.04751
;WIDTH:0.713012
G1 X78.899 Y82.649 E.04549
;WIDTH:0.683692
G1 X79.113 Y82.684 E.01155
;WIDTH:0.71316
G1 X79.697 Y82.795 E.03313
;WIDTH:0.742627
G1 X80.336 Y82.919 E.03787
G1 X81.193 Y83.194 E.05237
;WIDTH:0.71296
G1 X82.05 Y83.47 E.05016
;WIDTH:0.685598
G1 X82.255 Y83.54 E.01158
;WIDTH:0.713222
G1 X82.734 Y83.717 E.02846
;WIDTH:0.740845
G1 X83.265 Y83.917 E.03293
G1 X84.139 Y84.37 E.05713
;WIDTH:0.712908
G1 X85.012 Y84.823 E.05479
;WIDTH:0.688278
G1 X85.203 Y84.927 E.01167
;WIDTH:0.713285
G1 X85.596 Y85.155 E.02533
;WIDTH:0.738292
G1 X85.989 Y85.382 E.02624
G1 X86.843 Y86.025 E.06181
;WIDTH:0.712854
G1 X87.697 Y86.668 E.05955
;WIDTH:0.691733
G1 X87.868 Y86.803 E.01175
;WIDTH:0.734962
G1 X88.437 Y87.275 E.04254
G1 X90.022 Y88.95 E.1327
;WIDTH:0.695977
G1 X90.169 Y89.112 E.01188
;WIDTH:0.730867
G1 X90.54 Y89.544 E.03257
G1 X91.919 Y91.6 E.14161
;WIDTH:0.69463
G1 X91.939 Y91.63 E.00195
;WIDTH:0.725992
G1 X92.243 Y92.128 E.03314
G1 X93.329 Y94.538 E.15014
;WIDTH:0.699396
G1 X93.34 Y94.562 E.00144
;WIDTH:0.741071
G1 X93.58 Y95.154 E.03708
G1 X93.741 Y95.322 E.01351
;WIDTH:0.695535
G1 X93.902 Y95.49 E.01263
;WIDTH:0.649999
G1 X94.255 Y95.654 E.01965
G1 X94.454 Y95.676 E.01011
G1 X155.546 Y95.676 E3.08385
G1 X155.99 Y95.561 E.02315
;WIDTH:0.695531
G1 X156.205 Y95.357 E.01608
;WIDTH:0.741063
G1 X156.42 Y95.154 E.01717
G1 X156.671 Y94.538 E.03861
;WIDTH:0.725989
G1 X157.757 Y92.128 E.15014
G1 X158.055 Y91.642 E.03238
;WIDTH:0.731549
M73 P1 R89
G1 X159.46 Y89.545 E.14453
G1 X159.978 Y88.95 E.04517
;WIDTH:0.734963
G1 X161.563 Y87.275 E.1327
