; generated by PrusaSlicer 2.6.0+win64 on 2023-08-01 at 18:41:31 UTC


;
;
; 

; external perimeters extrusion width = 0.45mm
; perimeters extrusion width = 0.45mm
; infill extrusion width = 0.45mm
; solid infill extrusion width = 0.45mm
; top infill extrusion width = 0.40mm
; support material extrusion width = 0.35mm
; first layer extrusion width = 0.42mm

M73 P0 R69
M73 Q0 S70
M201 X1000 Y1000 Z200 E5000 ; sets maximum accelerations, mm/sec^2
M203 X200 Y200 Z12 E120 ; sets maximum feedrates, mm / sec
M204 S1250 T1250 ; sets acceleration (S) and retract acceleration (R), mm/sec^2
M205 X8.00 Y8.00 Z0.40 E4.50 ; sets the jerk limits, mm/sec
M205 S0 T0 ; sets the minimum extruding and travel feed rate, mm/sec
;TYPE:Custom
M862.3 P "MK3S" ; printer model check
M862.1 P0.4 ; nozzle diameter check
M115 U3.12.2 ; tell printer latest fw version
G90 ; use absolute coordinates
M83 ; extruder relative mode
M104 S230 ; set extruder temp
M140 S85 ; set bed temp
M190 S85 ; wait for bed temp
M109 S230 ; wait for extruder temp
G28 W ; home all without mesh bed level
G80 ; mesh bed leveling

G1 Z0.2 F720
G1 Y-3 F1000 ; go outside print area
G92 E0
G1 X60 E9 F1000 ; intro line
G1 X100 E12.5 F1000 ; intro line

G92 E0
M221 S95

; Don't change E values below. Excessive value can damage the printer.

M907 E538 ; set extruder motor current
G21 ; set units to millimeters
G90 ; use absolute coordinates
M83 ; use relative distances for extrusion
M900 K0.08 ; Filament gcode LA 1.5
M900 K45 ; Filament gcode LA 1.0
M107
;LAYER_CHANGE
;Z:0.2
;HEIGHT:0.2
;BEFORE_LAYER_CHANGE
G92 E0.0
;0.2


G1 E-1 F2100
G1 Z.2 F720
;AFTER_LAYER_CHANGE
;0.2
G1 Z.4
G1 X99.165 Y71.061 F10800
G1 Z.2 F720
G1 E1 F2100
M204 S800
;TYPE:Skirt/Brim
;WIDTH:0.42
G1 F1200
G1 X99.611 Y70.444 E.02387
G1 X104.225 Y65.829 E.20461
G1 X105.906 Y65.133 E.05705
G1 X116.407 Y65.133 E.32925
G1 X117.714 Y65.525 E.04278
G1 X118.46 Y66.313 E.03402
G1 X150.759 Y121.683 E2.00987
G1 X151.083 Y122.88 E.03888
G1 X151.055 Y133.236 E.32471
G1 X150.823 Y134.912 E.05305
G1 X150.377 Y136.251 E.04425
G1 X149.923 Y137.152 E.03163
G1 X149.111 Y138.307 E.04427
G1 X147.803 Y139.561 E.05681
G1 X146.614 Y140.323 E.04428
G1 X141.685 Y142.482 E.16872
G1 X140.737 Y142.68 E.03037
G1 X131.284 Y142.68 E.29639
G1 X129.857 Y142.204 E.04717
G1 X111.401 Y128.362 E.72334
G1 X99.611 Y116.606 E.52204
G1 X99.165 Y115.988 E.0239
G1 X96.729 Y111.062 E.1723
G1 X94.422 Y104.141 E.22874
G1 X94.3 Y103.389 E.02389
G1 X94.3 Y83.66 E.61859
G1 X94.422 Y82.908 E.02389
G1 X96.729 Y75.987 E.22874
G1 X99.139 Y71.115 E.17043
M204 S1000
; printing object Left_Gripper_rev0 id:0 copy 0
;WIPE_START
G1 F8640
G1 X99.611 Y70.444 E-.18943
G1 X102.093 Y67.961 E-.81057
;WIPE_END
G1 Z.4 F720
G1 X116.407 Y78.011 F10800
G1 Z.2 F720
G1 E1 F2100
M204 S800
;TYPE:Support material
G1 F1200
G1 X115.11 Y78.011 E.04067
G1 X114.462 Y76.909 E.04008
G1 X113.956 Y76.874 E.0159
G1 X112.146 Y79.176 E.09182
G1 X110.712 Y81.482 E.08514
G1 X109.543 Y83.933 E.08514
G1 X108.653 Y86.498 E.08513
G1 X108.107 Y88.903 E.07733
G1 X108.025 Y88.963 E.00319
G1 X107.804 Y90.557 E.05046
G1 X107.699 Y91.853 E.04077
G1 X107.178 Y91.854 E.01634
G1 X107.178 Y92.888 E.03242
G1 X107.669 Y92.888 E.01539
G1 X107.654 Y93.602 E.02239
G1 X107.726 Y93.675 E.00321
G1 X107.902 Y96.302 E.08255
G1 X108.431 Y99.134 E.09033
G1 X109.289 Y101.885 E.09035
G1 X110.451 Y104.491 E.08946
M73 Q0 S69
G1 X111.925 Y106.967 E.09035
G1 X113.684 Y109.258 E.09056
G1 X137.912 Y137.217 E1.15998
G1 X138.678 Y137.952 E.03329
G1 X139.583 Y138.568 E.03433
G1 X140.572 Y139.018 E.03407
G1 X141.088 Y139.156 E.01675
G1 X140.737 Y140.303 E.03761
G1 X131.284 Y140.303 E.29639
G1 X131.284 Y137.995 E.07237
G1 X128.976 Y137.995 E.07237
G1 X128.976 Y135.688 E.07233
G1 X126.669 Y135.688 E.07233
G1 X126.669 Y133.381 E.07233
G1 X122.055 Y133.381 E.14467
G1 X122.055 Y131.074 E.07233
G1 X119.748 Y131.074 E.07233
M73 P0 R68
G1 X119.748 Y128.767 E.07233
G1 X117.441 Y128.767 E.07233
G1 X117.441 Y126.46 E.07233
G1 X112.827 Y126.46 E.14467
G1 X112.827 Y124.153 E.07233
G1 X110.52 Y124.153 E.07233
G1 X110.52 Y121.846 E.07233
G1 X108.213 Y121.846 E.07233
G1 X108.213 Y119.539 E.07233
G1 X105.906 Y119.539 E.07233
G1 X105.906 Y117.232 E.07233
G1 X103.599 Y117.232 E.07233
G1 X103.599 Y114.925 E.07233
G1 X101.292 Y114.925 E.07233
G1 X101.292 Y110.31 E.1447
G1 X98.984 Y110.31 E.07237
G1 X98.984 Y103.389 E.217
G1 X96.677 Y103.389 E.07233
G1 X96.677 Y83.66 E.61859
G1 X98.984 Y83.66 E.07233
G1 X98.984 Y76.739 E.217
G1 X101.292 Y76.739 E.07237
G1 X101.292 Y72.124 E.1447
G1 X103.599 Y72.124 E.07233
G1 X103.599 Y69.817 E.07233
G1 X105.906 Y69.817 E.07233
G1 X105.906 Y67.51 E.07233
G1 X116.407 Y67.51 E.32925
G1 X116.407 Y77.955 E.3275
M204 S1000
;WIPE_START
G1 F8640
G1 X116.407 Y73.624 E-1
;WIPE_END
G1 Z.4 F720
G1 X140.501 Y140.133 F10800
G1 Z.2 F720
G1 E1 F2100
M204 S800
G1 F1200
G1 X140.501 Y139.353 E.02446
G1 X140.082 Y139.169 E.01435
G1 X140.082 Y139.963 E.0249
G1 X139.663 Y139.963 E.01314
G1 X139.663 Y138.98 E.03082
G1 X139.464 Y138.89 E.00685
G1 X139.244 Y138.749 E.00819
G1 X139.244 Y139.963 E.03806
G1 X138.825 Y139.963 E.01314
G1 X138.825 Y138.465 E.04697
G1 X138.508 Y138.251 E.01199
G1 X138.406 Y138.162 E.00424
G1 X138.406 Y139.963 E.05647
G1 X137.987 Y139.963 E.01314
G1 X137.987 Y137.76 E.06907
G1 X137.568 Y137.338 E.01865
G1 X137.568 Y139.963 E.08231
G1 X137.149 Y139.963 E.01314
G1 X137.149 Y136.855 E.09745
G1 X136.73 Y136.371 E.02007
G1 X136.73 Y139.963 E.11262
G1 X136.311 Y139.963 E.01314
G1 X136.311 Y135.888 E.12777
G1 X135.892 Y135.404 E.02007
G1 X135.892 Y139.963 E.14294
G1 X135.473 Y139.963 E.01314
G1 X135.473 Y134.921 E.15809
G1 X135.054 Y134.437 E.02007
G1 X135.054 Y139.963 E.17326
G1 X134.635 Y139.963 E.01314
G1 X134.635 Y133.954 E.18841
G1 X134.216 Y133.47 E.02007
G1 X134.216 Y139.963 E.20358
G1 X133.797 Y139.963 E.01314
G1 X133.797 Y132.987 E.21873
G1 X133.378 Y132.503 E.02007
G1 X133.378 Y139.963 E.2339
G1 X132.959 Y139.963 E.01314
G1 X132.959 Y132.02 E.24905
G1 X132.54 Y131.536 E.02007
G1 X132.54 Y139.963 E.26422
G1 X132.121 Y139.963 E.01314
G1 X132.121 Y131.053 E.27937
G1 X131.702 Y130.569 E.02007
G1 X131.702 Y139.963 E.29454
G1 X131.623 Y139.963 E.00248
G1 X131.623 Y137.656 E.07233
G1 X131.283 Y137.656 E.01066
G1 X131.283 Y130.086 E.23735
G1 X130.864 Y129.602 E.02007
G1 X130.864 Y137.656 E.25253
G1 X130.445 Y137.656 E.01314
G1 X130.445 Y129.119 E.26767
G1 X130.026 Y128.636 E.02005
G1 X130.026 Y137.656 E.28282
G1 X129.607 Y137.656 E.01314
G1 X129.607 Y128.152 E.29799
G1 X129.188 Y127.669 E.02005
G1 X129.188 Y135.349 E.2408
G1 X128.769 Y135.349 E.01314
G1 X128.769 Y127.185 E.25598
G1 X128.351 Y126.702 E.02003
G1 X128.351 Y135.349 E.27112
G1 X127.932 Y135.349 E.01314
G1 X127.932 Y126.218 E.2863
G1 X127.513 Y125.735 E.02005
G1 X127.513 Y135.349 E.30144
G1 X127.094 Y135.349 E.01314
G1 X127.094 Y125.251 E.31662
G1 X126.675 Y124.768 E.02005
M73 P1 R68
M73 Q1 S69
G1 X126.675 Y133.042 E.25943
G1 X126.256 Y133.042 E.01314
G1 X126.256 Y124.284 E.2746
G1 X125.837 Y123.801 E.02005
G1 X125.837 Y133.042 E.28975
G1 X125.418 Y133.042 E.01314
G1 X125.418 Y123.317 E.30492
G1 X124.999 Y122.834 E.02005
G1 X124.999 Y133.042 E.32006
G1 X124.58 Y133.042 E.01314
G1 X124.58 Y122.35 E.33524
G1 X124.161 Y121.867 E.02005
G1 X124.161 Y133.042 E.35038
G1 X123.742 Y133.042 E.01314
G1 X123.742 Y121.383 E.36556
G1 X123.323 Y120.9 E.02005
G1 X123.323 Y133.042 E.3807
G1 X122.904 Y133.042 E.01314
G1 X122.904 Y120.416 E.39588
G1 X122.485 Y119.933 E.02005
G1 X122.485 Y133.042 E.41102
G1 X122.395 Y133.042 E.00282
G1 X122.395 Y130.735 E.07233
G1 X122.066 Y130.735 E.01032
G1 X122.066 Y119.449 E.35386
G1 X121.647 Y118.966 E.02005
G1 X121.647 Y130.735 E.36901
G1 X121.228 Y130.735 E.01314
G1 X121.228 Y118.482 E.38418
G1 X120.809 Y117.999 E.02005
G1 X120.809 Y130.735 E.39933
G1 X120.39 Y130.735 E.01314
G1 X120.39 Y117.515 E.4145
G1 X119.971 Y117.032 E.02005
G1 X119.971 Y128.428 E.35731
G1 X119.552 Y128.428 E.01314
G1 X119.552 Y116.548 E.37249
G1 X119.133 Y116.065 E.02005
G1 X119.133 Y128.428 E.38763
G1 X118.714 Y128.428 E.01314
G1 X118.714 Y115.581 E.40281
G1 X118.295 Y115.098 E.02005
G1 X118.295 Y128.428 E.41795
G1 X117.876 Y128.428 E.01314
G1 X117.876 Y114.614 E.43313
G1 X117.457 Y114.131 E.02005
G1 X117.457 Y126.121 E.37594
G1 X117.038 Y126.121 E.01314
G1 X117.038 Y113.647 E.39111
G1 X116.619 Y113.164 E.02005
G1 X116.619 Y126.121 E.40626
G1 X116.2 Y126.121 E.01314
G1 X116.2 Y112.68 E.42143
G1 X115.781 Y112.197 E.02005
G1 X115.781 Y126.121 E.43658
G1 X115.362 Y126.121 E.01314
G1 X115.362 Y111.713 E.45175
G1 X114.943 Y111.23 E.02005
G1 X114.943 Y126.121 E.4669
G1 X114.524 Y126.121 E.01314
G1 X114.524 Y110.747 E.48204
G1 X114.105 Y110.263 E.02007
G1 X114.105 Y126.121 E.49722
G1 X113.686 Y126.121 E.01314
G1 X113.686 Y109.78 E.51236
G1 X113.267 Y109.274 E.0206
G1 X113.267 Y126.121 E.52823
G1 X113.166 Y126.121 E.00317
G1 X113.166 Y123.814 E.07233
G1 X112.848 Y123.814 E.00997
G1 X112.848 Y108.729 E.47298
G1 X112.429 Y108.184 E.02155
G1 X112.429 Y123.814 E.49007
G1 X112.01 Y123.814 E.01314
G1 X112.01 Y107.638 E.50719
G1 X111.591 Y107.071 E.02211
G1 X111.591 Y123.814 E.52497
G1 X111.172 Y123.814 E.01314
G1 X111.172 Y106.367 E.54704
G1 X110.753 Y105.664 E.02566
G1 X110.753 Y121.507 E.49675
G1 X110.334 Y121.507 E.01314
G1 X110.334 Y104.961 E.51879
G1 X110.145 Y104.638 E.01173
G1 X109.916 Y104.123 E.01767
G1 X109.916 Y121.507 E.54506
G1 X109.497 Y121.507 E.01314
G1 X109.497 Y103.184 E.5745
G1 X109.078 Y102.245 E.03224
G1 X109.078 Y121.507 E.60395
G1 X108.659 Y121.507 E.01314
G1 X108.659 Y101.008 E.64273
G1 X108.24 Y99.662 E.0442
G1 X108.24 Y119.199 E.61257
G1 X107.821 Y119.199 E.01314
G1 X107.821 Y97.721 E.67343
G1 X107.56 Y96.306 E.04511
G1 X107.402 Y93.917 E.07507
G1 X107.402 Y119.199 E.7927
G1 X106.983 Y119.199 E.01314
G1 X106.983 Y67.85 E1.61001
G1 X107.402 Y67.85 E.01314
M73 Q1 S68
G1 X107.402 Y91.319 E.73585
G1 X107.467 Y90.515 E.02529
G1 X107.709 Y88.774 E.05511
G1 X107.804 Y88.704 E.0037
G1 X107.821 Y88.63 E.00238
G1 X107.821 Y67.85 E.65154
G1 X108.24 Y67.85 E.01314
G1 X108.24 Y86.78 E.59354
G1 X108.329 Y86.396 E.01236
M73 P2 R67
G1 X108.659 Y85.445 E.03156
G1 X108.659 Y67.85 E.55168
M73 Q2 S68
G1 X109.078 Y67.85 E.01314
G1 X109.078 Y84.236 E.51377
G1 X109.233 Y83.795 E.01466
G1 X109.497 Y83.242 E.01921
G1 X109.497 Y67.85 E.48261
G1 X109.916 Y67.85 E.01314
G1 X109.916 Y82.363 E.45504
G1 X110.334 Y81.483 E.03055
G1 X110.334 Y67.85 E.42745
G1 X110.753 Y67.85 E.01314
G1 X110.753 Y80.773 E.40519
G1 X111.172 Y80.098 E.02491
G1 X111.172 Y67.85 E.38403
G1 X111.591 Y67.85 E.01314
G1 X111.591 Y79.423 E.36286
G1 X111.847 Y79.011 E.01521
G1 X112.01 Y78.8 E.00836
G1 X112.01 Y67.85 E.34333
G1 X112.429 Y67.85 E.01314
G1 X112.429 Y78.267 E.32662
G1 X112.848 Y77.734 E.02126
G1 X112.848 Y67.85 E.30991
G1 X113.267 Y67.85 E.01314
G1 X113.267 Y77.202 E.29323
G1 X113.686 Y76.669 E.02126
G1 X113.686 Y67.85 E.27651
G1 X114.105 Y67.85 E.01314
G1 X114.105 Y76.544 E.27259
G1 X114.524 Y76.573 E.01317
G1 X114.524 Y67.85 E.2735
G1 X114.943 Y67.85 E.01314
G1 X114.943 Y77.057 E.28868
G1 X115.304 Y77.672 E.02236
G1 X115.362 Y77.672 E.00182
G1 X115.362 Y67.85 E.30796
G1 X115.781 Y67.85 E.01314
G1 X115.781 Y77.842 E.31329
M204 S1000
;WIPE_START
G1 F8640
G1 X115.781 Y73.511 E-1
;WIPE_END
G1 Z.4 F720
G1 X106.564 Y119.369 F10800
G1 Z.2 F720
G1 E1 F2100
M204 S800
G1 F1200
G1 X106.564 Y67.85 E1.61534
G1 X106.245 Y67.85 E.01
G1 X106.245 Y70.157 E.07233
G1 X106.145 Y70.157 E.00314
G1 X106.145 Y116.892 E1.46534
G1 X105.726 Y116.892 E.01314
G1 X105.726 Y70.157 E1.46534
G1 X105.307 Y70.157 E.01314
G1 X105.307 Y116.892 E1.46534
G1 X104.888 Y116.892 E.01314
G1 X104.888 Y70.157 E1.46534
G1 X104.469 Y70.157 E.01314
G1 X104.469 Y116.892 E1.46534
G1 X104.05 Y116.892 E.01314
G1 X104.05 Y70.157 E1.46534
G1 X103.938 Y70.157 E.00351
G1 X103.938 Y72.464 E.07233
G1 X103.631 Y72.464 E.00963
G1 X103.631 Y114.585 E1.32067
G1 X103.212 Y114.585 E.01314
G1 X103.212 Y72.464 E1.32067
G1 X102.793 Y72.464 E.01314
G1 X102.793 Y114.585 E1.32067
G1 X102.374 Y114.585 E.01314
G1 X102.374 Y72.464 E1.32067
G1 X101.955 Y72.464 E.01314
G1 X101.955 Y114.585 E1.32067
G1 X101.631 Y114.585 E.01016
G1 X101.631 Y109.971 E.14467
G1 X101.536 Y109.971 E.00298
G1 X101.536 Y77.078 E1.03134
G1 X101.117 Y77.078 E.01314
M73 P3 R67
G1 X101.117 Y109.971 E1.03134
G1 X100.698 Y109.971 E.01314
M73 Q3 S68
G1 X100.698 Y77.078 E1.03134
G1 X100.279 Y77.078 E.01314
G1 X100.279 Y109.971 E1.03134
G1 X99.86 Y109.971 E.01314
G1 X99.86 Y77.078 E1.03134
G1 X99.441 Y77.078 E.01314
G1 X99.441 Y109.971 E1.03134
G1 X99.324 Y109.971 E.00367
G1 X99.324 Y103.05 E.217
G1 X99.022 Y103.05 E.00947
G1 X99.022 Y83.999 E.59733
G1 X98.603 Y83.999 E.01314
G1 X98.603 Y103.05 E.59733
G1 X98.184 Y103.05 E.01314
G1 X98.184 Y83.999 E.59733
G1 X97.765 Y83.999 E.01314
G1 X97.765 Y103.05 E.59733
G1 X97.346 Y103.05 E.01314
G1 X97.346 Y83.83 E.60263
M204 S1000
;WIPE_START
G1 F8640
M73 Q3 S67
G1 X97.346 Y88.161 E-1
;WIPE_END
G1 Z.4 F720
G1 X144.092 Y122.88 F10800
G1 Z.2 F720
G1 E1 F2100
M204 S800
G1 F1200
G1 X148.706 Y122.88 E.14467
G1 X148.706 Y130.046 E.22468
G1 X148.492 Y130.106 E.00697
G1 X147.891 Y129.123 E.03613
G1 X147.199 Y128.336 E.03286
G1 X146.532 Y127.775 E.02733
G1 X137.796 Y121.429 E.33855
G1 X138.074 Y120.573 E.02822
G1 X144.092 Y120.573 E.18869
G1 X144.092 Y122.824 E.07058
M204 S1000
G1 X148.042 Y129.042 F10800
M204 S800
G1 F1200
G1 X148.042 Y123.22 E.18254
G1 X147.623 Y123.22 E.01314
G1 X147.623 Y128.305 E.15944
G1 X147.445 Y128.102 E.00847
G1 X147.204 Y127.895 E.00996
G1 X147.204 Y123.22 E.14658
G1 X146.785 Y123.22 E.01314
G1 X146.785 Y127.545 E.13561
G1 X146.367 Y127.235 E.01632
G1 X146.367 Y123.22 E.12589
G1 X145.948 Y123.22 E.01314
G1 X145.948 Y126.93 E.11632
G1 X145.529 Y126.626 E.01623
M73 P3 R66
G1 X145.529 Y123.22 E.10679
G1 X145.11 Y123.22 E.01314
G1 X145.11 Y126.322 E.09726
G1 X144.691 Y126.018 E.01623
G1 X144.691 Y123.22 E.08773
G1 X144.272 Y123.22 E.01314
G1 X144.272 Y125.713 E.07817
G1 X143.853 Y125.409 E.01623
G1 X143.853 Y123.22 E.06863
G1 X143.752 Y123.22 E.00317
G1 X143.752 Y120.913 E.07233
G1 X143.434 Y120.913 E.00997
G1 X143.434 Y125.105 E.13144
G1 X143.015 Y124.8 E.01625
G1 X143.015 Y120.913 E.12187
G1 X142.596 Y120.913 E.01314
G1 X142.596 Y124.496 E.11234
G1 X142.177 Y124.192 E.01623
G1 X142.177 Y120.913 E.10281
G1 X141.758 Y120.913 E.01314
G1 X141.758 Y123.887 E.09325
G1 X141.339 Y123.583 E.01623
G1 X141.339 Y120.913 E.08372
G1 X140.92 Y120.913 E.01314
G1 X140.92 Y123.279 E.07418
G1 X140.501 Y122.975 E.01623
G1 X140.501 Y120.913 E.06465
G1 X140.082 Y120.913 E.01314
G1 X140.082 Y122.67 E.05509
G1 X139.663 Y122.366 E.01623
G1 X139.663 Y120.913 E.04556
G1 X139.244 Y120.913 E.01314
G1 X139.244 Y122.062 E.03603
G1 X138.825 Y121.757 E.01625
G1 X138.825 Y120.913 E.02646
G1 X138.406 Y120.913 E.01314
G1 X138.406 Y121.663 E.02352
M204 S1000
;WIPE_START
G1 F8640
G1 X138.406 Y120.913 E-.17318
G1 X138.825 Y120.913 E-.09675
G1 X138.825 Y121.757 E-.19488
G1 X139.244 Y122.062 E-.11967
G1 X139.244 Y120.913 E-.26531
G1 X139.663 Y120.913 E-.09675
G1 X139.663 Y121.145 E-.05346
;WIPE_END
G1 Z.4 F720
G1 X143.362 Y129.298 F10800
G1 Z.2 F720
G1 E1 F2100
M204 S800
G1 F1200
G1 X143.972 Y129.457 E.01977
G1 X144.547 Y129.716 E.01977
G1 X145.069 Y130.07 E.01978
G1 X145.525 Y130.506 E.01978
G1 X145.9 Y131.013 E.01977
G1 X146.184 Y131.576 E.01977
G1 X146.368 Y132.179 E.01977
G1 X146.448 Y132.805 E.01979
G1 X146.422 Y133.434 E.01974
G1 X146.289 Y134.051 E.01979
G1 X146.054 Y134.636 E.01977
G1 X145.723 Y135.173 E.01978
G1 X145.306 Y135.647 E.01979
G1 X144.816 Y136.043 E.01975
G1 X144.265 Y136.351 E.01979
G1 X143.67 Y136.561 E.01978
G1 X143.039 Y136.669 E.02007
G1 X142.733 Y136.682 E.0096
G1 X142.428 Y136.669 E.00957
G1 X141.797 Y136.561 E.02007
G1 X141.202 Y136.351 E.01978
G1 X140.651 Y136.043 E.01979
G1 X140.161 Y135.647 E.01975
G1 X139.744 Y135.173 E.01979
G1 X139.413 Y134.636 E.01978
G1 X139.178 Y134.051 E.01977
G1 X139.045 Y133.435 E.01976
G1 X139.019 Y132.805 E.01977
G1 X139.099 Y132.179 E.01979
G1 X139.283 Y131.576 E.01977
G1 X139.567 Y131.013 E.01977
