; generated by PrusaSlicer 2.6.0+win64 on 2023-09-01 at 15:17:05 UTC


;
;
; 

; external perimeters extrusion width = 0.65mm
; perimeters extrusion width = 0.65mm
; infill extrusion width = 0.65mm
; solid infill extrusion width = 0.65mm
; top infill extrusion width = 0.60mm
; support material extrusion width = 0.55mm
; first layer extrusion width = 0.65mm

M73 P0 R49
M73 Q0 S49
M201 X1000 Y1000 Z200 E5000 ; sets maximum accelerations, mm/sec^2
M203 X200 Y200 Z12 E120 ; sets maximum feedrates, mm / sec
M204 S1250 T1250 ; sets acceleration (S) and retract acceleration (R), mm/sec^2
M205 X8.00 Y8.00 Z0.40 E4.50 ; sets the jerk limits, mm/sec
M205 S0 T0 ; sets the minimum extruding and travel feed rate, mm/sec
;TYPE:Custom
M862.3 P "MK3S" ; printer model check
M862.1 P0.6 ; nozzle diameter check
M115 U3.12.2 ; tell printer latest fw version
G90 ; use absolute coordinates
M83 ; extruder relative mode
M104 S240 ; set extruder temp
M140 S85 ; set bed temp
M190 S85 ; wait for bed temp
M109 S240 ; wait for extruder temp
G28 W ; home all without mesh bed level
G80 ; mesh bed leveling

G1 Z0.2 F720
G1 Y-3 F1000 ; go outside print area
G92 E0
G1 X60 E9 F1000 ; intro line
G1 X100 E12.5 F1000 ; intro line

G92 E0
M221 S95
G21 ; set units to millimeters
G90 ; use absolute coordinates
M83 ; use relative distances for extrusion
M900 K0.04 ; Filament gcode LA 1.5
M900 K24 ; Filament gcode LA 1.0
M107
;LAYER_CHANGE
;Z:0.2
;HEIGHT:0.2
;BEFORE_LAYER_CHANGE
G92 E0.0
;0.2


G1 E-1 F2100
G1 Z.2 F720
;AFTER_LAYER_CHANGE
;0.2
G1 Z.4
G1 X88.114 Y88.114 F10800
G1 Z.2 F720
G1 E1 F1500
M204 S800
;TYPE:Skirt/Brim
;WIDTH:0.65
G1 F1200
G1 X88.399 Y87.829 E.02035
G1 X89.077 Y87.341 E.04217
G1 X94.389 Y84.714 E.29914
G1 X101.846 Y82.228 E.39679
G1 X102.671 Y82.094 E.04219
G1 X125.905 Y82.094 E1.17283
G1 X126.73 Y82.228 E.04219
G1 X134.187 Y84.714 E.39679
G1 X134.927 Y85.101 E.04215
G1 X164.754 Y107.472 E1.88206
G1 X167.519 Y110.2 E.19607
G1 X168.282 Y112.043 E.10069
G1 X168.282 Y127.821 E.79646
G1 X167.519 Y129.665 E.10074
G1 X165.033 Y132.15 E.17743
G1 X163.19 Y132.914 E.10071
G1 X147.412 Y132.914 E.79646
G1 X146.734 Y132.824 E.03452
G1 X82.108 Y115.425 E3.37841
G1 X80.942 Y114.751 E.06798
M73 P0 R48
G1 X78.457 Y112.265 E.17743
G1 X77.693 Y110.422 E.10071
G1 X77.693 Y102.101 E.42003
G1 X77.968 Y100.935 E.06047
G1 X80.454 Y95.964 E.28056
G1 X80.942 Y95.286 E.04217
G1 X88.05 Y88.178 E.50743
M204 S1000
; printing object Left_Gripper_rev2 id:0 copy 0
;WIPE_START
G1 F8640
G1 X88.399 Y87.829 E-.11396
G1 X89.077 Y87.341 E-.19289
G1 X91.768 Y86.01 E-.69315
;WIPE_END
G1 Z.4 F720
G1 X125.905 Y87.187 F10800
G1 Z.2 F720
G1 E1 F1500
M204 S800
;TYPE:Support material
G1 F1200
G1 X133.362 Y87.187 E.37642
G1 X133.362 Y92.158 E.25093
G1 X137.848 Y92.158 E.22645
G1 X137.848 Y94.508 E.11863
G1 X134.848 Y94.508 E.15144
G1 X134.848 Y96.994 E.12549
G1 X132.362 Y96.994 E.12549
G1 X132.362 Y103.101 E.30827
G1 X134.204 Y103.101 E.09298
G1 X135.031 Y104.052 E.06362
G1 X136.123 Y105.472 E.09042
G1 X149.274 Y123.767 E1.13735
G1 X150.067 Y124.684 E.0612
G1 X150.993 Y125.439 E.06031
G1 X151.969 Y125.994 E.05668
G1 X153.091 Y126.403 E.06028
G1 X154.34 Y126.621 E.064
G1 X155.462 Y126.621 E.05664
G1 X156.64 Y126.423 E.0603
G1 X157.833 Y125.995 E.06398
G1 X158.808 Y125.441 E.05661
G1 X159.735 Y124.687 E.06032
G1 X160.561 Y123.726 E.06397
G1 X161.135 Y122.762 E.05663
G1 X161.568 Y121.648 E.06033
G1 X161.812 Y120.405 E.06394
G1 X161.83 Y119.21 E.06033
G1 X161.644 Y118.03 E.0603
G1 X161.258 Y116.899 E.06033
G1 X160.685 Y115.852 E.06025
G1 X159.969 Y114.948 E.05821
G1 X157.008 Y111.917 E.21389
G1 X152.46 Y107.691 E.31339
G1 X151.713 Y107.072 E.04897
G1 X158.218 Y107.072 E.32837
G1 X158.218 Y109.558 E.12549
G1 X163.19 Y109.558 E.25098
G1 X163.19 Y112.043 E.12544
G1 X165.675 Y112.043 E.12544
G1 X165.675 Y127.821 E.79646
G1 X163.19 Y127.821 E.12544
G1 X163.19 Y130.307 E.12549
G1 X147.412 Y130.307 E.79646
G1 X147.412 Y127.821 E.12549
G1 X144.926 Y127.821 E.12549
G1 X144.926 Y125.335 E.12549
G1 X142.441 Y125.335 E.12544
G1 X142.441 Y122.85 E.12544
G1 X139.955 Y122.85 E.12549
G1 X139.955 Y120.364 E.12549
G1 X137.469 Y120.364 E.12549
G1 X137.469 Y117.879 E.12544
G1 X134.984 Y117.879 E.12544
G1 X134.984 Y115.393 E.12549
G1 X132.498 Y115.393 E.12549
G1 X132.498 Y110.422 E.25093
G1 X130.012 Y110.422 E.12549
G1 X130.012 Y107.936 E.12549
G1 X127.527 Y107.936 E.12544
G1 X127.527 Y105.451 E.12544
G1 X125.041 Y105.451 E.12549
G1 X125.041 Y102.965 E.12549
M73 Q1 S49
G1 X120.07 Y102.965 E.25093
M73 P1 R48
G1 X120.07 Y100.479 E.12549
G1 X108.506 Y100.479 E.58374
G1 X108.506 Y102.965 E.12549
G1 X103.535 Y102.965 E.25093
G1 X103.535 Y105.451 E.12549
G1 X101.049 Y105.451 E.12549
G1 X101.049 Y107.936 E.12544
G1 X96.078 Y107.936 E.25093
G1 X96.078 Y110.422 E.12549
G1 X93.592 Y110.422 E.12549
G1 X93.592 Y112.907 E.12544
G1 X82.786 Y112.907 E.54547
G1 X82.786 Y110.422 E.12544
G1 X80.3 Y110.422 E.12549
G1 X80.3 Y102.101 E.42003
G1 X82.786 Y102.101 E.12549
G1 X82.786 Y97.129 E.25098
G1 X85.271 Y97.129 E.12544
G1 X85.271 Y94.644 E.12544
G1 X87.757 Y94.644 E.12549
G1 X87.757 Y92.158 E.12549
G1 X90.243 Y92.158 E.12549
G1 X90.243 Y89.673 E.12544
G1 X95.214 Y89.673 E.25093
G1 X95.214 Y87.187 E.12549
G1 X102.671 Y87.187 E.37642
G1 X102.671 Y84.701 E.12549
G1 X125.905 Y84.701 E1.17283
G1 X125.905 Y87.096 E.1209
M204 S1000
;WIPE_START
G1 F8640
G1 X125.905 Y84.701 E-.55301
G1 X123.969 Y84.701 E-.44699
;WIPE_END
G1 Z.4 F720
G1 X164.809 Y127.548 F10800
G1 Z.2 F720
G1 E1 F1500
M204 S800
G1 F1200
G1 X164.809 Y112.59 E.75506
G1 X164.134 Y112.59 E.03407
G1 X164.134 Y127.275 E.74128
G1 X163.46 Y127.275 E.03402
G1 X163.46 Y112.59 E.74128
G1 X162.785 Y112.59 E.03407
G1 X162.785 Y127.275 E.74128
G1 X162.643 Y127.275 E.00717
G1 X162.643 Y129.76 E.12544
G1 X162.111 Y129.76 E.02685
G1 X162.111 Y110.104 E.99221
G1 X161.436 Y110.104 E.03407
G1 X161.436 Y116.079 E.30161
G1 X161.128 Y115.532 E.03169
G1 X160.761 Y115.067 E.0299
G1 X160.762 Y110.104 E.25053
G1 X160.087 Y110.104 E.03407
G1 X160.087 Y114.287 E.21115
G1 X159.412 Y113.596 E.04876
G1 X159.412 Y110.104 E.17627
G1 X158.738 Y110.104 E.03402
G1 X158.738 Y112.906 E.14144
G1 X158.063 Y112.215 E.04876
G1 X158.063 Y110.104 E.10656
G1 X157.672 Y110.104 E.01974
G1 X157.672 Y107.618 E.12549
G1 X157.389 Y107.618 E.01429
G1 X157.389 Y111.525 E.19722
G1 X156.714 Y110.898 E.04651
G1 X156.714 Y107.618 E.16557
G1 X156.04 Y107.618 E.03402
G1 X156.04 Y110.271 E.13392
G1 X155.365 Y109.644 E.04651
G1 X155.365 Y107.618 E.10227
G1 X154.691 Y107.618 E.03402
G1 X154.691 Y109.017 E.07062
G1 X154.016 Y108.391 E.04647
G1 X154.016 Y107.618 E.03902
G1 X153.342 Y107.618 E.03402
G1 X153.342 Y108.137 E.0262
M204 S1000
;WIPE_START
G1 F8640
G1 X153.342 Y107.618 E-.11984
G1 X154.016 Y107.618 E-.15563
G1 X154.016 Y108.391 E-.17849
G1 X154.691 Y109.017 E-.21257
G1 X154.691 Y107.618 E-.32303
G1 X154.736 Y107.618 E-.01044
;WIPE_END
G1 Z.4 F720
G1 X161.436 Y130.034 F10800
G1 Z.2 F720
G1 E1 F1500
M204 S800
M73 Q1 S48
G1 F1200
G1 X161.436 Y123.325 E.33866
G1 X161.018 Y124.026 E.0412
G1 X160.761 Y124.34 E.02048
G1 X160.761 Y129.76 E.2736
G1 X160.087 Y129.76 E.03402
G1 X160.087 Y125.105 E.23498
G1 X159.412 Y125.66 E.04411
G1 X159.412 Y129.76 E.20696
G1 X158.738 Y129.76 E.03402
G1 X158.738 Y126.11 E.18425
G1 X158.063 Y126.491 E.03913
G1 X158.063 Y129.76 E.16502
G1 X157.389 Y129.76 E.03402
G1 X157.389 Y126.741 E.1524
G1 X156.872 Y126.927 E.02774
G1 X156.714 Y126.964 E.00819
G1 X156.714 Y129.76 E.14114
G1 X156.04 Y129.76 E.03402
G1 X156.04 Y127.082 E.13518
G1 X155.604 Y127.157 E.02233
G1 X155.365 Y127.167 E.01208
G1 X155.365 Y129.76 E.13089
G1 X154.691 Y129.76 E.03402
G1 X154.691 Y127.167 E.13089
G1 X154.316 Y127.167 E.01893
G1 X154.016 Y127.125 E.01529
G1 X154.016 Y129.76 E.13301
G1 X153.342 Y129.76 E.03402
G1 X153.342 Y127.008 E.13892
G1 X153.045 Y126.956 E.01522
G1 X152.667 Y126.832 E.02008
G1 X152.667 Y129.76 E.1478
G1 X151.993 Y129.76 E.03402
G1 X151.993 Y126.589 E.16007
G1 X151.719 Y126.48 E.01489
G1 X151.318 Y126.252 E.02329
G1 X151.318 Y129.76 E.17708
G1 X150.644 Y129.76 E.03402
G1 X150.644 Y125.862 E.19677
G1 X149.969 Y125.311 E.04398
G1 X149.969 Y129.76 E.22458
G1 X149.294 Y129.76 E.03407
G1 X149.294 Y124.632 E.25886
G1 X148.874 Y124.143 E.03254
G1 X148.62 Y123.793 E.02183
G1 X148.62 Y129.76 E.30121
G1 X147.958 Y129.76 E.03342
G1 X147.945 Y122.855 E.34856
G1 X147.271 Y121.917 E.05831
G1 X147.271 Y127.275 E.27047
G1 X146.596 Y127.275 E.03407
G1 X146.596 Y120.978 E.31787
G1 X145.922 Y120.04 E.05831
G1 X145.922 Y127.275 E.36521
G1 X145.473 Y127.275 E.02267
G1 X145.473 Y124.789 E.12549
G1 X145.247 Y124.789 E.01141
G1 X145.247 Y119.102 E.28707
G1 X144.573 Y118.163 E.05835
G1 X144.573 Y124.789 E.33447
G1 X143.898 Y124.789 E.03407
G1 X143.898 Y117.225 E.38182
G1 X143.224 Y116.286 E.05835
G1 X143.224 Y124.789 E.42922
G1 X142.987 Y124.789 E.01196
G1 X142.987 Y122.304 E.12544
G1 X142.549 Y122.304 E.02211
G1 X142.549 Y115.348 E.35113
G1 X141.875 Y114.41 E.05831
G1 X141.875 Y122.304 E.39848
G1 X141.2 Y122.304 E.03407
G1 X141.2 Y113.471 E.44588
G1 X140.526 Y112.533 E.05831
G1 X140.526 Y122.304 E.49323
G1 X140.501 Y122.304 E.00126
G1 X140.501 Y119.818 E.12549
G1 X139.851 Y119.818 E.03281
G1 X139.851 Y111.595 E.41509
G1 X139.176 Y110.656 E.05838
G1 X139.176 Y119.818 E.46249
G1 X138.502 Y119.818 E.03402
G1 X138.502 Y109.718 E.50984
G1 X137.827 Y108.779 E.05838
G1 X137.827 Y117.332 E.43175
G1 X137.153 Y117.332 E.03402
G1 X137.153 Y107.841 E.47909
G1 X136.478 Y106.903 E.05833
G1 X136.478 Y117.332 E.52644
G1 X135.804 Y117.332 E.03402
G1 X135.804 Y105.964 E.57384
G1 X135.129 Y105.077 E.05627
M73 P2 R48
M73 Q2 S48
G1 X135.129 Y114.847 E.49318
G1 X134.455 Y114.847 E.03402
G1 X134.455 Y104.222 E.53634
G1 X133.955 Y103.647 E.03846
G1 X133.78 Y103.647 E.00883
G1 X133.78 Y114.847 E.56536
G1 X133.106 Y114.847 E.03402
G1 X133.106 Y103.647 E.56536
G1 X132.431 Y103.647 E.03407
G1 X132.431 Y109.875 E.31438
G1 X131.757 Y109.875 E.03402
G1 X131.757 Y87.733 E1.1177
G1 X132.431 Y87.733 E.03402
G1 X132.431 Y96.447 E.43987
G1 X133.106 Y96.447 E.03407
G1 X133.106 Y92.705 E.18889
G1 X133.78 Y92.705 E.03402
G1 X133.78 Y96.447 E.18889
G1 X134.302 Y96.447 E.02635
G1 X134.302 Y93.962 E.12544
G1 X134.455 Y93.962 E.00772
G1 X134.455 Y92.705 E.06345
G1 X135.129 Y92.705 E.03402
G1 X135.129 Y93.962 E.06345
G1 X135.804 Y93.962 E.03407
G1 X135.804 Y92.705 E.06345
G1 X136.478 Y92.705 E.03402
G1 X136.478 Y93.962 E.06345
G1 X137.153 Y93.962 E.03407
G1 X137.153 Y92.431 E.07728
M204 S1000
;WIPE_START
G1 F8640
G1 X137.153 Y93.962 E-.35351
G1 X136.478 Y93.962 E-.15586
G1 X136.478 Y92.705 E-.29024
G1 X135.804 Y92.705 E-.15563
G1 X135.804 Y92.899 E-.04476
;WIPE_END
G1 Z.4 F720
G1 X131.082 Y110.149 F10800
G1 Z.2 F720
G1 E1 F1500
M204 S800
G1 F1200
G1 X131.082 Y87.733 E1.13153
G1 X130.408 Y87.733 E.03402
G1 X130.408 Y107.39 E.99226
G1 X129.733 Y107.39 E.03407
G1 X129.733 Y87.733 E.99226
G1 X129.058 Y87.733 E.03407
G1 X129.058 Y107.39 E.99226
G1 X128.384 Y107.39 E.03402
G1 X128.384 Y87.733 E.99226
G1 X127.709 Y87.733 E.03407
G1 X127.709 Y104.904 E.86677
G1 X127.035 Y104.904 E.03402
G1 X127.035 Y87.733 E.86677
G1 X126.36 Y87.733 E.03407
G1 X126.36 Y104.904 E.86677
G1 X125.686 Y104.904 E.03402
G1 X125.686 Y87.733 E.86677
G1 X125.359 Y87.733 E.01651
G1 X125.359 Y85.248 E.12544
G1 X125.011 Y85.248 E.01757
G1 X125.011 Y102.419 E.86677
G1 X124.337 Y102.419 E.03402
G1 X124.337 Y85.248 E.86677
G1 X123.662 Y85.248 E.03407
G1 X123.662 Y102.419 E.86677
G1 X122.988 Y102.419 E.03402
M73 P2 R47
G1 X122.988 Y85.248 E.86677
G1 X122.313 Y85.248 E.03407
G1 X122.313 Y102.419 E.86677
G1 X121.639 Y102.419 E.03402
G1 X121.639 Y85.248 E.86677
G1 X120.964 Y85.248 E.03407
G1 X120.964 Y102.419 E.86677
G1 X120.616 Y102.419 E.01757
G1 X120.616 Y99.933 E.12549
G1 X120.29 Y99.933 E.01646
G1 X120.29 Y85.248 E.74128
G1 X119.615 Y85.248 E.03407
G1 X119.615 Y99.933 E.74128
G1 X118.941 Y99.933 E.03402
G1 X118.941 Y85.248 E.74128
G1 X118.266 Y85.248 E.03407
G1 X118.266 Y99.933 E.74128
G1 X117.591 Y99.933 E.03407
G1 X117.591 Y85.248 E.74128
G1 X116.917 Y85.248 E.03402
G1 X116.917 Y99.933 E.74128
G1 X116.242 Y99.933 E.03407
G1 X116.242 Y85.248 E.74128
G1 X115.568 Y85.248 E.03402
G1 X115.568 Y99.933 E.74128
G1 X114.893 Y99.933 E.03407
G1 X114.893 Y85.248 E.74128
G1 X114.219 Y85.248 E.03402
G1 X114.219 Y99.933 E.74128
G1 X113.544 Y99.933 E.03407
M73 P3 R47
M73 Q3 S48
G1 X113.544 Y85.248 E.74128
G1 X112.87 Y85.248 E.03402
G1 X112.87 Y99.933 E.74128
G1 X112.195 Y99.933 E.03407
G1 X112.195 Y85.248 E.74128
G1 X111.521 Y85.248 E.03402
G1 X111.521 Y99.933 E.74128
G1 X110.846 Y99.933 E.03407
G1 X110.846 Y85.248 E.74128
G1 X110.172 Y85.248 E.03402
G1 X110.172 Y99.933 E.74128
G1 X109.497 Y99.933 E.03407
G1 X109.497 Y85.248 E.74128
G1 X108.823 Y85.248 E.03402
G1 X108.823 Y99.933 E.74128
G1 X108.148 Y99.933 E.03407
G1 X108.148 Y85.248 E.74128
G1 X107.473 Y85.248 E.03407
G1 X107.473 Y102.419 E.86677
G1 X106.799 Y102.419 E.03402
G1 X106.799 Y85.248 E.86677
G1 X106.124 Y85.248 E.03407
G1 X106.124 Y102.419 E.86677
G1 X105.45 Y102.419 E.03402
G1 X105.45 Y85.248 E.86677
G1 X104.775 Y85.248 E.03407
G1 X104.775 Y102.419 E.86677
G1 X104.101 Y102.419 E.03402
G1 X104.101 Y85.248 E.86677
G1 X103.426 Y85.248 E.03407
G1 X103.426 Y102.419 E.86677
G1 X102.988 Y102.419 E.02211
G1 X102.988 Y104.904 E.12544
G1 X102.752 Y104.904 E.01191
G1 X102.752 Y87.733 E.86677
G1 X102.077 Y87.733 E.03407
G1 X102.077 Y104.904 E.86677
G1 X101.403 Y104.904 E.03402
G1 X101.403 Y87.733 E.86677
G1 X100.728 Y87.733 E.03407
M73 Q3 S47
G1 X100.728 Y104.904 E.86677
G1 X100.503 Y104.904 E.01136
G1 X100.503 Y107.39 E.12549
G1 X100.054 Y107.39 E.02267
G1 X100.054 Y87.733 E.99226
G1 X99.379 Y87.733 E.03407
G1 X99.379 Y107.39 E.99226
G1 X98.705 Y107.39 E.03402
G1 X98.705 Y87.733 E.99226
G1 X98.03 Y87.733 E.03407
G1 X98.03 Y107.39 E.99226
G1 X97.355 Y107.39 E.03407
G1 X97.355 Y87.733 E.99226
G1 X96.681 Y87.733 E.03402
G1 X96.681 Y107.39 E.99226
G1 X96.006 Y107.39 E.03407
G1 X96.006 Y87.733 E.99226
G1 X95.76 Y87.733 E.01242
G1 X95.76 Y90.219 E.12549
G1 X95.332 Y90.219 E.0216
G1 X95.332 Y109.875 E.99221
G1 X94.657 Y109.875 E.03407
G1 X94.657 Y90.219 E.99221
G1 X93.983 Y90.219 E.03402
G1 X93.983 Y109.875 E.99221
G1 X93.308 Y109.875 E.03407
G1 X93.308 Y90.219 E.99221
G1 X92.634 Y90.219 E.03402
G1 X92.634 Y112.361 E1.1177
G1 X91.959 Y112.361 E.03407
M73 P4 R47
M73 Q4 S47
G1 X91.959 Y90.219 E1.1177
G1 X91.285 Y90.219 E.03402
G1 X91.285 Y112.361 E1.1177
G1 X90.61 Y112.361 E.03407
G1 X90.61 Y92.705 E.99221
G1 X89.936 Y92.705 E.03402
G1 X89.936 Y112.361 E.99221
G1 X89.261 Y112.361 E.03407
G1 X89.261 Y92.705 E.99221
G1 X88.587 Y92.705 E.03402
G1 X88.587 Y112.361 E.99221
G1 X87.912 Y112.361 E.03407
G1 X87.912 Y95.19 E.86677
G1 X87.238 Y95.19 E.03402
G1 X87.238 Y112.361 E.86677
G1 X86.563 Y112.361 E.03407
G1 X86.563 Y95.19 E.86677
G1 X85.888 Y95.19 E.03407
G1 X85.888 Y112.361 E.86677
G1 X85.214 Y112.361 E.03402
G1 X85.214 Y97.676 E.74128
G1 X84.539 Y97.676 E.03407
G1 X84.539 Y112.361 E.74128
G1 X83.865 Y112.361 E.03402
G1 X83.865 Y97.676 E.74128
G1 X83.332 Y97.676 E.02691
G1 X83.332 Y102.647 E.25093
G1 X83.19 Y102.647 E.00717
G1 X83.19 Y109.875 E.36486
G1 X82.516 Y109.875 E.03402
G1 X82.516 Y102.647 E.36486
G1 X81.841 Y102.647 E.03407
G1 X81.841 Y109.875 E.36486
G1 X81.167 Y109.875 E.03402
G1 X81.167 Y102.374 E.37864
M204 S1000
;WIPE_START
G1 F8640
G1 X81.167 Y106.705 E-1
;WIPE_END
G1 Z.4 F720
G1 X132.93 Y100.479 F10800
G1 Z.2 F720
G1 E1 F1500
M204 S800
;TYPE:Support material interface
;WIDTH:0.55
G1 F1200
G1 X132.93 Y102.533 E.0866
G1 X133.201 Y102.533 E.01143
G1 X133.201 Y101.924 E.02568
G1 X133.073 Y101.798 E.00757
G1 X133.057 Y101.184 E.0259
G1 X133.201 Y101.026 E.00901
G1 X133.201 Y97.562 E.14606
G1 X133.744 Y97.562 E.02289
M204 S1000
;WIPE_START
G1 F8640
G1 X133.201 Y97.562 E-.12538
G1 X133.201 Y101.026 E-.79985
G1 X133.057 Y101.184 E-.04936
G1 X133.06 Y101.294 E-.02541
;WIPE_END
G1 Z.4 F720
G1 X133.364 Y100.847 F10800
G1 Z.2 F720
G1 E1 F1500
M204 S800
G1 F1200
G1 X133.986 Y100.173 E.03867
G1 X133.986 Y97.562 E.11009
G1 X134.772 Y97.562 E.03314
