; generated by PrusaSlicer 2.6.1+win64 on 2023-09-13 at 12:21:41 UTC


;
;
; 

; external perimeters extrusion width = 0.65mm
; perimeters extrusion width = 0.65mm
; infill extrusion width = 0.65mm
; solid infill extrusion width = 0.65mm
; top infill extrusion width = 0.60mm
; first layer extrusion width = 0.65mm

M73 P0 R109
M73 Q0 S111
M201 X1000 Y1000 Z200 E5000 ; sets maximum accelerations, mm/sec^2
M203 X200 Y200 Z12 E120 ; sets maximum feedrates, mm / sec
M204 S1250 T1250 ; sets acceleration (S) and retract acceleration (R), mm/sec^2
M205 X8.00 Y8.00 Z0.40 E4.50 ; sets the jerk limits, mm/sec
M205 S0 T0 ; sets the minimum extruding and travel feed rate, mm/sec
;TYPE:Custom
M862.3 P "MK3S" ; printer model check
M862.1 P0.6 ; nozzle diameter check
M115 U3.12.2 ; tell printer latest fw version
G90 ; use absolute coordinates
M83 ; extruder relative mode
M104 S240 ; set extruder temp
M140 S85 ; set bed temp
M190 S85 ; wait for bed temp
M109 S240 ; wait for extruder temp
G28 W ; home all without mesh bed level
G80 ; mesh bed leveling

G1 Z0.2 F720
G1 Y-3 F1000 ; go outside print area
G92 E0
G1 X60 E9 F1000 ; intro line
G1 X100 E12.5 F1000 ; intro line

G92 E0
M221 S95
G21 ; set units to millimeters
G90 ; use absolute coordinates
M83 ; use relative distances for extrusion
M900 K0.04 ; Filament gcode LA 1.5
M900 K24 ; Filament gcode LA 1.0
M107
;LAYER_CHANGE
;Z:0.2
;HEIGHT:0.2
;BEFORE_LAYER_CHANGE
G92 E0.0
;0.2


G1 E-1 F2100
G1 Z.2 F720
;AFTER_LAYER_CHANGE
;0.2
G1 Z.4
G1 X62.658 Y82.445 F10800
G1 Z.2 F720
G1 E1 F1500
M204 S800
;TYPE:Skirt/Brim
;WIDTH:0.65
G1 F1200
G1 X66.267 Y80.398 E.20944
G1 X69.37 Y79.252 E.16698
G1 X72.991 Y78.516 E.18652
G1 X76.749 Y78.367 E.18985
G1 X173.251 Y78.367 E4.87131
G1 X176.556 Y78.463 E.1669
M73 P0 R108
G1 X180.223 Y79.139 E.18823
G1 X183.733 Y80.398 E.18823
G1 X186.993 Y82.207 E.1882
G1 X189.918 Y84.52 E.18824
G1 X192.43 Y87.274 E.18816
G1 X194.465 Y90.399 E.18825
G1 X195.968 Y93.811 E.1882
G1 X196.9 Y97.421 E.1882
G1 X197.245 Y101.346 E.19889
G1 X197.245 Y128.496 E1.3705
G1 X197.157 Y129.195 E.03556
G1 X196.784 Y130.055 E.04732
G1 X196.178 Y130.742 E.04624
G1 X195.298 Y131.276 E.05196
G1 X194.47 Y131.523 E.04362
G1 X193.638 Y131.603 E.04219
G1 X56.362 Y131.603 E6.92954
G1 X55.13 Y131.428 E.06281
M73 Q0 S110
G1 X54.242 Y131.043 E.04886
G1 X53.486 Y130.413 E.04968
G1 X52.978 Y129.601 E.04835
G1 X52.833 Y129.153 E.02377
G1 X52.755 Y128.496 E.0334
G1 X52.755 Y101.346 E1.3705
G1 X53.032 Y97.838 E.17763
G1 X53.897 Y94.211 E.18822
G1 X55.535 Y90.399 E.20944
G1 X57.314 Y87.611 E.16695
G1 X59.754 Y84.835 E.18657
G1 X62.588 Y82.502 E.1853
M204 S1000
; printing object Left_Motor_Bracket_34,8mm_rev0 id:0 copy 0
;WIPE_START
G1 F8640
G1 X66.267 Y80.398 E-.9786
G1 X66.354 Y80.366 E-.0214
;WIPE_END
G1 Z.4 F720
G1 X149.982 Y93.725 F10800
G1 Z.2 F720
G1 E1 F1500
M204 S800
;TYPE:Perimeter
;WIDTH:0.649999
G1 F1200
G1 X155.404 Y93.725 E.2737
G1 X155.055 Y94.568 E.04606
G1 X154.306 Y97.335 E.1447
G1 X154.093 Y97.318 E.01079
G1 X150.029 Y97.318 E.20515
G1 X150.029 Y94.05 E.16496
G1 X149.995 Y93.814 E.01204
M204 S1000
;WIPE_START
G1 F8640
G1 X154.325 Y93.743 E-1
;WIPE_END
G1 Z.4 F720
G1 X149.168 Y93.118 F10800
G1 Z.2 F720
G1 E1 F1500
M204 S800
G1 F1200
G1 X156.36 Y93.118 E.36304
G1 X155.768 Y94.38 E.07037
G1 X155.641 Y94.727 E.01865
G1 X154.954 Y97.267 E.13282
G1 X154.777 Y98.039 E.03998
G1 X154.596 Y97.985 E.00953
G1 X154.093 Y97.925 E.02557
G1 X149.422 Y97.925 E.23579
G1 X149.422 Y94.05 E.19561
G1 X149.337 Y93.455 E.03034
G1 X149.208 Y93.198 E.01452
M204 S1000
;WIPE_START
G1 F8640
G1 X153.539 Y93.15 E-1
;WIPE_END
G1 Z.4 F720
G1 X147.297 Y92.521 F10800
G1 Z.2 F720
G1 E1 F1500
M204 S800
;WIDTH:0.671688
G1 F1200
G1 X148.061 Y92.511 E.03995
;WIDTH:0.649999
G1 X156.905 Y92.511 E.44643
G1 X157.408 Y92.311 E.02732
G1 X156.318 Y94.637 E.12967
G1 X156.227 Y94.885 E.01333
G1 X155.54 Y97.425 E.13282
G1 X155.38 Y98.105 E.03526
G1 X155.286 Y99.138 E.05236
G1 X155.271 Y99.092 E.00244
G1 X154.59 Y98.616 E.04194
G1 X154.093 Y98.532 E.02544
G1 X148.814 Y98.532 E.26648
G1 X148.814 Y94.05 E.22625
G1 X148.754 Y93.625 E.02167
G1 X148.511 Y93.139 E.02743
G1 X148.011 Y92.711 E.03322
;WIDTH:0.671688
G1 X147.384 Y92.544 E.03392
M204 S1000
;WIPE_START
G1 F8640
G1 X148.061 Y92.511 E-.15651
G1 X151.714 Y92.511 E-.84349
;WIPE_END
G1 Z.4 F720
G1 X156.791 Y111.789 F10800
G1 Z.2 F720
G1 E1 F1500
M204 S800
;WIDTH:0.649999
G1 F1200
G1 X158.447 Y114.175 E.14661
G1 X158.751 Y114.54 E.02398
G1 X160.91 Y116.718 E.15481
G1 X161.273 Y117.025 E.024
G1 X163.348 Y118.492 E.12828
G1 X164.187 Y119.035 E.05045
G1 X166.959 Y120.344 E.15474
G1 X167.405 Y120.509 E.024
G1 X170.36 Y121.318 E.15465
G1 X171.184 Y121.436 E.04202
G1 X171.184 Y126.042 E.23251
G1 X156.791 Y126.042 E.72654
G1 X156.791 Y111.879 E.71493
M204 S1000
;WIPE_START
G1 F8640
G1 X158.447 Y114.175 E-.65366
G1 X158.751 Y114.54 E-.10968
G1 X159.473 Y115.268 E-.23666
;WIPE_END
G1 Z.4 F720
G1 X156.184 Y109.193 F10800
G1 Z.2 F720
G1 E1 F1500
M204 S800
G1 F1200
G1 X157.014 Y110.989 E.09987
G1 X157.197 Y111.31 E.01865
G1 X158.946 Y113.829 E.1548
G1 X159.183 Y114.113 E.01867
G1 X161.341 Y116.29 E.15473
G1 X161.623 Y116.529 E.01866
G1 X163.698 Y117.996 E.12828
G1 X164.446 Y118.486 E.04514
G1 X167.219 Y119.795 E.15479
G1 X167.565 Y119.924 E.01864
G1 X170.52 Y120.732 E.15464
G1 X170.883 Y120.798 E.01862
G1 X171.792 Y120.883 E.04609
G1 X171.792 Y126.649 E.29106
G1 X156.184 Y126.649 E.78787
G1 X156.184 Y109.283 E.87662
M204 S1000
;WIPE_START
G1 F8640
G1 X157.014 Y110.989 E-.43807
G1 X157.197 Y111.31 E-.08532
G1 X158.374 Y113.005 E-.47661
;WIPE_END
G1 Z.4 F720
G1 X155.577 Y105.384 F10800
G1 Z.2 F720
G1 E1 F1500
M204 S800
G1 F1200
G1 X156.19 Y107.703 E.12108
G1 X156.279 Y107.951 E.0133
G1 X157.565 Y110.735 E.1548
G1 X157.696 Y110.964 E.01332
G1 X159.445 Y113.483 E.1548
G1 X159.614 Y113.686 E.01333
G1 X161.772 Y115.863 E.15473
G1 X161.974 Y116.034 E.01336
G1 X164.049 Y117.501 E.12828
G1 X164.705 Y117.937 E.03976
G1 X167.478 Y119.247 E.15481
G1 X167.726 Y119.338 E.01333
G1 X170.68 Y120.147 E.15461
G1 X170.939 Y120.194 E.01329
G1 X172.399 Y120.33 E.07402
G1 X172.399 Y127.257 E.34967
G1 X155.577 Y127.257 E.84915
G1 X155.577 Y105.474 E1.09958
M204 S1000
;WIPE_START
G1 F8640
G1 X156.19 Y107.703 E-.53379
G1 X156.279 Y107.951 E-.06084
G1 X157.015 Y109.545 E-.40537
;WIPE_END
G1 Z.4 F720
G1 X177.294 Y121.436 F10800
G1 Z.2 F720
G1 E1 F1500
M204 S800
G1 F1200
G1 X178.116 Y121.318 E.04192
G1 X181.07 Y120.509 E.15461
G1 X181.516 Y120.344 E.024
G1 X184.289 Y119.035 E.15479
G1 X184.699 Y118.795 E.02398
G1 X187.203 Y117.025 E.15479
G1 X187.565 Y116.718 E.02396
G1 X189.724 Y114.54 E.15481
G1 X190.028 Y114.175 E.02398
G1 X191.684 Y111.789 E.14661
G1 X191.684 Y126.042 E.71947
G1 X177.299 Y126.042 E.72614
G1 X177.294 Y121.526 E.22796
M204 S1000
G1 X176.686 Y120.883 F10800
M204 S800
G1 F1200
G1 X177.956 Y120.732 E.06456
G1 X180.91 Y119.924 E.15459
G1 X181.257 Y119.795 E.01869
G1 X184.029 Y118.486 E.15474
G1 X184.349 Y118.3 E.01868
G1 X186.852 Y116.529 E.15478
G1 X187.134 Y116.29 E.01866
G1 X189.293 Y114.113 E.15477
G1 X189.53 Y113.829 E.01867
G1 X191.278 Y111.31 E.15477
G1 X191.462 Y110.989 E.01868
G1 X192.292 Y109.193 E.09987
G1 X192.292 Y126.649 E.88116
G1 X176.692 Y126.649 E.78747
G1 X176.686 Y120.973 E.28652
M204 S1000
G1 X176.078 Y120.33 F10800
M204 S800
G1 F1200
G1 X177.536 Y120.194 E.07392
G1 X177.795 Y120.147 E.01329
G1 X180.75 Y119.338 E.15465
G1 X180.998 Y119.247 E.01333
G1 X183.77 Y117.937 E.15477
G1 X183.998 Y117.804 E.01332
G1 X186.502 Y116.034 E.15479
G1 X186.703 Y115.863 E.01332
G1 X188.862 Y113.686 E.15477
G1 X189.031 Y113.483 E.01333
G1 X190.78 Y110.964 E.1548
G1 X190.911 Y110.735 E.01332
G1 X192.196 Y107.951 E.15478
G1 X192.286 Y107.703 E.01332
G1 X192.899 Y105.384 E.12108
G1 X192.899 Y127.257 E1.10412
G1 X176.086 Y127.257 E.8487
G1 X176.079 Y120.42 E.34512
M204 S1000
;WIPE_START
G1 F8640
G1 X177.536 Y120.194 E-.34045
G1 X177.795 Y120.147 E-.06078
G1 X180.296 Y119.462 E-.59877
;WIPE_END
G1 Z.4 F720
G1 X114.803 Y93.821 F10800
G1 Z.2 F720
G1 E1 F1500
M204 S800
;WIDTH:0.593829
G1 F1200
G1 X114.757 Y94.218 E.01831
G1 X114.106 Y93.09 E.05966
G1 X115.028 Y93.09 E.04224
G1 X114.846 Y93.445 E.01827
G1 X114.813 Y93.731 E.01319
M204 S1000
G1 X115.363 Y93.868 F10800
M204 S800
;WIDTH:0.649999
G1 F1200
G1 X115.336 Y94.05 E.00929
G1 X115.336 Y96.379 E.11757
G1 X113.553 Y93.291 E.18
G1 X113.048 Y92.766 E.03677
;WIDTH:0.671688
G1 X112.239 Y92.521 E.04419
G1 X113.122 Y92.511 E.04617
;WIDTH:0.649999
G1 X115.34 Y92.511 E.11196
;WIDTH:0.694852
G1 X116.588 Y92.533 E.06766
G1 X116.144 Y92.704 E.02579
;WIDTH:0.657642
G1 X115.647 Y93.13 E.03346
;WIDTH:0.649999
G1 X115.401 Y93.612 E.02732
G1 X115.376 Y93.779 E.00852
M204 S1000
;WIPE_START
G1 F8640
G1 X115.336 Y94.05 E-.06325
G1 X115.336 Y96.379 E-.53777
G1 X114.472 Y94.883 E-.39898
;WIPE_END
G1 Z.4 F720
G1 X94.331 Y92.533 F10800
G1 Z.2 F720
G1 E1 F1500
M204 S800
;WIDTH:0.694852
G1 F1200
G1 X93.933 Y92.669 E.0228
;WIDTH:0.680718
G1 X93.442 Y93.047 E.03286
;WIDTH:0.675426
G1 X93.182 Y93.54 E.02931
G1 X92.616 Y92.334 E.07007
G1 X93.094 Y92.523 E.02703
G1 X93.203 Y92.523 E.00573
;WIDTH:0.694852
G1 X94.241 Y92.532 E.05627
M204 S1000
;WIPE_START
G1 F8640
G1 X93.933 Y92.669 E-.07784
G1 X93.442 Y93.047 E-.14308
G1 X93.182 Y93.54 E-.1287
G1 X92.616 Y92.334 E-.30761
G1 X93.094 Y92.523 E-.11869
G1 X93.203 Y92.523 E-.02517
G1 X94.064 Y92.53 E-.19891
;WIPE_END
G1 Z.4 F720
G1 X93.205 Y111.795 F10800
G1 Z.2 F720
G1 E1 F1500
M204 S800
;WIDTH:0.649999
G1 F1200
G1 X93.2 Y126.042 E.71917
G1 X78.815 Y126.042 E.72614
G1 X78.815 Y121.436 E.23251
G1 X79.64 Y121.318 E.04207
G1 X82.595 Y120.509 E.15465
G1 X83.041 Y120.344 E.024
G1 X85.813 Y119.035 E.15474
G1 X86.224 Y118.795 E.02403
G1 X88.727 Y117.025 E.15475
G1 X89.09 Y116.718 E.024
G1 X91.249 Y114.54 E.15481
G1 X91.553 Y114.175 E.02398
G1 X93.154 Y111.869 E.14171
M204 S1000
;WIPE_START
G1 F8640
G1 X93.168 Y116.2 E-1
;WIPE_END
G1 Z.4 F720
G1 X93.813 Y109.199 F10800
G1 Z.2 F720
G1 E1 F1500
M204 S800
G1 F1200
G1 X93.807 Y126.649 E.88086
G1 X78.208 Y126.649 E.78742
G1 X78.208 Y120.883 E.29106
G1 X79.48 Y120.732 E.06466
G1 X82.435 Y119.924 E.15464
G1 X82.781 Y119.795 E.01864
G1 X85.554 Y118.486 E.15479
G1 X85.873 Y118.3 E.01864
G1 X88.377 Y116.529 E.15482
G1 X88.659 Y116.29 E.01866
G1 X90.817 Y114.113 E.15473
G1 X91.054 Y113.829 E.01867
G1 X92.803 Y111.31 E.1548
G1 X92.986 Y110.989 E.01865
G1 X93.775 Y109.281 E.09497
M204 S1000
;WIPE_START
G1 F8640
G1 X93.783 Y113.612 E-1
;WIPE_END
G1 Z.4 F720
G1 X94.422 Y105.39 F10800
G1 Z.2 F720
G1 E1 F1500
M204 S800
G1 F1200
G1 X94.413 Y127.257 E1.10382
G1 X77.601 Y127.257 E.84865
G1 X77.601 Y120.33 E.34967
G1 X79.061 Y120.194 E.07402
G1 X79.32 Y120.147 E.01329
G1 X82.274 Y119.338 E.15461
G1 X82.522 Y119.247 E.01333
G1 X85.295 Y117.937 E.15481
G1 X85.523 Y117.804 E.01332
G1 X88.026 Y116.034 E.15475
G1 X88.228 Y115.863 E.01336
G1 X90.386 Y113.686 E.15473
G1 X90.555 Y113.483 E.01333
G1 X92.304 Y110.964 E.1548
G1 X92.435 Y110.735 E.01332
G1 X93.721 Y107.951 E.1548
G1 X93.81 Y107.703 E.0133
G1 X94.399 Y105.477 E.11623
M204 S1000
;WIPE_START
G1 F8640
G1 X94.402 Y109.808 E-1
;WIPE_END
G1 Z.4 F720
G1 X72.706 Y121.436 F10800
G1 Z.2 F720
G1 E1 F1500
M204 S800
G1 F1200
G1 X72.701 Y126.042 E.23251
G1 X58.319 Y126.042 E.72599
G1 X58.317 Y111.792 E.71932
M73 P1 R108
M73 Q1 S110
G1 X59.972 Y114.175 E.14646
G1 X60.276 Y114.54 E.02398
G1 X62.435 Y116.718 E.15481
G1 X62.797 Y117.025 E.02396
G1 X64.874 Y118.493 E.12839
G1 X65.711 Y119.035 E.05034
G1 X68.484 Y120.344 E.15479
G1 X68.93 Y120.509 E.024
G1 X71.884 Y121.318 E.15461
G1 X72.617 Y121.423 E.03738
M204 S1000
G1 X73.314 Y120.883 F10800
M204 S800
G1 F1200
G1 X73.308 Y126.649 E.29106
G1 X57.712 Y126.649 E.78727
G1 X57.71 Y109.195 E.88106
G1 X58.538 Y110.989 E.09974
G1 X58.722 Y111.31 E.01868
G1 X60.47 Y113.829 E.15477
G1 X60.707 Y114.113 E.01867
G1 X62.866 Y116.29 E.15477
G1 X63.148 Y116.529 E.01866
G1 X65.224 Y117.998 E.12838
M73 P1 R107
G1 X65.971 Y118.486 E.04504
G1 X68.743 Y119.796 E.15477
G1 X69.09 Y119.924 E.01867
G1 X72.044 Y120.732 E.15459
G1 X72.407 Y120.798 E.01862
G1 X73.224 Y120.875 E.04142
M204 S1000
G1 X73.922 Y120.33 F10800
M204 S800
G1 F1200
G1 X73.914 Y127.257 E.34967
G1 X57.105 Y127.257 E.8485
G1 X57.102 Y105.386 E1.10402
G1 X57.714 Y107.703 E.12097
G1 X57.804 Y107.951 E.01332
G1 X59.089 Y110.735 E.15478
G1 X59.22 Y110.964 E.01332
G1 X60.969 Y113.483 E.1548
G1 X61.138 Y113.686 E.01333
G1 X63.297 Y115.863 E.15477
G1 X63.498 Y116.034 E.01332
G1 X65.575 Y117.502 E.12839
G1 X66.23 Y117.937 E.03969
G1 X69.002 Y119.247 E.15477
G1 X69.25 Y119.338 E.01333
G1 X72.204 Y120.147 E.15461
G1 X72.464 Y120.194 E.01334
G1 X73.832 Y120.322 E.06936
M204 S1000
;WIPE_START
G1 F8640
G1 X73.883 Y124.653 E-1
;WIPE_END
G1 Z.4 F720
G1 X115.957 Y93.959 F10800
G1 Z.2 F720
G1 E1 F1500
M204 S800
G1 F1200
G1 X115.943 Y94.05 E.00465
G1 X115.943 Y98.645 E.23195
G1 X113.028 Y93.595 E.29434
G1 X112.724 Y93.279 E.02213
G1 X112.239 Y93.139 E.02548
G1 X94.598 Y93.139 E.8905
G1 X94.203 Y93.229 E.02045
M73 Q1 S109
G1 X93.91 Y93.453 E.01862
G1 X93.716 Y93.821 E.021
;WIDTH:0.695163
G1 X93.7 Y94.074 E.01375
;WIDTH:0.740327
G1 X93.683 Y94.328 E.01476
G1 X93.858 Y94.852 E.03204
;WIDTH:0.742306
G1 X94.443 Y96.83 E.11995
G1 X94.651 Y97.854 E.06077
;WIDTH:0.698593
G1 X94.689 Y98.07 E.01196
;WIDTH:0.742319
G1 X94.849 Y99.103 E.06079
G1 X94.987 Y101.161 E.11995
;WIDTH:0.715745
G1 X94.997 Y101.39 E.01282
;WIDTH:0.758797
G1 X94.975 Y102.416 E.06109
;WIDTH:0.801849
G1 X94.953 Y103.443 E.06482
;WIDTH:0.8449
G1 X94.931 Y104.469 E.06843
G1 X94.948 Y104.716 E.01651
;WIDTH:0.812169
G1 X94.968 Y105.483 E.04908
;WIDTH:0.771627
G1 X94.988 Y106.249 E.04643
;WIDTH:0.731084
G1 X95.008 Y107.016 E.0439
;WIDTH:0.690542
G1 X95.028 Y107.782 E.04126
;WIDTH:0.649999
G1 X95.02 Y127.864 E1.01372
G1 X76.994 Y127.864 E.90993
G1 X76.994 Y119.777 E.40822
G1 X79.004 Y119.589 E.10191
G1 X79.16 Y119.561 E.008
G1 X82.114 Y118.753 E.15459
G1 X82.263 Y118.698 E.00802
G1 X85.035 Y117.388 E.15477
G1 X85.172 Y117.308 E.00801
G1 X87.676 Y115.538 E.15479
G1 X87.796 Y115.436 E.00795
G1 X89.955 Y113.258 E.15481
G1 X90.057 Y113.136 E.00803
G1 X91.805 Y110.618 E.15473
G1 X91.884 Y110.48 E.00803
G1 X93.169 Y107.697 E.15473
G1 X93.223 Y107.547 E.00805
;WIDTH:0.690542
G1 X93.439 Y106.812 E.04125
;WIDTH:0.731084
G1 X93.654 Y106.076 E.04387
;WIDTH:0.771627
G1 X93.87 Y105.34 E.04648
;WIDTH:0.812169
G1 X94.085 Y104.604 E.04904
;WIDTH:0.8449
G1 X94.131 Y104.435 E.01168
G1 X94.196 Y103.415 E.06816
;WIDTH:0.80202
G1 X94.26 Y102.395 E.06451
;WIDTH:0.75914
G1 X94.325 Y101.374 E.06093
;WIDTH:0.716259
G1 X94.321 Y101.211 E.00913
;WIDTH:0.742319
G1 X94.152 Y99.155 E.11997
G1 X94.04 Y98.157 E.0584
;WIDTH:0.698593
G1 X94.011 Y97.997 E.00887
;WIDTH:0.742306
G1 X93.771 Y97.023 E.05834
G1 X93.216 Y95.036 E.11998
;WIDTH:0.740327
G1 X93.034 Y94.577 E.02863
G1 X92.854 Y94.247 E.0218
;WIDTH:0.695163
G1 X92.674 Y93.917 E.02039
;WIDTH:0.649999
G1 X92.309 Y93.139 E.04338
;WIDTH:0.681054
G1 X92.084 Y92.622 E.02992
;WIDTH:0.712109
G1 X91.859 Y92.106 E.03132
;WIDTH:0.724828
G1 X91.771 Y91.944 E.01045
G1 X90.011 Y89.458 E.17271
;WIDTH:0.714955
G1 X89.888 Y89.308 E.01084
G1 X87.737 Y87.165 E.16967
;WIDTH:0.712641
G1 X87.61 Y87.062 E.00911
;WIDTH:0.721254
G1 X85.263 Y85.414 E.16175
G1 X84.953 Y85.228 E.02039
;WIDTH:0.728539
G1 X82.563 Y84.1 E.15067
G1 X82.02 Y83.882 E.03336
;WIDTH:0.734474
G1 X79.689 Y83.237 E.13908
G1 X78.898 Y83.064 E.04656
;WIDTH:0.713759
G1 X77.806 Y82.956 E.06121
;WIDTH:0.739074
G1 X76.715 Y82.848 E.06346
G1 X76.198 Y82.823 E.02996
;WIDTH:0.712116
G1 X75.681 Y82.799 E.0288
;WIDTH:0.713747
G1 X74.7 Y82.87 E.05486
;WIDTH:0.742336
G1 X73.718 Y82.941 E.05726
G1 X73.173 Y83.004 E.03191
;WIDTH:0.713706
G1 X72.627 Y83.066 E.03065
;WIDTH:0.685076
G1 X72.468 Y83.094 E.00862
;WIDTH:0.713735
G1 X71.622 Y83.305 E.04863
;WIDTH:0.744256
G1 X70.776 Y83.515 E.05083
G1 X70.141 Y83.701 E.03859
;WIDTH:0.713716
G1 X69.506 Y83.887 E.03691
;WIDTH:0.683175
G1 X69.355 Y83.942 E.00856
;WIDTH:0.713714
G1 X68.66 Y84.248 E.04236
;WIDTH:0.744817
G1 X67.965 Y84.554 E.04432
