; generated by PrusaSlicer 2.6.1+win64 on 2023-09-11 at 17:49:49 UTC


;
;
; 

; external perimeters extrusion width = 0.65mm
; perimeters extrusion width = 0.65mm
; infill extrusion width = 0.65mm
; solid infill extrusion width = 0.65mm
; top infill extrusion width = 0.60mm
; first layer extrusion width = 0.65mm

M73 P0 R49
M73 Q0 S50
M201 X1000 Y1000 Z200 E5000 ; sets maximum accelerations, mm/sec^2
M203 X200 Y200 Z12 E120 ; sets maximum feedrates, mm / sec
M204 S1250 T1250 ; sets acceleration (S) and retract acceleration (R), mm/sec^2
M205 X8.00 Y8.00 Z0.40 E4.50 ; sets the jerk limits, mm/sec
M205 S0 T0 ; sets the minimum extruding and travel feed rate, mm/sec
;TYPE:Custom
M862.3 P "MK3S" ; printer model check
M862.1 P0.6 ; nozzle diameter check
M115 U3.12.2 ; tell printer latest fw version
G90 ; use absolute coordinates
M83 ; extruder relative mode
M104 S240 ; set extruder temp
M140 S85 ; set bed temp
M190 S85 ; wait for bed temp
M109 S240 ; wait for extruder temp
G28 W ; home all without mesh bed level
G80 ; mesh bed leveling

G1 Z0.2 F720
G1 Y-3 F1000 ; go outside print area
G92 E0
G1 X60 E9 F1000 ; intro line
G1 X100 E12.5 F1000 ; intro line

G92 E0
M221 S95
G21 ; set units to millimeters
G90 ; use absolute coordinates
M83 ; use relative distances for extrusion
M900 K0.04 ; Filament gcode LA 1.5
M900 K24 ; Filament gcode LA 1.0
M107
;LAYER_CHANGE
;Z:0.2
;HEIGHT:0.2
;BEFORE_LAYER_CHANGE
G92 E0.0
;0.2


G1 E-1 F2100
G1 Z.2 F720
;AFTER_LAYER_CHANGE
;0.2
G1 Z.4
G1 X105.811 Y87.353 F10800
G1 Z.2 F720
G1 E1 F1500
M204 S800
;TYPE:Skirt/Brim
;WIDTH:0.65
G1 F1200
G1 X108.447 Y84.408 E.19951
G1 X111.53 Y81.933 E.19957
G1 X114.975 Y79.995 E.19953
G1 X118.691 Y78.647 E.19954
G1 X122.542 Y77.93 E.19773
G1 X126.956 Y77.877 E.22283
G1 X130.857 Y78.516 E.19954
G1 X134.207 Y79.617 E.178
G1 X137.726 Y81.418 E.19955
G1 X148.061 Y89.255 E.65473
G1 X148.914 Y90.403 E.0722
G1 X149.082 Y91.325 E.04731
G1 X149.082 Y129.549 E1.9295
G1 X148.69 Y130.924 E.07217
G1 X147.631 Y131.886 E.07222
G1 X146.475 Y132.156 E.05992
G1 X103.525 Y132.156 E2.16807
G1 X102.15 Y131.764 E.07217
G1 X101.188 Y130.705 E.07222
G1 X100.918 Y129.549 E.05992
G1 X100.918 Y101.899 E1.39574
G1 X101.286 Y97.748 E.21036
G1 X102.284 Y93.924 E.1995
G1 X103.691 Y90.69 E.17803
G1 X105.762 Y87.429 E.195
M204 S1000
; printing object Motor_Bracket_37,3mm_rev0-3 id:0 copy 0
;WIPE_START
G1 F8640
G1 X108.447 Y84.408 E-.93325
G1 X108.672 Y84.227 E-.06675
;WIPE_END
G1 Z.4 F720
G1 X121.972 Y123.09 F10800
G1 Z.2 F720
G1 E1 F1500
M204 S800
;TYPE:Perimeter
;WIDTH:0.649999
G1 F1200
G1 X121.972 Y126.596 E.17698
G1 X106.478 Y126.596 E.78212
G1 X106.478 Y112.663 E.70332
G1 X108.392 Y115.436 E.17008
G1 X108.697 Y115.801 E.02401
G1 X110.991 Y118.114 E.16444
G1 X111.354 Y118.421 E.024
G1 X114.014 Y120.302 E.16445
G1 X114.431 Y120.544 E.02434
G1 X117.421 Y121.947 E.16672
G1 X117.862 Y122.109 E.02372
G1 X120.567 Y122.848 E.14155
G1 X121.42 Y123.039 E.04412
G1 X121.882 Y123.082 E.02342
M204 S1000
G1 X122.579 Y122.537 F10800
M204 S800
G1 F1200
G1 X122.579 Y127.203 E.23553
G1 X105.871 Y127.203 E.8434
G1 X105.871 Y109.978 E.8695
G1 X106.849 Y112.093 E.11762
M73 Q0 S49
G1 X107.032 Y112.414 E.01865
G1 X108.891 Y115.089 E.16444
G1 X109.128 Y115.374 E.01871
G1 X111.422 Y117.687 E.16444
G1 X111.704 Y117.925 E.01863
G1 X114.365 Y119.806 E.16449
G1 X114.689 Y119.994 E.01891
G1 X117.679 Y121.397 E.16672
G1 X118.022 Y121.523 E.01845
G1 X120.727 Y122.262 E.14155
G1 X121.477 Y122.434 E.03884
G1 X122.489 Y122.529 E.05131
M204 S1000
G1 X123.186 Y121.984 F10800
M204 S800
G1 F1200
G1 X123.186 Y127.81 E.29409
G1 X105.264 Y127.81 E.90468
G1 X105.264 Y106.065 E1.09766
G1 X105.944 Y108.632 E.13405
G1 X106.033 Y108.881 E.01335
G1 X107.4 Y111.838 E.16444
G1 X107.531 Y112.067 E.01332
G1 X109.39 Y114.743 E.16448
G1 X109.559 Y114.946 E.01333
G1 X111.853 Y117.259 E.16444
G1 X112.055 Y117.43 E.01336
G1 X114.715 Y119.31 E.16442
G1 X114.947 Y119.445 E.01355
G1 X117.937 Y120.848 E.16672
G1 X118.182 Y120.938 E.01318
G1 X120.887 Y121.677 E.14155
G1 X121.533 Y121.83 E.03351
G1 X123.096 Y121.976 E.07924
M204 S1000
;WIPE_START
G1 F8640
G1 X123.163 Y126.306 E-1
;WIPE_END
G1 Z.4 F720
G1 X128.078 Y123.09 F10800
G1 Z.2 F720
G1 E1 F1500
M204 S800
G1 F1200
G1 X129.097 Y122.954 E.05189
G1 X132.233 Y122.096 E.16412
G1 X132.679 Y121.932 E.02399
G1 X135.625 Y120.541 E.16445
G1 X136.036 Y120.302 E.024
G1 X138.696 Y118.421 E.16445
G1 X139.059 Y118.114 E.024
G1 X141.354 Y115.801 E.16448
G1 X141.658 Y115.436 E.02398
G1 X143.519 Y112.762 E.16445
G1 X143.522 Y126.596 E.69832
G1 X128.078 Y126.596 E.77959
G1 X128.078 Y123.18 E.17244
M204 S1000
G1 X127.471 Y122.537 F10800
M204 S800
G1 F1200
G1 X128.574 Y122.434 E.05592
G1 X128.937 Y122.368 E.01862
G1 X132.073 Y121.511 E.16411
G1 X132.42 Y121.383 E.01867
G1 X135.366 Y119.992 E.16445
G1 X135.686 Y119.806 E.01868
M73 Q1 S49
G1 X138.346 Y117.925 E.16445
G1 X138.628 Y117.687 E.01863
M73 P1 R49
G1 X140.923 Y115.374 E.16448
G1 X141.159 Y115.089 E.01868
G1 X143.018 Y112.414 E.16444
G1 X143.202 Y112.093 E.01868
G1 X144.129 Y110.087 E.11155
G1 X144.129 Y127.203 E.864
G1 X127.471 Y127.203 E.84088
G1 X127.471 Y122.627 E.23099
M204 S1000
G1 X126.864 Y121.984 F10800
M204 S800
G1 F1200
G1 X128.518 Y121.83 E.08385
G1 X128.777 Y121.782 E.0133
G1 X131.913 Y120.925 E.16411
G1 X132.161 Y120.834 E.01333
G1 X135.107 Y119.443 E.16445
G1 X135.335 Y119.31 E.01332
G1 X137.996 Y117.43 E.16447
G1 X138.197 Y117.259 E.01332
G1 X140.492 Y114.946 E.16448
G1 X140.661 Y114.743 E.01333
G1 X142.519 Y112.067 E.16445
G1 X142.65 Y111.838 E.01332
G1 X144.017 Y108.881 E.16444
G1 X144.107 Y108.632 E.01337
G1 X144.736 Y106.255 E.12412
G1 X144.736 Y127.81 E1.08807
G1 X126.864 Y127.81 E.90216
G1 X126.864 Y122.074 E.28955
M204 S1000
;WIPE_START
G1 F8640
G1 X128.518 Y121.83 E-.38605
G1 X128.777 Y121.782 E-.06082
G1 X131.088 Y121.151 E-.55313
;WIPE_END
G1 Z.4 F720
G1 X144.736 Y97.525 F10800
G1 Z.2 F720
G1 E1 F1500
M204 S800
G1 F1200
G1 X144.07 Y95.062 E.12879
G1 X143.979 Y94.814 E.01333
G1 X143.103 Y92.945 E.10419
G1 X143.628 Y93.064 E.02717
G1 X144.736 Y93.064 E.05593
G1 X144.736 Y97.435 E.22064
M204 S1000
;WIPE_START
G1 F8640
G1 X144.07 Y95.062 E-.5691
G1 X143.979 Y94.814 E-.061
G1 X143.299 Y93.363 E-.3699
;WIPE_END
G1 Z.4 F720
G1 X144.161 Y93.61 F10800
G1 Z.2 F720
G1 E1 F1500
M204 S800
;WIDTH:0.661716
G1 F1200
G1 X144.084 Y93.61 E.00396
G1 X144.045 Y93.677 E.00399
G1 X144.084 Y93.744 E.00399
G1 X144.161 Y93.744 E.00396
G1 X144.2 Y93.677 E.00399
M204 S1000
;WIPE_START
G1 F8640
G1 X144.161 Y93.744 E-.0179
G1 X144.084 Y93.744 E-.01778
G1 X144.045 Y93.677 E-.0179
G1 X144.084 Y93.61 E-.0179
G1 X144.161 Y93.61 E-.01778
;WIPE_END
G1 E-.91074 F2100
G1 Z.4 F720
G1 X123.793 Y121.431 F10800
G1 Z.2 F720
G1 E1 F1500
M204 S800
;WIDTH:0.649999
G1 F1200
G1 X123.793 Y128.417 E.35265
G1 X104.657 Y128.417 E.96596
G1 X104.657 Y108.721 E.99423
;WIDTH:0.692195
G1 X104.678 Y107.906 E.04401
;WIDTH:0.734391
G1 X104.699 Y107.092 E.04682
;WIDTH:0.776587
G1 X104.721 Y106.277 E.04974
;WIDTH:0.818782
G1 X104.742 Y105.463 E.05253
;WIDTH:0.853862
G1 X104.759 Y105.214 E.01683
G1 X104.736 Y104.13 E.07311
;WIDTH:0.808061
G1 X104.713 Y103.045 E.06905
;WIDTH:0.762259
G1 X104.69 Y101.961 E.06485
;WIDTH:0.716457
G1 X104.705 Y101.717 E.01369
;WIDTH:0.719269
G1 X104.967 Y98.603 E.17575
G1 X105.056 Y98.193 E.02359
;WIDTH:0.726206
G1 X105.779 Y95.37 E.16557
G1 X106.007 Y94.794 E.0352
;WIDTH:0.732141
G1 X107.108 Y92.313 E.15556
G1 X107.531 Y91.612 E.04692
;WIDTH:0.737073
G1 X108.917 Y89.515 E.14509
G1 X109.267 Y89.106 E.03107
;WIDTH:0.711384
G1 X109.581 Y88.741 E.02676
;WIDTH:0.713347
G1 X110.37 Y87.896 E.06445
;WIDTH:0.740999
G1 X111.16 Y87.05 E.06719
G1 X111.629 Y86.657 E.03552
;WIDTH:0.713299
G1 X112.055 Y86.302 E.03091
;WIDTH:0.715504
G1 X112.915 Y85.644 E.06056
;WIDTH:0.745409
G1 X113.775 Y84.985 E.06329
G1 X114.315 Y84.664 E.03669
;WIDTH:0.714297
G1 X114.807 Y84.375 E.03185
;WIDTH:0.683185
G1 X114.999 Y84.268 E.0117
;WIDTH:0.713385
G1 X115.845 Y83.821 E.05334
;WIDTH:0.745853
G1 X116.691 Y83.373 E.05595
G1 X117.372 Y83.111 E.04265
;WIDTH:0.713445
G1 X118.001 Y82.872 E.03752
;WIDTH:0.681036
G1 X118.205 Y82.8 E.01148
;WIDTH:0.713405
G1 X119.018 Y82.53 E.04776
;WIDTH:0.746777
G1 X119.832 Y82.261 E.05017
G1 X120.645 Y82.095 E.04856
;WIDTH:0.71342
G1 X121.403 Y81.944 E.04309
;WIDTH:0.680146
G1 X121.616 Y81.907 E.01145
;WIDTH:0.713425
G1 X122.364 Y81.791 E.0422
;WIDTH:0.746703
G1 X123.17 Y81.671 E.04769
G1 X124.042 Y81.645 E.05105
;WIDTH:0.713401
G1 X124.913 Y81.618 E.04858
;WIDTH:0.681268
G1 X125.13 Y81.617 E.01152
;WIDTH:0.713446
G1 X125.787 Y81.626 E.03663
;WIDTH:0.745624
G1 X126.502 Y81.639 E.04178
G1 X127.465 Y81.771 E.05679
;WIDTH:0.713379
G1 X128.428 Y81.904 E.0542
;WIDTH:0.683395
G1 X128.642 Y81.938 E.01154
;WIDTH:0.713472
G1 X129.19 Y82.038 E.03106
;WIDTH:0.743549
G1 X129.794 Y82.152 E.03581
G1 X130.817 Y82.472 E.06245
;WIDTH:0.713363
G1 X131.84 Y82.793 E.05977
;WIDTH:0.686532
G1 X132.046 Y82.862 E.01163
;WIDTH:0.713502
G1 X132.502 Y83.029 E.02708
;WIDTH:0.740472
G1 X132.959 Y83.196 E.02822
G1 X134.003 Y83.727 E.06794
;WIDTH:0.713345
G1 X135.048 Y84.258 E.06534
;WIDTH:0.690677
G1 X135.24 Y84.361 E.01174
;WIDTH:0.736394
G1 X135.91 Y84.742 E.04444
G1 X137.956 Y86.256 E.14677
;WIDTH:0.695829
G1 X138.129 Y86.39 E.01188
;WIDTH:0.731306
G1 X138.57 Y86.75 E.03259
G1 X140.475 Y88.726 E.15711
;WIDTH:0.695299
G1 X140.498 Y88.75 E.0018
;WIDTH:0.725226
G1 X140.867 Y89.166 E.03155
G1 X142.53 Y91.596 E.16706
;WIDTH:0.70134
G1 X142.542 Y91.613 E.00114
;WIDTH:0.737222
G1 X142.838 Y92.082 E.03202
G1 X143.037 Y92.225 E.01415
;WIDTH:0.693611
G1 X143.235 Y92.368 E.01321
;WIDTH:0.649999
G1 X143.628 Y92.457 E.02034
G1 X145.343 Y92.457 E.08657
G1 X145.343 Y93.677 E.06158
G1 X145.343 Y94.974 E.06547
;WIDTH:0.686848
G1 X145.324 Y96.06 E.05816
;WIDTH:0.723696
G1 X145.306 Y97.146 E.06148
;WIDTH:0.760544
G1 X145.288 Y98.232 E.06481
;WIDTH:0.799171
G1 X145.268 Y98.355 E.00784
;WIDTH:0.837797
G1 X145.249 Y98.478 E.00823
G1 X145.273 Y99.564 E.0718
;WIDTH:0.788994
G1 X145.298 Y100.65 E.06739
;WIDTH:0.740191
G1 X145.322 Y101.736 E.06298
;WIDTH:0.691388
G1 X145.322 Y101.954 E.01175
;WIDTH:0.736955
G1 X145.299 Y103.04 E.06269
;WIDTH:0.782817
G1 X145.276 Y104.126 E.06683
;WIDTH:0.828679
G1 X145.253 Y105.212 E.07097
G1 X145.268 Y105.456 E.01597
;WIDTH:0.799298
G1 X145.293 Y106.542 E.06832
;WIDTH:0.749532
G1 X145.318 Y107.628 E.06382
;WIDTH:0.699766
G1 X145.343 Y108.714 E.05933
;WIDTH:0.649999
G1 X145.343 Y128.417 E.99458
G1 X126.257 Y128.417 E.96344
G1 X126.257 Y121.431 E.35265
G1 X128.462 Y121.225 E.11179
G1 X128.617 Y121.197 E.00795
G1 X131.753 Y120.34 E.16411
G1 X131.902 Y120.285 E.00802
G1 X134.848 Y118.894 E.16445
G1 X134.985 Y118.814 E.00801
G1 X137.645 Y116.934 E.16442
G1 X137.766 Y116.832 E.00799
G1 X140.061 Y114.519 E.16448
G1 X140.162 Y114.397 E.00799
G1 X142.021 Y111.721 E.16448
G1 X142.099 Y111.584 E.00796
G1 X143.466 Y108.626 E.16449
G1 X143.52 Y108.477 E.008
;WIDTH:0.699766
G1 X143.822 Y107.434 E.05931
;WIDTH:0.749532
G1 X144.123 Y106.39 E.06384
;WIDTH:0.799298
G1 X144.425 Y105.347 E.06829
;WIDTH:0.828679
G1 X144.469 Y105.179 E.01135
G1 X144.538 Y104.095 E.07097
;WIDTH:0.782817
G1 X144.607 Y103.011 E.06683
;WIDTH:0.736955
G1 X144.675 Y101.927 E.06268
;WIDTH:0.691388
G1 X144.675 Y101.765 E.00874
;WIDTH:0.740191
G1 X144.602 Y100.681 E.06299
;WIDTH:0.788994
G1 X144.529 Y99.597 E.0674
;WIDTH:0.837797
G1 X144.456 Y98.513 E.07181
G1 X144.422 Y98.432 E.00581
;WIDTH:0.799171
G1 X144.388 Y98.351 E.00552
;WIDTH:0.760544
G1 X144.086 Y97.308 E.06479
;WIDTH:0.723696
G1 X143.785 Y96.264 E.0615
;WIDTH:0.686848
G1 X143.484 Y95.221 E.05812
;WIDTH:0.649999
G1 X143.429 Y95.072 E.00802
G1 X142.503 Y93.094 E.11025
;WIDTH:0.693611
G1 X142.37 Y92.759 E.0195
;WIDTH:0.737222
G1 X142.237 Y92.424 E.02081
G1 X141.988 Y91.97 E.02989
;WIDTH:0.725226
G1 X140.305 Y89.554 E.16705
G1 X140.008 Y89.182 E.02701
;WIDTH:0.731306
G1 X138.078 Y87.231 E.15708
G1 X137.575 Y86.779 E.03871
;WIDTH:0.736394
G1 X135.503 Y85.303 E.14669
G1 X135.133 Y85.069 E.02524
;WIDTH:0.711306
G1 X134.764 Y84.834 E.02431
;WIDTH:0.713345
G1 X133.707 Y84.328 E.06533
;WIDTH:0.740472
G1 X132.65 Y83.821 E.068
G1 X132.154 Y83.613 E.0312
;WIDTH:0.711824
G1 X131.658 Y83.406 E.02989
;WIDTH:0.713363
G1 X130.626 Y83.115 E.05977
;WIDTH:0.743549
G1 X129.594 Y82.823 E.06248
G1 X129.052 Y82.694 E.03246
;WIDTH:0.713472
G1 X128.51 Y82.564 E.03108
;WIDTH:0.683395
G1 X128.351 Y82.537 E.00859
;WIDTH:0.713379
G1 X127.384 Y82.437 E.0542
;WIDTH:0.745624
G1 X126.417 Y82.336 E.05681
G1 X125.762 Y82.295 E.03835
;WIDTH:0.713446
G1 X125.106 Y82.254 E.03665
;WIDTH:0.681268
G1 X124.945 Y82.254 E.00855
;WIDTH:0.713401
G1 X124.074 Y82.314 E.04867
;WIDTH:0.746703
G1 X123.204 Y82.373 E.05103
G1 X122.452 Y82.455 E.04427
;WIDTH:0.713425
G1 X121.699 Y82.538 E.04224
;WIDTH:0.680146
G1 X121.54 Y82.566 E.00855
;WIDTH:0.71342
G1 X120.79 Y82.749 E.04304
;WIDTH:0.746777
G1 X120.04 Y82.933 E.0452
G1 X119.217 Y83.17 E.05012
;WIDTH:0.713405
G1 X118.393 Y83.408 E.04782
;WIDTH:0.681036
G1 X118.242 Y83.462 E.00851
;WIDTH:0.713445
G1 X117.625 Y83.731 E.03753
;WIDTH:0.745853
G1 X117.009 Y84 E.03929
G1 X116.149 Y84.418 E.05589
;WIDTH:0.713385
G1 X115.288 Y84.837 E.05338
;WIDTH:0.683185
G1 X115.146 Y84.918 E.0087
;WIDTH:0.714297
G1 X114.67 Y85.233 E.03186
;WIDTH:0.745409
G1 X114.194 Y85.548 E.03334
G1 X113.317 Y86.183 E.06325
;WIDTH:0.715504
G1 X112.439 Y86.818 E.0606
;WIDTH:0.688886
G1 X112.316 Y86.919 E.00855
;WIDTH:0.714943
G1 X111.99 Y87.225 E.02498
;WIDTH:0.740999
G1 X111.664 Y87.532 E.02599
G1 X110.855 Y88.359 E.06715
;WIDTH:0.713347
G1 X110.045 Y89.185 E.06449
;WIDTH:0.689986
G1 X109.94 Y89.308 E.0087
;WIDTH:0.737073
G1 X109.493 Y89.903 E.04295
G1 X108.067 Y91.974 E.14513
;WIDTH:0.694989
G1 X107.983 Y92.113 E.00881
;WIDTH:0.732141
G1 X107.736 Y92.597 E.03114
G1 X106.601 Y95.063 E.15557
;WIDTH:0.726206
G1 X106.44 Y95.542 E.02871
G1 X105.692 Y98.359 E.1656
;WIDTH:0.719269
G1 X105.641 Y98.661 E.01722
G1 X105.367 Y101.764 E.17519
;WIDTH:0.716457
G1 X105.363 Y101.932 E.00941
;WIDTH:0.762259
G1 X105.431 Y103.015 E.06491
;WIDTH:0.808061
G1 X105.5 Y104.097 E.06898
;WIDTH:0.853862
G1 X105.569 Y105.18 E.07317
G1 X105.616 Y105.349 E.01183
;WIDTH:0.818782
G1 X105.844 Y106.131 E.05255
;WIDTH:0.776587
G1 X106.073 Y106.913 E.04971
;WIDTH:0.734391
G1 X106.302 Y107.695 E.04685
;WIDTH:0.692195
G1 X106.531 Y108.477 E.04399
;WIDTH:0.649999
G1 X106.584 Y108.626 E.00798
G1 X107.951 Y111.584 E.16449
G1 X108.03 Y111.721 E.00798
G1 X109.888 Y114.397 E.16445
G1 X109.99 Y114.519 E.00803
G1 X112.284 Y116.832 E.16444
G1 X112.405 Y116.934 E.00799
G1 X115.066 Y118.814 E.16447
G1 X115.204 Y118.895 E.00808
G1 X118.195 Y120.298 E.16677
G1 X118.342 Y120.352 E.00791
G1 X121.047 Y121.091 E.14155
G1 X121.589 Y121.225 E.02818
G1 X123.703 Y121.422 E.10717
M204 S1000
G1 X124.4 Y120.878 F10800
M204 S800
;TYPE:External perimeter
G1 F1200
G1 X124.4 Y129.024 E.4112
G1 X104.05 Y129.024 E1.02724
G1 X104.05 Y101.92 E1.36818
M73 P1 R48
G1 X104.334 Y98.47 E.17474
G1 X105.173 Y95.134 E.17364
G1 X106.546 Y91.98 E.17364
G1 X108.416 Y89.092 E.17368
G1 X110.733 Y86.549 E.17366
G1 X113.435 Y84.419 E.17368
G1 X116.448 Y82.76 E.17362
G1 X119.692 Y81.615 E.17365
G1 X123.08 Y81.016 E.17367
G1 X126.52 Y80.979 E.17366
G1 X129.92 Y81.505 E.17367
G1 X133.188 Y82.579 E.17364
G1 X136.236 Y84.174 E.17365
G1 X138.983 Y86.245 E.17366
G1 X141.354 Y88.737 E.17363
G1 X143.377 Y91.717 E.18181
G1 X143.497 Y91.82 E.00798
G1 X143.628 Y91.85 E.00678
G1 X145.95 Y91.85 E.11721
G1 X145.95 Y129.024 E1.8765
G1 X125.65 Y129.024 E1.02472
M73 P2 R48
M73 Q2 S49
G1 X125.65 Y120.878 E.4112
G1 X128.457 Y120.611 E.14233
G1 X131.593 Y119.754 E.16411
G1 X134.589 Y118.345 E.16712
G1 X137.295 Y116.438 E.16711
G1 X139.63 Y114.091 E.16712
G1 X141.548 Y111.329 E.16974
G1 X142.933 Y108.322 E.16712
G1 X143.775 Y105.12 E.16713
G1 X144.05 Y101.821 E.16711
G1 X143.748 Y98.524 E.16713
G1 X142.88 Y95.33 E.16708
G1 X141.471 Y92.334 E.16712
G1 X139.564 Y89.628 E.16711
G1 X137.62 Y87.69 E.13856
G1 X137.216 Y87.294 E.02856
G1 X134.5 Y85.401 E.16712
G1 X131.496 Y84.009 E.16713
