; generated by PrusaSlicer 2.6.0+win64 on 2023-07-22 at 18:58:25 UTC


;
;
; 

; external perimeters extrusion width = 0.65mm
; perimeters extrusion width = 0.65mm
; infill extrusion width = 0.65mm
; solid infill extrusion width = 0.65mm
; top infill extrusion width = 0.60mm
; first layer extrusion width = 0.65mm

M73 P0 R29
M73 Q0 S29
M201 X1000 Y1000 Z200 E5000 ; sets maximum accelerations, mm/sec^2
M203 X200 Y200 Z12 E120 ; sets maximum feedrates, mm / sec
M204 S1250 T1250 ; sets acceleration (S) and retract acceleration (R), mm/sec^2
M205 X8.00 Y8.00 Z0.40 E4.50 ; sets the jerk limits, mm/sec
M205 S0 T0 ; sets the minimum extruding and travel feed rate, mm/sec
;TYPE:Custom
M862.3 P "MK3S" ; printer model check
M862.1 P0.6 ; nozzle diameter check
M115 U3.12.2 ; tell printer latest fw version
G90 ; use absolute coordinates
M83 ; extruder relative mode
M104 S240 ; set extruder temp
M140 S85 ; set bed temp
M190 S85 ; wait for bed temp
M109 S240 ; wait for extruder temp
G28 W ; home all without mesh bed level
G80 ; mesh bed leveling

G1 Z0.2 F720
G1 Y-3 F1000 ; go outside print area
G92 E0
G1 X60 E9 F1000 ; intro line
G1 X100 E12.5 F1000 ; intro line

G92 E0
M221 S95
G21 ; set units to millimeters
G90 ; use absolute coordinates
M83 ; use relative distances for extrusion
M900 K0.04 ; Filament gcode LA 1.5
M900 K24 ; Filament gcode LA 1.0
M107
;LAYER_CHANGE
;Z:0.2
;HEIGHT:0.2
;BEFORE_LAYER_CHANGE
G92 E0.0
;0.2


G1 E-1 F2100
G1 Z.2 F720
;AFTER_LAYER_CHANGE
;0.2
G1 Z.4
G1 X104.116 Y88.803 F10800
G1 Z.2 F720
G1 E1 F1500
M204 S800
;TYPE:Skirt/Brim
;WIDTH:0.65
G1 F1200
G1 X107.014 Y86.114 E.19956
G1 X110.312 Y83.936 E.19951
G1 X113.887 Y82.342 E.19759
G1 X118.169 Y81.259 E.22296
G1 X121.898 Y80.961 E.18884
G1 X149.548 Y80.96 E1.39574
G1 X150.923 Y81.353 E.07219
G1 X151.885 Y82.412 E.07222
G1 X152.155 Y83.567 E.05987
G1 X152.155 Y126.432 E2.16378
G1 X151.763 Y127.808 E.07222
G1 X150.704 Y128.769 E.07219
G1 X149.548 Y129.039 E.05992
G1 X119.059 Y129.003 E1.53905
G1 X116.698 Y128.603 E.12088
M73 P0 R28
G1 X114.209 Y128.006 E.12921
G1 X110.222 Y126.204 E.22086
G1 X106.915 Y123.946 E.20214
G1 X103.769 Y120.946 E.21944
G1 X101.418 Y117.769 E.19951
G1 X99.783 Y114.644 E.17803
G1 X98.515 Y110.9 E.19954
G1 X97.876 Y106.999 E.19954
G1 X97.884 Y103.046 E.19954
G1 X98.646 Y98.734 E.22104
G1 X99.994 Y95.018 E.19954
G1 X101.932 Y91.572 E.19957
G1 X104.06 Y88.873 E.1735
M204 S1000
; printing object Motor_Bracket_37,3mm_Mirrored_rev0-1 id:0 copy 0
;WIPE_START
G1 F8640
G1 X107.014 Y86.114 E-.93332
G1 X107.255 Y85.955 E-.06668
;WIPE_END
G1 Z.4 F720
G1 X142.854 Y115.115 F10800
G1 Z.2 F720
G1 E1 F1500
M204 S800
;TYPE:Perimeter
;WIDTH:0.649999
G1 F1200
G1 X142.932 Y115.496 E.01963
G1 X143.181 Y115.893 E.02366
G1 X143.598 Y116.229 E.02703
G1 X143.953 Y116.368 E.01924
G1 X144.327 Y116.415 E.01903
G1 X147.27 Y116.415 E.14856
G1 X147.809 Y116.307 E.02775
G1 X147.809 Y124.693 E.42332
G1 X126.575 Y124.693 E1.07187
M73 P1 R28
M73 Q1 S29
G1 X128.632 Y124.149 E.1074
G1 X128.88 Y124.06 E.0133
G1 X131.838 Y122.693 E.16449
G1 X132.067 Y122.562 E.01332
G1 X134.742 Y120.703 E.16444
G1 X134.945 Y120.534 E.01333
G1 X137.258 Y118.24 E.16444
G1 X137.429 Y118.038 E.01336
G1 X138.79 Y116.112 E.11905
G1 X139.442 Y115.149 E.0587
G1 X140.833 Y112.203 E.16445
G1 X140.921 Y111.966 E.01276
G1 X141.726 Y109.108 E.14988
G1 X141.823 Y108.614 E.02541
G1 X142.048 Y106.907 E.08691
G1 X147.809 Y106.907 E.29081
G1 X147.809 Y109.983 E.15527
G1 X147.27 Y109.875 E.02775
G1 X144.327 Y109.875 E.14856
G1 X143.875 Y109.944 E.02308
G1 X143.487 Y110.129 E.0217
G1 X143.082 Y110.525 E.02859
G1 X142.879 Y110.937 E.02318
G1 X142.809 Y111.393 E.02329
G1 X142.809 Y114.898 E.17693
G1 X142.836 Y115.027 E.00665
M204 S1000
;WIPE_START
G1 F8640
G1 X142.932 Y115.496 E-.11054
G1 X143.181 Y115.893 E-.10821
G1 X143.598 Y116.229 E-.12365
G1 X143.953 Y116.368 E-.08803
G1 X144.327 Y116.415 E-.08704
G1 X146.417 Y116.415 E-.48253
;WIPE_END
G1 Z.4 F720
G1 X147.809 Y103.228 F10800
G1 Z.2 F720
G1 E1 F1500
M204 S800
G1 F1200
G1 X142.048 Y103.228 E.29081
G1 X141.822 Y101.519 E.08702
G1 X141.714 Y100.985 E.0275
G1 X141.147 Y98.971 E.10562
G1 X140.832 Y97.931 E.05485
G1 X139.442 Y94.986 E.16439
G1 X139.309 Y94.757 E.01337
G1 X137.721 Y92.51 E.13889
G1 X137.258 Y91.895 E.03886
G1 X134.945 Y89.601 E.16444
G1 X134.742 Y89.432 E.01333
G1 X132.066 Y87.573 E.16448
G1 X131.837 Y87.442 E.01332
G1 X128.88 Y86.076 E.16442
G1 X128.631 Y85.986 E.01337
G1 X126.064 Y85.307 E.13404
G1 X147.809 Y85.307 E1.09766
G1 X147.809 Y93.827 E.43008
G1 X147.269 Y93.719 E.0278
G1 X144.327 Y93.719 E.14851
G1 X144.064 Y93.742 E.01333
G1 X143.609 Y93.899 E.0243
G1 X143.185 Y94.237 E.02737
G1 X142.932 Y94.638 E.02393
G1 X142.809 Y95.237 E.03087
G1 X142.809 Y98.742 E.17693
G1 X142.866 Y99.153 E.02095
G1 X143.071 Y99.595 E.02459
G1 X143.453 Y99.983 E.02749
G1 X143.875 Y100.191 E.02375
G1 X144.327 Y100.26 E.02308
G1 X147.27 Y100.26 E.14856
G1 X147.809 Y100.152 E.02775
G1 X147.809 Y103.138 E.15073
M204 S1000
;WIPE_START
G1 F8640
G1 X143.479 Y103.206 E-1
;WIPE_END
G1 Z.4 F720
G1 X143.43 Y114.984 F10800
M73 Q1 S28
G1 Z.2 F720
G1 E1 F1500
M204 S800
G1 F1200
G1 X143.461 Y115.179 E.00997
G1 X143.523 Y115.325 E.00801
G1 X143.766 Y115.615 E.0191
G1 X143.992 Y115.744 E.01314
G1 X144.327 Y115.808 E.01722
G1 X147.27 Y115.808 E.14856
G1 X147.62 Y115.738 E.01802
;WIDTH:0.684484
G1 X148.012 Y115.454 E.02582
;WIDTH:0.727872
G1 X148.068 Y115.379 E.00533
;WIDTH:0.77126
G1 X148.123 Y115.303 E.00568
;WIDTH:0.814648
G1 X148.179 Y115.228 E.00601
;WIDTH:0.858036
G1 X148.235 Y115.152 E.0064
;WIDTH:0.901424
G1 X148.29 Y115.077 E.00664
G1 X148.312 Y115.178 E.00738
;WIDTH:0.858036
G1 X148.334 Y115.279 E.00701
;WIDTH:0.814648
G1 X148.356 Y115.381 E.0067
;WIDTH:0.77126
G1 X148.377 Y115.482 E.00625
;WIDTH:0.727872
G1 X148.399 Y115.583 E.00589
;WIDTH:0.684484
G1 X148.416 Y116.269 E.03661
;WIDTH:0.649999
G1 X148.416 Y125.3 E.45587
G1 X128.703 Y125.3 E.99509
;WIDTH:0.688657
G1 X127.617 Y125.281 E.05832
;WIDTH:0.727314
G1 X126.531 Y125.262 E.06181
;WIDTH:0.765971
G1 X125.445 Y125.242 E.0653
;WIDTH:0.786135
G1 X124.122 Y125.255 E.08176
;WIDTH:0.740272
G1 X123.036 Y125.278 E.06299
;WIDTH:0.694409
G1 X121.95 Y125.301 E.05884
;WIDTH:0.648829
G1 X121.739 Y125.301 E.01063
;WIDTH:0.696385
G1 X120.681 Y125.277 E.0575
;WIDTH:0.743941
G1 X119.564 Y125.249 E.06513
G1 X118.435 Y125.08 E.06654
;WIDTH:0.700523
G1 X118.218 Y125.043 E.01204
;WIDTH:0.740066
G1 X117.375 Y124.878 E.04979
G1 X115.029 Y124.214 E.14133
;WIDTH:0.739465
G1 X114.683 Y124.109 E.02094
;WIDTH:0.742164
G1 X112.081 Y122.881 E.16729
;WIDTH:0.737229
G1 X111.595 Y122.573 E.03322
;WIDTH:0.725225
G1 X109.166 Y120.909 E.16704
G1 X108.726 Y120.518 E.0334
;WIDTH:0.731312
G1 X106.75 Y118.613 E.15711
G1 X106.255 Y117.998 E.04519
;WIDTH:0.7364
G1 X104.742 Y115.953 E.14669
G1 X104.484 Y115.498 E.03016
;WIDTH:0.71131
G1 X104.257 Y115.091 E.0259
;WIDTH:0.713347
G1 X103.726 Y114.046 E.06534
;WIDTH:0.740473
G1 X103.195 Y113.001 E.06799
G1 X102.982 Y112.416 E.03611
;WIDTH:0.711825
G1 X102.792 Y111.883 E.03147
;WIDTH:0.713365
G1 X102.472 Y110.86 E.05975
;WIDTH:0.743552
G1 X102.151 Y109.837 E.06246
G1 X102.038 Y109.233 E.0358
;WIDTH:0.713474
G1 X101.938 Y108.685 E.03106
;WIDTH:0.683395
G1 X101.903 Y108.471 E.01155
;WIDTH:0.71338
G1 X101.771 Y107.507 E.05424
;WIDTH:0.745624
G1 X101.638 Y106.544 E.0568
G1 X101.625 Y105.83 E.04173
;WIDTH:0.713446
G1 X101.616 Y105.173 E.03663
;WIDTH:0.681268
G1 X101.618 Y104.956 E.01152
;WIDTH:0.71299
G1 X101.643 Y104.095 E.04799
;WIDTH:0.745882
G1 X101.669 Y103.234 E.05035
G1 X101.791 Y102.418 E.04823
;WIDTH:0.712531
G1 X101.907 Y101.659 E.04275
;WIDTH:0.679211
G1 X101.945 Y101.446 E.01145
;WIDTH:0.712985
G1 X102.095 Y100.688 E.04305
;WIDTH:0.746758
G1 X102.26 Y99.874 E.04861
G1 X102.529 Y99.061 E.05012
;WIDTH:0.713391
G1 X102.799 Y98.248 E.04776
;WIDTH:0.68103
G1 X102.871 Y98.043 E.01153
;WIDTH:0.713436
G1 X103.11 Y97.415 E.03746
;WIDTH:0.745841
G1 X103.372 Y96.734 E.04265
G1 X103.82 Y95.888 E.05595
;WIDTH:0.713374
G1 X104.267 Y95.042 E.05334
;WIDTH:0.683003
G1 X104.373 Y94.853 E.01153
;WIDTH:0.71346
G1 X104.662 Y94.359 E.03191
;WIDTH:0.743916
G1 X104.983 Y93.817 E.03672
G1 X105.626 Y92.978 E.06161
;WIDTH:0.713348
G1 X106.268 Y92.138 E.05894
;WIDTH:0.68597
G1 X106.404 Y91.969 E.0116
;WIDTH:0.713471
G1 X106.726 Y91.586 E.0279
;WIDTH:0.740971
G1 X107.049 Y91.203 E.02908
G1 X107.895 Y90.413 E.06719
;WIDTH:0.713327
G1 X108.741 Y89.624 E.06449
;WIDTH:0.689977
G1 X108.903 Y89.478 E.01173
;WIDTH:0.73707
G1 X109.514 Y88.96 E.04623
G1 X111.611 Y87.573 E.14512
;WIDTH:0.694983
G1 X111.796 Y87.457 E.01184
;WIDTH:0.732132
G1 X112.312 Y87.15 E.03441
G1 X114.793 Y86.05 E.15553
;WIDTH:0.694479
G1 X114.825 Y86.036 E.00189
;WIDTH:0.726213
G1 X115.369 Y85.821 E.03323
G1 X118.192 Y85.098 E.16557
;WIDTH:0.719273
G1 X118.602 Y85.01 E.02358
G1 X121.706 Y84.748 E.17519
;WIDTH:0.716421
G1 X121.96 Y84.733 E.01425
;WIDTH:0.762237
G1 X123.044 Y84.756 E.06485
;WIDTH:0.808052
G1 X124.129 Y84.779 E.06904
;WIDTH:0.853867
G1 X125.213 Y84.802 E.07311
;WIDTH:0.875276
G1 X125.462 Y84.812 E.01725
G1 X126.113 Y84.79 E.04508
;WIDTH:0.830221
G1 X126.765 Y84.767 E.04271
;WIDTH:0.785166
G1 X127.416 Y84.745 E.0402
;WIDTH:0.74011
G1 X128.068 Y84.722 E.03782
;WIDTH:0.695055
G1 X128.72 Y84.7 E.03537
;WIDTH:0.649999
G1 X148.416 Y84.699 E.99423
G1 X148.416 Y94.551 E.49732
;WIDTH:0.697168
G1 X148.392 Y94.688 E.00757
;WIDTH:0.744336
G1 X148.369 Y94.825 E.0081
;WIDTH:0.791504
G1 X148.345 Y94.963 E.00872
;WIDTH:0.838672
G1 X148.322 Y95.1 E.00919
;WIDTH:0.88584
G1 X148.298 Y95.237 E.00975
G1 X148.238 Y95.128 E.00872
;WIDTH:0.838672
G1 X148.178 Y95.018 E.00829
;WIDTH:0.791504
G1 X148.118 Y94.909 E.00774
;WIDTH:0.744336
G1 X148.058 Y94.8 E.00726
;WIDTH:0.697168
G1 X147.998 Y94.691 E.00677
;WIDTH:0.649999
G1 X147.62 Y94.396 E.0242
G1 X147.269 Y94.326 E.01807
G1 X144.208 Y94.334 E.15452
G1 X143.896 Y94.434 E.01654
G1 X143.641 Y94.637 E.01645
G1 X143.49 Y94.878 E.01436
G1 X143.416 Y95.237 E.0185
G1 X143.421 Y98.833 E.18152
G1 X143.506 Y99.136 E.01589
G1 X143.747 Y99.444 E.01974
G1 X143.949 Y99.571 E.01204
G1 X144.327 Y99.653 E.01952
G1 X147.27 Y99.652 E.14856
G1 X147.62 Y99.582 E.01802
;WIDTH:0.684484
G1 X148.012 Y99.299 E.02579
;WIDTH:0.727873
G1 X148.067 Y99.223 E.00534
;WIDTH:0.771262
G1 X148.123 Y99.148 E.00567
;WIDTH:0.814651
G1 X148.179 Y99.072 E.00606
;WIDTH:0.85804
G1 X148.235 Y98.996 E.0064
;WIDTH:0.901428
G1 X148.29 Y98.921 E.00664
G1 X148.312 Y99.022 E.00738
;WIDTH:0.85804
G1 X148.334 Y99.124 E.00707
;WIDTH:0.814651
G1 X148.355 Y99.225 E.00662
;WIDTH:0.771262
G1 X148.377 Y99.326 E.00626
;WIDTH:0.727873
G1 X148.399 Y99.428 E.00594
;WIDTH:0.684484
G1 X148.416 Y100.113 E.03655
;WIDTH:0.649999
G1 X148.416 Y103.835 E.18788
G1 X141.472 Y103.835 E.35052
G1 X141.433 Y103.151 E.03458
G1 X141.271 Y101.968 E.06027
G1 X141.129 Y101.15 E.04191
G1 X140.283 Y98.19 E.1554
G1 X138.893 Y95.245 E.16439
G1 X138.813 Y95.108 E.00801
M73 Q2 S28
G1 X136.831 Y92.326 E.17243
G1 X134.518 Y90.032 E.16444
M73 P2 R28
G1 X134.396 Y89.931 E.00799
G1 X131.72 Y88.072 E.16448
G1 X131.583 Y87.993 E.00798
G1 X128.625 Y86.627 E.16447
G1 X128.476 Y86.573 E.008
;WIDTH:0.695055
G1 X127.852 Y86.385 E.03534
;WIDTH:0.74011
G1 X127.228 Y86.196 E.0378
;WIDTH:0.785166
G1 X126.604 Y86.008 E.04022
;WIDTH:0.830221
G1 X125.979 Y85.819 E.04275
;WIDTH:0.875276
G1 X125.355 Y85.631 E.0451
G1 X125.179 Y85.611 E.01226
;WIDTH:0.853867
G1 X124.096 Y85.543 E.07317
;WIDTH:0.808052
G1 X123.014 Y85.474 E.06898
;WIDTH:0.762237
G1 X121.931 Y85.405 E.06491
;WIDTH:0.716421
G1 X121.763 Y85.41 E.00941
;WIDTH:0.719273
G1 X118.66 Y85.683 E.17518
G1 X118.358 Y85.734 E.01722
;WIDTH:0.726213
G1 X115.541 Y86.483 E.16561
G1 X115.062 Y86.643 E.02869
;WIDTH:0.732132
G1 X112.596 Y87.778 E.15557
G1 X111.973 Y88.109 E.04043
;WIDTH:0.73707
G1 X109.902 Y89.535 E.14513
G1 X109.543 Y89.812 E.02617
;WIDTH:0.711376
G1 X109.185 Y90.088 E.02513
;WIDTH:0.713327
G1 X108.358 Y90.898 E.06453
;WIDTH:0.740971
G1 X107.531 Y91.707 E.06715
G1 X107.156 Y92.113 E.03208
;WIDTH:0.711876
G1 X106.781 Y92.52 E.03078
;WIDTH:0.713348
G1 X106.164 Y93.377 E.05887
;WIDTH:0.743916
G1 X105.546 Y94.235 E.06163
G1 X105.231 Y94.713 E.03337
;WIDTH:0.71346
G1 X104.916 Y95.19 E.03187
;WIDTH:0.683003
G1 X104.836 Y95.331 E.00863
;WIDTH:0.713374
G1 X104.417 Y96.191 E.05333
;WIDTH:0.745841
G1 X103.999 Y97.052 E.05594
G1 X103.73 Y97.668 E.03929
;WIDTH:0.713436
G1 X103.461 Y98.284 E.03748
;WIDTH:0.68103
G1 X103.407 Y98.436 E.00856
;WIDTH:0.713391
G1 X103.169 Y99.259 E.04776
;WIDTH:0.746758
G1 X102.932 Y100.082 E.05012
G1 X102.749 Y100.833 E.04524
;WIDTH:0.712985
G1 X102.565 Y101.583 E.04303
;WIDTH:0.679211
G1 X102.538 Y101.742 E.00853
;WIDTH:0.712531
G1 X102.454 Y102.505 E.04274
;WIDTH:0.745882
G1 X102.371 Y103.269 E.04492
G1 X102.312 Y104.128 E.05033
;WIDTH:0.71299
G1 X102.254 Y104.987 E.04797
;WIDTH:0.681268
G1 X102.253 Y105.148 E.00855
;WIDTH:0.713446
G1 X102.294 Y105.804 E.03665
;WIDTH:0.745624
G1 X102.335 Y106.46 E.0384
G1 X102.436 Y107.427 E.05681
;WIDTH:0.71338
G1 X102.537 Y108.394 E.0542
;WIDTH:0.683395
G1 X102.563 Y108.553 E.00858
;WIDTH:0.713474
G1 X102.693 Y109.095 E.03108
;WIDTH:0.743552
G1 X102.822 Y109.637 E.03246
G1 X103.114 Y110.669 E.06248
;WIDTH:0.713365
G1 X103.405 Y111.7 E.05972
;WIDTH:0.686533
G1 X103.459 Y111.853 E.00868
;WIDTH:0.713503
G1 X103.64 Y112.273 E.0255
;WIDTH:0.740473
G1 X103.82 Y112.692 E.02645
G1 X104.327 Y113.749 E.068
;WIDTH:0.713347
G1 X104.834 Y114.806 E.06535
;WIDTH:0.69068
G1 X104.913 Y114.948 E.00875
;WIDTH:0.7364
G1 X105.303 Y115.546 E.04117
G1 X106.779 Y117.618 E.14669
;WIDTH:0.695834
G1 X106.881 Y117.744 E.0088
;WIDTH:0.731312
G1 X107.231 Y118.12 E.0294
G1 X109.181 Y120.051 E.15708
;WIDTH:0.725225
G1 X109.553 Y120.348 E.02701
G1 X111.97 Y122.031 E.16709
;WIDTH:0.701345
G1 X111.982 Y122.04 E.00082
;WIDTH:0.742164
G1 X112.472 Y122.305 E.03239
G1 X114.978 Y123.478 E.16088
;WIDTH:0.739465
G1 X115.211 Y123.561 E.01433
;WIDTH:0.740066
G1 X117.562 Y124.206 E.14132
G1 X118.519 Y124.429 E.05696
;WIDTH:0.743941
G1 X119.654 Y124.554 E.06656
G1 X120.71 Y124.625 E.06169
;WIDTH:0.696385
G1 X121.766 Y124.696 E.05751
;WIDTH:0.648829
G1 X121.924 Y124.697 E.00796
;WIDTH:0.694409
G1 X123.008 Y124.628 E.05884
;WIDTH:0.740272
G1 X124.093 Y124.559 E.06304
;WIDTH:0.786135
G1 X125.177 Y124.49 E.06713
G1 X125.342 Y124.452 E.01046
;WIDTH:0.765971
G1 X126.387 Y124.155 E.06532
;WIDTH:0.727314
G1 X127.432 Y123.859 E.06181
;WIDTH:0.688657
G1 X128.476 Y123.562 E.05828
;WIDTH:0.649999
G1 X128.626 Y123.509 E.00803
G1 X131.583 Y122.142 E.16444
G1 X131.72 Y122.063 E.00798
G1 X134.396 Y120.204 E.16448
G1 X134.518 Y120.103 E.00799
G1 X136.831 Y117.809 E.16444
G1 X136.933 Y117.688 E.00799
G1 X138.893 Y114.89 E.17245
G1 X140.284 Y111.944 E.16445
G1 X140.948 Y109.629 E.12157
G1 X141.221 Y108.532 E.05706
G1 X141.433 Y106.984 E.07887
G1 X141.472 Y106.3 E.03458
G1 X148.416 Y106.299 E.35052
G1 X148.416 Y108.391 E.1056
G1 X148.416 Y110.707 E.11691
;WIDTH:0.697168
G1 X148.393 Y110.845 E.00761
;WIDTH:0.744336
G1 X148.369 Y110.982 E.00811
;WIDTH:0.791504
G1 X148.345 Y111.119 E.00866
;WIDTH:0.838672
G1 X148.322 Y111.256 E.00919
;WIDTH:0.88584
G1 X148.298 Y111.393 E.00975
G1 X148.238 Y111.284 E.00872
;WIDTH:0.838672
G1 X148.178 Y111.175 E.00823
;WIDTH:0.791504
G1 X148.118 Y111.065 E.0078
;WIDTH:0.744336
G1 X148.058 Y110.956 E.00726
;WIDTH:0.697168
G1 X147.998 Y110.847 E.00677
;WIDTH:0.649999
G1 X147.62 Y110.553 E.02417
G1 X147.27 Y110.483 E.01802
G1 X144.327 Y110.483 E.14856
G1 X144.169 Y110.496 E.008
G1 X143.823 Y110.634 E.0188
G1 X143.58 Y110.872 E.01717
G1 X143.458 Y111.12 E.01395
G1 X143.416 Y111.393 E.01394
G1 X143.416 Y114.896 E.17683
M204 S1000
;WIPE_START
G1 F8640
G1 X143.461 Y115.179 E-.06617
G1 X143.523 Y115.325 E-.03663
G1 X143.766 Y115.615 E-.08736
G1 X143.992 Y115.744 E-.06009
G1 X144.327 Y115.808 E-.07875
G1 X147.233 Y115.808 E-.671
;WIPE_END
G1 Z.4 F720
G1 X149.023 Y125.907 F10800
G1 Z.2 F720
G1 E1 F1500
M204 S800
;TYPE:External perimeter
G1 F1200
G1 X119.538 Y125.907 E1.48837
G1 X117.249 Y125.52 E.11719
G1 X114.686 Y124.785 E.13459
