; generated by PrusaSlicer 2.6.1+win64 on 2023-09-17 at 15:33:18 UTC


;
;
; 

; external perimeters extrusion width = 0.45mm
; perimeters extrusion width = 0.45mm
; infill extrusion width = 0.45mm
; solid infill extrusion width = 0.45mm
; top infill extrusion width = 0.40mm
; first layer extrusion width = 0.42mm

; external perimeters extrusion width = 0.45mm
; perimeters extrusion width = 0.45mm
; infill extrusion width = 0.45mm
; solid infill extrusion width = 0.45mm
; top infill extrusion width = 0.40mm
; first layer extrusion width = 0.42mm

M73 P0 R68
M73 Q0 S69
M201 X1000 Y1000 Z200 E5000 ; sets maximum accelerations, mm/sec^2
M203 X200 Y200 Z12 E120 ; sets maximum feedrates, mm / sec
M204 S1250 T1250 ; sets acceleration (S) and retract acceleration (R), mm/sec^2
M205 X8.00 Y8.00 Z0.40 E4.50 ; sets the jerk limits, mm/sec
M205 S0 T0 ; sets the minimum extruding and travel feed rate, mm/sec
;TYPE:Custom
M862.3 P "MK3S" ; printer model check
M862.1 P0.4 ; nozzle diameter check
M115 U3.12.2 ; tell printer latest fw version
G90 ; use absolute coordinates
M83 ; extruder relative mode
M104 S240 ; set extruder temp
M140 S85 ; set bed temp
M190 S85 ; wait for bed temp
M109 S240 ; wait for extruder temp
G28 W ; home all without mesh bed level
G80 ; mesh bed leveling

G1 Z0.2 F720
G1 Y-3 F1000 ; go outside print area
G92 E0
G1 X60 E9 F1000 ; intro line
G1 X100 E12.5 F1000 ; intro line

G92 E0
M221 S95

; Don't change E values below. Excessive value can damage the printer.
M907 E430 ; set extruder motor current
G21 ; set units to millimeters
G90 ; use absolute coordinates
M83 ; use relative distances for extrusion
M900 K0.08 ; Filament gcode LA 1.5
M900 K45 ; Filament gcode LA 1.0
M107
;LAYER_CHANGE
;Z:0.2
;HEIGHT:0.2
;BEFORE_LAYER_CHANGE
G92 E0.0
;0.2


G1 E-1 F2100
G1 Z.2 F720
;AFTER_LAYER_CHANGE
;0.2
; printing object Motor_Bracket_37,3mm_rev0-6 id:0 copy 0
G1 Z.4
G1 X158.946 Y92.59 F10800
G1 Z.2 F720
G1 E1 F2100
M204 S800
;TYPE:Perimeter
;WIDTH:0.419999
G1 F1200
G1 X158.946 Y95.296 E.08484
G1 X158.852 Y95.409 E.00461
;WIDTH:0.467929
G1 X158.033 Y96.366 E.04451
;WIDTH:0.515859
G1 X157.214 Y97.324 E.04956
;WIDTH:0.556552
G1 X157.123 Y97.402 E.00512
G1 X157.158 Y97.289 E.00505
;WIDTH:0.515859
G1 X157.662 Y96.134 E.04956
;WIDTH:0.467929
G1 X158.165 Y94.979 E.04452
;WIDTH:0.419999
G1 X158.556 Y94.08 E.03074
G1 X158.931 Y92.648 E.04641
M204 S1000
;WIPE_START
G1 F8640
G1 X158.946 Y95.296 E-.61144
G1 X158.852 Y95.409 E-.03394
G1 X158.033 Y96.366 E-.29085
G1 X157.854 Y96.576 E-.06377
;WIPE_END
G1 Z.4 F720
G1 X158.564 Y95.102 F10800
G1 Z.2 F720
G1 E1 F2100
M204 S800
;WIDTH:0.48351
G1 F1200
G1 X158.509 Y95.102 E.00201
G1 X158.482 Y95.149 E.00199
G1 X158.509 Y95.197 E.00202
G1 X158.564 Y95.197 E.00201
G1 X158.592 Y95.149 E.00204
M204 S1000
;WIPE_START
G1 F8640
G1 X158.564 Y95.197 E-.01283
G1 X158.509 Y95.197 E-.0127
G1 X158.482 Y95.149 E-.01272
G1 X158.509 Y95.102 E-.01252
G1 X158.564 Y95.102 E-.0127
;WIPE_END
G1 E-.93653 F2100
G1 Z.4 F720
G1 X150.987 Y104.368 F10800
G1 Z.2 F720
G1 E1 F2100
M204 S800
;WIDTH:0.419999
G1 F1200
G1 X149.191 Y106.55 E.08861
G1 X148.501 Y105.982 E.02802
G1 X148.307 Y105.885 E.0068
G1 X150.077 Y105.015 E.06184
G1 X150.938 Y104.403 E.03312
M204 S1000
;WIPE_START
G1 F8640
G1 X149.191 Y106.55 E-.63913
G1 X148.501 Y105.982 E-.20636
G1 X148.307 Y105.885 E-.05008
G1 X148.713 Y105.685 E-.10443
;WIPE_END
G1 Z.4 F720
G1 X152.749 Y102.713 F10800
G1 Z.2 F720
G1 E1 F2100
M204 S800
;WIDTH:0.55882
G1 F1200
G1 X152.688 Y102.82 E.00528
;WIDTH:0.51638
G1 X152.627 Y102.928 E.00488
;WIDTH:0.47394
G1 X151.598 Y104.198 E.05858
;WIDTH:0.44697
G1 X150.569 Y105.469 E.05494
;WIDTH:0.419999
G1 X149.242 Y107.081 E.06547
G1 X148.262 Y106.273 E.03982
G1 X147.736 Y106.01 E.01844
G1 X147.131 Y106.026 E.01898
G1 X149.859 Y104.707 E.09501
;WIDTH:0.44697
G1 X151.199 Y103.771 E.05492
;WIDTH:0.47394
G1 X152.54 Y102.835 E.05861
;WIDTH:0.51638
G1 X152.644 Y102.774 E.00475
;WIDTH:0.55882
G1 X152.697 Y102.743 E.00263
M204 S1000
;WIPE_START
G1 F8640
G1 X152.688 Y102.82 E-.0179
G1 X152.627 Y102.928 E-.02864
G1 X151.598 Y104.198 E-.37742
G1 X150.569 Y105.469 E-.3776
G1 X150.023 Y106.133 E-.19844
;WIPE_END
G1 Z.4 F720
G1 X154.094 Y72.976 F10800
G1 Z.2 F720
G1 E1 F2100
M204 S800
;WIDTH:0.419999
G1 F1200
G1 X157.496 Y68.844 E.16782
G1 X158.569 Y69.727 E.04357
G1 X158.569 Y79.817 E.31636
G1 X157.349 Y77.232 E.08962
G1 X157.214 Y76.997 E.0085
G1 X155.597 Y74.649 E.08939
G1 X155.17 Y74.132 E.02102
G1 X154.136 Y73.018 E.04766
M204 S1000
G1 X153.584 Y73.001 F10800
M204 S800
G1 F1200
G1 X157.438 Y68.321 E.19009
G1 X158.946 Y69.549 E.06098
G1 X158.946 Y82.259 E.39851
G1 X158.483 Y80.565 E.05506
G1 X158.403 Y80.35 E.00719
G1 X157.008 Y77.392 E.10254
G1 X156.903 Y77.21 E.00659
G1 X155.305 Y74.887 E.08841
G1 X154.894 Y74.388 E.02027
G1 X153.943 Y73.359 E.04393
G1 X153.627 Y73.044 E.01399
M204 S1000
G1 X153.066 Y73.037 F10800
M204 S800
G1 F1200
G1 X157.346 Y67.84 E.21109
G1 X157.716 Y68.048 E.01331
G1 X159.323 Y69.371 E.06526
G1 X159.323 Y70.172 E.02511
G1 X159.331 Y83.773 E.42645
;WIDTH:0.403512
G1 X159.339 Y83.966 E.00579
;WIDTH:0.38805
G1 X159.353 Y84.58 E.01762
;WIDTH:0.406243
G1 X159.33 Y84.647 E.00214
;WIDTH:0.452862
G1 X159.306 Y84.713 E.00239
;WIDTH:0.499482
G1 X159.283 Y84.78 E.00269
;WIDTH:0.546101
G1 X159.26 Y84.846 E.00292
;WIDTH:0.592721
G1 X159.236 Y84.913 E.00325
;WIDTH:0.63934
G1 X159.213 Y84.98 E.00351
G1 X159.184 Y84.915 E.00353
;WIDTH:0.592721
G1 X159.154 Y84.851 E.00323
;WIDTH:0.546101
G1 X159.125 Y84.787 E.00294
;WIDTH:0.499482
G1 X159.096 Y84.723 E.00267
;WIDTH:0.452862
G1 X159.066 Y84.659 E.00241
;WIDTH:0.406243
G1 X159.037 Y84.595 E.00212
;WIDTH:0.403512
G1 X158.973 Y83.821 E.02329
;WIDTH:0.419999
G1 X158.119 Y80.664 E.10254
G1 X158.062 Y80.511 E.00512
G1 X156.667 Y77.553 E.10254
G1 X155.014 Y75.126 E.09207
G1 X154.617 Y74.644 E.01958
G1 X153.666 Y73.615 E.04393
G1 X153.109 Y73.079 E.02424
M204 S1000
;WIPE_START
G1 F8640
G1 X155.832 Y69.712 E-1
;WIPE_END
G1 Z.4 F720
G1 X150.978 Y70.41 F10800
G1 Z.2 F720
G1 E1 F2100
M204 S800
G1 F1200
G1 X149.633 Y69.573 E.04967
G1 X148.919 Y69.193 E.02536
G1 X146.431 Y68.119 E.08497
G1 X146.175 Y68.032 E.00848
G1 X143.114 Y67.257 E.099
G1 X152.427 Y64.669 E.30307
G1 X154.38 Y66.278 E.07934
G1 X151.016 Y70.363 E.16592
M204 S1000
G1 X151.05 Y70.915 F10800
M204 S800
G1 F1200
G1 X150.63 Y70.631 E.0159
G1 X149.435 Y69.894 E.04402
G1 X148.77 Y69.54 E.02362
G1 X146.282 Y68.465 E.08498
G1 X146.082 Y68.397 E.00662
G1 X142.914 Y67.595 E.10246
G1 X142.687 Y67.559 E.00721
G1 X141.055 Y67.438 E.05131
G1 X152.515 Y64.253 E.37294
G1 X154.904 Y66.235 E.09733
G1 X151.088 Y70.868 E.18819
M204 S1000
G1 X151.114 Y71.43 F10800
M204 S800
G1 F1200
G1 X150.432 Y70.952 E.02611
G1 X149.237 Y70.215 E.04402
G1 X148.62 Y69.886 E.02192
G1 X146.132 Y68.811 E.08498
G1 X142.821 Y67.961 E.10718
G1 X142.659 Y67.935 E.00514
;WIDTH:0.458347
G1 X141.03 Y67.795 E.05648
;WIDTH:0.496694
G1 X139.401 Y67.656 E.06169
;WIDTH:0.52796
G1 X139.314 Y67.641 E.00356
;WIDTH:0.559226
G1 X139.227 Y67.627 E.00378
G1 X139.309 Y67.588 E.0039
;WIDTH:0.52796
G1 X139.39 Y67.549 E.00363
;WIDTH:0.496694
G1 X140.961 Y67.093 E.06172
;WIDTH:0.458347
G1 X142.531 Y66.636 E.05648
;WIDTH:0.419999
G1 X152.603 Y63.837 E.32777
G1 X155.092 Y65.887 E.1011
G1 X155.394 Y66.233 E.0144
G1 X151.153 Y71.384 E.2092
M204 S1000
;WIPE_START
G1 F8640
G1 X150.432 Y70.952 E-.19408
G1 X149.237 Y70.215 E-.32419
G1 X148.62 Y69.886 E-.16146
G1 X147.347 Y69.336 E-.32027
;WIPE_END
G1 Z.4 F720
G1 X127.967 Y71.083 F10800
G1 Z.2 F720
G1 E1 F2100
M204 S800
;WIDTH:0.435038
G1 F1200
G1 X126.904 Y71.865 E.04303
;WIDTH:0.406698
G1 X126.735 Y72.004 E.00662
;WIDTH:0.426614
G1 X126.658 Y72.032 E.00261
;WIDTH:0.47487
G1 X126.581 Y72.061 E.00296
;WIDTH:0.523126
G1 X126.505 Y72.09 E.00325
;WIDTH:0.571382
G1 X126.428 Y72.118 E.0036
;WIDTH:0.619638
G1 X126.351 Y72.147 E.00395
G1 X126.382 Y72.07 E.00398
;WIDTH:0.571382
G1 X126.414 Y71.992 E.0037
;WIDTH:0.523126
G1 X126.445 Y71.915 E.00331
;WIDTH:0.47487
G1 X126.476 Y71.838 E.00298
;WIDTH:0.426614
G1 X126.508 Y71.761 E.00266
;WIDTH:0.406698
G1 X126.677 Y71.578 E.00753
;WIDTH:0.435038
G1 X126.846 Y71.395 E.00812
G1 X127.909 Y71.099 E.03598
M204 S1000
;WIPE_START
G1 F8640
G1 X126.904 Y71.865 E-.29178
G1 X126.735 Y72.004 E-.05053
G1 X126.658 Y72.032 E-.01892
G1 X126.581 Y72.061 E-.019
G1 X126.505 Y72.09 E-.01878
G1 X126.428 Y72.118 E-.01892
G1 X126.351 Y72.147 E-.019
G1 X126.382 Y72.07 E-.01917
G1 X126.414 Y71.992 E-.01947
G1 X126.445 Y71.915 E-.01917
G1 X126.476 Y71.838 E-.01917
G1 X126.508 Y71.761 E-.01925
G1 X126.677 Y71.578 E-.05752
G1 X126.846 Y71.395 E-.05752
G1 X127.909 Y71.099 E-.25479
;WIPE_END
G1 E-.09701 F2100
G1 Z.4 F720
G1 X159.212 Y89.986 F10800
G1 Z.2 F720
G1 E1 F2100
M204 S800
;WIDTH:0.640976
G1 F1200
G1 X159.236 Y90.052 E.00349
;WIDTH:0.593862
G1 X159.259 Y90.119 E.00325
;WIDTH:0.546748
G1 X159.283 Y90.185 E.00294
;WIDTH:0.499633
G1 X159.307 Y90.252 E.0027
;WIDTH:0.452519
G1 X159.33 Y90.319 E.00241
;WIDTH:0.405405
G1 X159.354 Y90.385 E.00212
;WIDTH:0.386212
G1 X159.34 Y90.861 E.01359
;WIDTH:0.419999
G1 X159.323 Y95.431 E.14329
G1 X149.293 Y107.611 E.49472
G1 X148.022 Y106.564 E.05163
G1 X147.647 Y106.376 E.01315
;WIDTH:0.462642
G1 X147.517 Y106.359 E.00458
;WIDTH:0.505285
G1 X147.387 Y106.342 E.00504
;WIDTH:0.547928
G1 X147.257 Y106.325 E.00551
;WIDTH:0.59057
G1 X147.127 Y106.308 E.00597
G1 X146.551 Y106.5 E.02765
;WIDTH:0.585354
G1 X143.935 Y107.271 E.12301
G1 X143.142 Y107.404 E.03627
;WIDTH:0.594113
G1 X140.826 Y107.7 E.10701
G1 X140.207 Y107.706 E.02837
;WIDTH:0.566466
G1 X139.63 Y107.71 E.02512
;WIDTH:0.568927
G1 X138.659 Y107.679 E.04249
;WIDTH:0.599035
G1 X137.688 Y107.647 E.04492
G1 X136.989 Y107.545 E.03266
;WIDTH:0.568255
G1 X136.333 Y107.447 E.02897
;WIDTH:0.537475
G1 X136.119 Y107.41 E.00893
;WIDTH:0.568496
G1 X135.357 Y107.262 E.03392
;WIDTH:0.600124
G1 X134.554 Y107.103 E.03793
G1 X133.735 Y106.842 E.03983
;WIDTH:0.56868
G1 X132.916 Y106.582 E.03757
;WIDTH:0.538759
G1 X132.71 Y106.511 E.00898
;WIDTH:0.568072
G1 X132.166 Y106.311 E.02531
;WIDTH:0.597384
G1 X131.583 Y106.095 E.02866
G1 X130.64 Y105.619 E.0487
;WIDTH:0.569114
G1 X129.698 Y105.143 E.04618
;WIDTH:0.544511
G1 X129.505 Y105.04 E.00912
;WIDTH:0.590811
G1 X128.8 Y104.643 E.03686
G1 X126.773 Y103.173 E.11407
;WIDTH:0.548276
G1 X126.739 Y103.148 E.00177
;WIDTH:0.580396
G1 X126.274 Y102.781 E.02647
G1 X124.229 Y100.73 E.12944
;WIDTH:0.566182
G1 X124.055 Y100.543 E.01111
;WIDTH:0.574158
G1 X122.249 Y98.038 E.13641
G1 X122.033 Y97.643 E.01989
;WIDTH:0.586384
G1 X120.827 Y95.239 E.12154
G1 X120.542 Y94.447 E.03804
;WIDTH:0.569319
G1 X120.197 Y93.351 E.05029
;WIDTH:0.594767
G1 X119.852 Y92.256 E.05268
G1 X119.732 Y91.629 E.02929
;WIDTH:0.566613
G1 X119.622 Y91.044 E.02592
;WIDTH:0.570195
G1 X119.477 Y90.061 E.04356
G1 X119.443 Y89.965 E.00447
;WIDTH:0.532646
G1 X119.408 Y89.87 E.00412
;WIDTH:0.495097
G1 X119.374 Y89.774 E.00383
;WIDTH:0.457548
G1 X119.339 Y89.678 E.00352
;WIDTH:0.419999
G1 X119.252 Y89.146 E.0169
G1 X119.23 Y85.993 E.09886
G1 X119.69 Y82.896 E.09817
M73 Q0 S68
G1 X120.631 Y79.865 E.09951
G1 X122.022 Y77.037 E.09882
G1 X123.858 Y74.419 E.10026
G1 X126.626 Y71.057 E.13654
G1 X130.467 Y69.989 E.125
G1 X129.432 Y70.504 E.03625
G1 X126.652 Y72.52 E.10767
G1 X124.368 Y74.859 E.1025
G1 X124.264 Y74.987 E.00517
G1 X122.34 Y77.83 E.10763
G1 X120.937 Y80.965 E.10769
G1 X120.127 Y84.133 E.10253
G1 X120.1 Y84.295 E.00515
G1 X119.85 Y87.555 E.10251
G1 X119.852 Y87.719 E.00514
G1 X120.036 Y89.587 E.05885
;WIDTH:0.457548
G1 X120.027 Y89.689 E.00353
;WIDTH:0.495097
G1 X120.018 Y89.79 E.00381
;WIDTH:0.532646
G1 X120.009 Y89.891 E.00413
;WIDTH:0.570195
G1 X120 Y89.993 E.00449
G1 X120.144 Y91.151 E.05116
;WIDTH:0.56788
G1 X120.262 Y91.624 E.02128
;WIDTH:0.594767
G1 X120.38 Y92.096 E.02232
G1 X120.7 Y93.199 E.0527
;WIDTH:0.569319
G1 X121.021 Y94.301 E.05024
;WIDTH:0.548564
G1 X121.081 Y94.466 E.00738
;WIDTH:0.586384
G1 X121.315 Y94.999 E.0263
G1 X122.49 Y97.417 E.12149
;WIDTH:0.574158
G1 X122.681 Y97.728 E.01612
G1 X124.476 Y100.232 E.13609
;WIDTH:0.56619
G1 X124.593 Y100.364 E.00767
;WIDTH:0.580396
G1 X126.653 Y102.4 E.12944
G1 X127.066 Y102.762 E.02454
;WIDTH:0.590811
G1 X129.118 Y104.197 E.11407
G1 X129.916 Y104.696 E.04288
;WIDTH:0.569114
G1 X130.871 Y105.146 E.04619
;WIDTH:0.597384
G1 X131.826 Y105.597 E.04869
G1 X132.359 Y105.824 E.02671
;WIDTH:0.568072
G1 X132.892 Y106.051 E.0253
;WIDTH:0.538759
G1 X133.057 Y106.108 E.0072
;WIDTH:0.56868
G1 X133.885 Y106.339 E.03758
;WIDTH:0.600124
G1 X134.713 Y106.569 E.03982
G1 X135.468 Y106.748 E.03595
;WIDTH:0.568496
G1 X136.223 Y106.927 E.03391
;WIDTH:0.537475
G1 X136.394 Y106.956 E.00713
;WIDTH:0.568255
G1 X137.055 Y107.024 E.02903
;WIDTH:0.599035
G1 X137.715 Y107.092 E.03068
G1 X138.685 Y107.154 E.04495
;WIDTH:0.568927
G1 X139.654 Y107.215 E.04247
;WIDTH:0.541564
G1 X139.829 Y107.215 E.00726
;WIDTH:0.567839
G1 X140.295 Y107.184 E.02038
;WIDTH:0.594113
G1 X140.762 Y107.153 E.02145
G1 X143.084 Y106.906 E.10702
;WIDTH:0.549518
G1 X143.257 Y106.877 E.00739
;WIDTH:0.585354
G1 X143.785 Y106.749 E.0245
G1 X146.41 Y106.009 E.12301
;WIDTH:0.554229
G1 X146.432 Y106.002 E.00098
;WIDTH:0.59057
G1 X146.93 Y105.798 E.02451
G1 X147.085 Y105.701 E.00833
;WIDTH:0.547928
G1 X147.239 Y105.604 E.00764
;WIDTH:0.505285
G1 X147.394 Y105.507 E.00703
;WIDTH:0.462642
G1 X147.548 Y105.41 E.00635
;WIDTH:0.419999
G1 X149.64 Y104.4 E.07284
G1 X152.306 Y102.505 E.10256
G1 X152.431 Y102.399 E.00514
G1 X154.728 Y100.071 E.10254
G1 X154.832 Y99.945 E.00512
G1 X156.691 Y97.254 E.10255
G1 X156.772 Y97.112 E.00513
G1 X157.823 Y94.822 E.079
G1 X158.191 Y93.985 E.02867
G1 X159.002 Y90.817 E.10253
;WIDTH:0.386212
G1 X159.039 Y90.372 E.01275
;WIDTH:0.405405
G1 X159.068 Y90.308 E.00212
;WIDTH:0.452519
G1 X159.097 Y90.244 E.00239
;WIDTH:0.499633
G1 X159.126 Y90.179 E.0027
;WIDTH:0.546748
G1 X159.154 Y90.115 E.00293
;WIDTH:0.593862
G1 X159.183 Y90.05 E.00326
;WIDTH:0.640976
G1 X159.188 Y90.04 E.00056
M204 S1000
;WIPE_START
G1 F8640
G1 X159.236 Y90.052 E-.01142
G1 X159.259 Y90.119 E-.01636
G1 X159.283 Y90.185 E-.01622
G1 X159.307 Y90.252 E-.01643
G1 X159.33 Y90.319 E-.01636
G1 X159.354 Y90.385 E-.01622
G1 X159.34 Y90.861 E-.10996
G1 X159.327 Y94.313 E-.79703
;WIPE_END
G1 Z.4 F720
G1 X152.749 Y102.713 F10800
G1 Z.2 F720
G1 E1 F2100
M204 S800
;WIDTH:0.55882
G1 F1200
G1 X153.114 Y102.307 E.02342
;WIDTH:0.50984
G1 X153.479 Y101.902 E.02117
;WIDTH:0.46086
G1 X153.845 Y101.497 E.01897
;WIDTH:0.411879
G1 X154.21 Y101.092 E.01673
;WIDTH:0.362899
G1 X154.575 Y100.687 E.01451
;WIDTH:0.313919
G1 X154.941 Y100.282 E.0123
;WIDTH:0.264938
G1 X155.078 Y100.115 E.00399
;WIDTH:0.310395
G1 X155.407 Y99.68 E.01213
;WIDTH:0.356433
G1 X155.736 Y99.244 E.01424
;WIDTH:0.402471
G1 X156.064 Y98.809 E.01629
;WIDTH:0.44851
G1 X156.393 Y98.373 E.01842
;WIDTH:0.494548
G1 X156.722 Y97.938 E.02048
;WIDTH:0.540586
G1 X157.05 Y97.503 E.02254
;WIDTH:0.556552
G1 X157.123 Y97.402 E.00532
M204 S1000
;WIPE_START
G1 F8640
G1 X157.05 Y97.503 E-.02877
G1 X156.722 Y97.938 E-.1258
G1 X156.393 Y98.373 E-.12594
G1 X156.064 Y98.809 E-.12612
G1 X155.736 Y99.244 E-.1258
G1 X155.407 Y99.68 E-.12612
G1 X155.078 Y100.115 E-.12594
G1 X154.941 Y100.282 E-.04988
G1 X154.575 Y100.687 E-.12604
G1 X154.46 Y100.814 E-.03959
;WIPE_END
G1 Z.4 F720
G1 X152.547 Y73.075 F10800
G1 Z.2 F720
G1 E1 F2100
M204 S800
;WIDTH:0.419999
G1 F1200
G1 X156.814 Y67.892 E.2105
G1 X157.191 Y67.457 E.01805
G1 X157.451 Y67.477 E.00818
G1 X157.933 Y67.738 E.01719
G1 X159.7 Y69.193 E.07177
G1 X159.7 Y70.172 E.0307
G1 X159.7 Y95.566 E.79621
G1 X149.345 Y108.142 E.51078
G1 X147.782 Y106.855 E.06348
G1 X147.557 Y106.743 E.00788
G1 X147.26 Y106.75 E.00931
G1 X144.013 Y107.727 E.10632
G1 X140.833 Y108.168 E.10066
G1 X137.623 Y108.113 E.10066
G1 X134.459 Y107.564 E.10069
G1 X131.418 Y106.535 E.10066
G1 X128.572 Y105.049 E.10067
G1 X125.988 Y103.143 E.10068
G1 X123.729 Y100.861 E.10068
G1 X121.849 Y98.259 E.10065
G1 X120.391 Y95.398 E.10068
G1 X119.392 Y92.346 E.10069
G1 X118.875 Y89.177 E.10068
G1 X118.852 Y85.967 E.10065
