; generated by PrusaSlicer 2.6.0+win64 on 2023-07-21 at 16:24:35 UTC


;
;
; 

; external perimeters extrusion width = 0.65mm
; perimeters extrusion width = 0.65mm
; infill extrusion width = 0.65mm
; solid infill extrusion width = 0.65mm
; top infill extrusion width = 0.60mm
; first layer extrusion width = 0.65mm

M73 P0 R92
M73 Q0 S94
M201 X1000 Y1000 Z200 E5000 ; sets maximum accelerations, mm/sec^2
M203 X200 Y200 Z12 E120 ; sets maximum feedrates, mm / sec
M204 S1250 T1250 ; sets acceleration (S) and retract acceleration (R), mm/sec^2
M205 X8.00 Y8.00 Z0.40 E4.50 ; sets the jerk limits, mm/sec
M205 S0 T0 ; sets the minimum extruding and travel feed rate, mm/sec
;TYPE:Custom
M862.3 P "MK3S" ; printer model check
M862.1 P0.6 ; nozzle diameter check
M115 U3.12.2 ; tell printer latest fw version
G90 ; use absolute coordinates
M83 ; extruder relative mode
M104 S215 ; set extruder temp
M140 S60 ; set bed temp
M190 S60 ; wait for bed temp
M109 S215 ; wait for extruder temp
G28 W ; home all without mesh bed level
G80 ; mesh bed leveling

G1 Z0.2 F720
G1 Y-3 F1000 ; go outside print area
G92 E0
G1 X60 E9 F1000 ; intro line
G1 X100 E12.5 F1000 ; intro line

G92 E0
M221 S95
G21 ; set units to millimeters
G90 ; use absolute coordinates
M83 ; use relative distances for extrusion
M900 K0.04 ; Filament gcode LA 1.5
M900 K18 ; Filament gcode LA 1.0
M107
;LAYER_CHANGE
;Z:0.2
;HEIGHT:0.2
;BEFORE_LAYER_CHANGE
G92 E0.0
;0.2


G1 E-.8 F2100
G1 Z.4 F720
;AFTER_LAYER_CHANGE
;0.2
G1 X61.552 Y82.609 F10800
G1 Z.2 F720
G1 E.8 F1500
M204 S800
;TYPE:Skirt/Brim
;WIDTH:0.65
G1 F1200
G1 X65.098 Y80.436 E.20993
G1 X68.186 Y79.158 E.1687
G1 X71.826 Y78.251 E.18936
G1 X75.767 Y77.918 E.19965
G1 X174.437 Y77.926 E4.98075
G1 X178.174 Y78.251 E.18935
G1 X181.814 Y79.158 E.18936
G1 X184.902 Y80.436 E.1687
G1 X188.117 Y82.368 E.18934
G1 X190.991 Y84.779 E.18937
G1 X193.451 Y87.61 E.18932
G1 X195.438 Y90.791 E.18933
G1 X196.904 Y94.244 E.18936
G1 X197.811 Y97.884 E.18936
G1 X198.145 Y101.825 E.19965
G1 X198.145 Y129.475 E1.39574
G1 X197.753 Y130.85 E.07217
G1 X196.694 Y131.812 E.07222
G1 X195.538 Y132.082 E.05992
G1 X54.462 Y132.082 E7.12136
G1 X53.087 Y131.69 E.07217
G1 X52.125 Y130.631 E.07222
G1 X51.855 Y129.475 E.05992
G1 X51.855 Y101.825 E1.39574
G1 X52.125 Y98.288 E.17906
G1 X52.97 Y94.633 E.18937
G1 X54.562 Y90.791 E.20993
G1 X56.309 Y87.941 E.16874
G1 X58.698 Y85.094 E.18761
G1 X61.484 Y82.668 E.18648
M204 S1000
; printing object Motor_Bracket_37,3mm_rev0-1 id:0 copy 0
;WIPE_START
G1 F8640
G1 X64.432 Y80.847 E-.8
;WIPE_END
G1 Z.6 F720
G1 X95.652 Y103.608 F10800
G1 Z.2 F720
G1 E.8 F1500
M204 S800
;TYPE:Perimeter
;WIDTH:0.649999
G1 F1200
G1 X95.796 Y101.638 E.09971
G1 X95.507 Y98.428 E.16269
G1 X95.46 Y98.168 E.01334
G1 X95.074 Y96.739 E.07472
G1 X95.12 Y96.789 E.00343
G1 X95.874 Y96.99 E.03939
G1 X101.175 Y96.99 E.26759
;WIDTH:0.694848
G1 X102.437 Y97.012 E.06842
G1 X101.987 Y97.187 E.02617
;WIDTH:0.657086
G1 X101.489 Y97.619 E.03367
;WIDTH:0.649999
G1 X101.246 Y98.104 E.02738
G1 X101.186 Y98.529 E.02167
G1 X101.186 Y103.012 E.2263
G1 X96.826 Y103.012 E.22009
G1 X96.227 Y103.141 E.03093
G1 X95.722 Y103.552 E.03287
M204 S1000
;WIPE_START
G1 F8640
G1 X95.796 Y101.638 E-.44228
G1 X95.657 Y100.095 E-.35772
;WIPE_END
G1 Z.6 F720
G1 X77.601 Y121.71 F10800
G1 Z.2 F720
G1 E.8 F1500
M204 S800
G1 F1200
G1 X79.22 Y121.559 E.08208
G1 X79.479 Y121.511 E.0133
G1 X82.582 Y120.663 E.16238
G1 X82.83 Y120.572 E.01333
G1 X85.744 Y119.196 E.16267
G1 X85.972 Y119.063 E.01332
G1 X88.604 Y117.203 E.16269
G1 X88.806 Y117.032 E.01336
G1 X91.076 Y114.744 E.16269
G1 X91.245 Y114.541 E.01333
G1 X93.083 Y111.893 E.16271
G1 X93.214 Y111.664 E.01332
G1 X94.566 Y108.738 E.16271
G1 X94.656 Y108.49 E.01332
G1 X95.323 Y105.968 E.13168
G1 X95.323 Y127.736 E1.09882
G1 X77.601 Y127.736 E.89459
G1 X77.601 Y121.8 E.29964
M204 S1000
;WIPE_START
G1 F8640
G1 X79.22 Y121.559 E-.37795
G1 X79.479 Y121.511 E-.06082
G1 X80.988 Y121.099 E-.36123
;WIPE_END
G1 Z.6 F720
G1 X73.923 Y121.709 F10800
G1 Z.2 F720
G1 E.8 F1500
M204 S800
G1 F1200
G1 X73.923 Y127.736 E.30424
G1 X56.201 Y127.736 E.89459
G1 X56.201 Y105.968 E1.09882
G1 X56.869 Y108.49 E.1317
G1 X56.958 Y108.738 E.0133
G1 X58.31 Y111.664 E.16271
G1 X58.441 Y111.893 E.01332
G1 X60.28 Y114.541 E.16274
G1 X60.449 Y114.744 E.01333
G1 X62.719 Y117.032 E.16269
G1 X62.92 Y117.203 E.01332
G1 X65.552 Y119.063 E.16269
G1 X65.78 Y119.196 E.01332
G1 X68.695 Y120.572 E.16272
G1 X68.943 Y120.663 E.01333
G1 X71.538 Y121.373 E.13581
G1 X72.305 Y121.559 E.03984
G1 X73.833 Y121.701 E.07746
M204 S1000
G1 X74.53 Y121.156 F10800
M204 S800
G1 F1200
G1 X74.53 Y128.343 E.36279
G1 X55.594 Y128.343 E.95587
G1 X55.594 Y108.577 E.99776
;WIDTH:0.691905
G1 X55.615 Y107.771 E.04351
;WIDTH:0.733811
G1 X55.636 Y106.965 E.04632
;WIDTH:0.775717
G1 X55.657 Y106.159 E.04913
;WIDTH:0.817622
G1 X55.678 Y105.354 E.05187
;WIDTH:0.852333
G1 X55.695 Y105.105 E.0168
G1 X55.673 Y104.032 E.07223
;WIDTH:0.807002
G1 X55.65 Y102.958 E.06825
;WIDTH:0.761671
G1 X55.627 Y101.884 E.0642
;WIDTH:0.71634
G1 X55.641 Y101.649 E.01318
;WIDTH:0.724376
G1 X55.881 Y98.703 E.16748
G1 X55.993 Y98.159 E.03147
;WIDTH:0.734308
G1 X56.619 Y95.633 E.14961
G1 X56.936 Y94.797 E.0514
;WIDTH:0.715555
M73 P0 R91
G1 X57.381 Y93.756 E.06332
;WIDTH:0.741341
G1 X57.826 Y92.716 E.06569
G1 X58.134 Y92.18 E.0359
;WIDTH:0.714552
G1 X58.416 Y91.694 E.03138
;WIDTH:0.717462
G1 X58.946 Y90.859 E.05547
;WIDTH:0.74716
G1 X59.475 Y90.024 E.05788
G1 X59.916 Y89.477 E.04114
;WIDTH:0.715732
G1 X60.324 Y88.974 E.03623
;WIDTH:0.684303
G1 X60.467 Y88.806 E.01177
;WIDTH:0.715027
G1 X60.994 Y88.213 E.04434
;WIDTH:0.7467
G1 X61.561 Y87.581 E.04969
G1 X62.173 Y87.038 E.04788
;WIDTH:0.715065
G1 X62.785 Y86.495 E.04573
;WIDTH:0.684499
G1 X62.95 Y86.354 E.01158
;WIDTH:0.714771
G1 X63.435 Y85.96 E.03491
;WIDTH:0.745042
G1 X63.964 Y85.534 E.03965
G1 X64.798 Y85.006 E.05763
;WIDTH:0.715329
G1 X65.632 Y84.477 E.05522
;WIDTH:0.688556
G1 X65.818 Y84.365 E.01166
;WIDTH:0.714522
G1 X66.237 Y84.126 E.02694
;WIDTH:0.740488
G1 X66.656 Y83.887 E.02798
G1 X68.784 Y82.979 E.1342
;WIDTH:0.69553
G1 X68.987 Y82.897 E.01188
;WIDTH:0.733033
G1 X69.574 Y82.68 E.03591
G1 X72.149 Y82.044 E.1522
;WIDTH:0.722672
G1 X72.644 Y81.942 E.02857
G1 X75.625 Y81.702 E.16904
;WIDTH:0.709852
G1 X75.899 Y81.701 E.01519
;WIDTH:0.722375
G1 X78.889 Y81.943 E.16948
G1 X79.376 Y82.044 E.0281
;WIDTH:0.732805
G1 X81.959 Y82.682 E.15262
G1 X82.74 Y82.979 E.04793
;WIDTH:0.740338
G1 X84.876 Y83.891 E.13469
G1 X85.408 Y84.196 E.03556
;WIDTH:0.713024
G1 X85.893 Y84.477 E.03123
;WIDTH:0.715336
G1 X86.73 Y85.008 E.05542
;WIDTH:0.744963
G1 X87.568 Y85.539 E.05791
G1 X88.093 Y85.963 E.03939
;WIDTH:0.714764
G1 X88.574 Y86.354 E.03463
;WIDTH:0.684564
G1 X88.74 Y86.495 E.01162
;WIDTH:0.715073
G1 X89.355 Y87.041 E.04596
;WIDTH:0.746696
G1 X89.97 Y87.587 E.04813
G1 X90.533 Y88.216 E.0494
;WIDTH:0.715021
G1 X91.057 Y88.806 E.0441
;WIDTH:0.684094
G1 X91.198 Y88.972 E.01161
;WIDTH:0.714813
G1 X91.611 Y89.479 E.03653
;WIDTH:0.745532
G1 X92.055 Y90.03 E.04134
G1 X92.569 Y90.839 E.056
;WIDTH:0.715282
G1 X93.082 Y91.649 E.0536
;WIDTH:0.687648
G1 X93.194 Y91.835 E.01164
;WIDTH:0.714562
G1 X93.448 Y92.279 E.02857
;WIDTH:0.741475
G1 X93.702 Y92.723 E.02971
G1 X94.145 Y93.76 E.0655
;WIDTH:0.715545
G1 X94.588 Y94.797 E.06307
;WIDTH:0.69412
G1 X94.669 Y95 E.01183
;WIDTH:0.725175
G1 X94.835 Y95.44 E.02668
;WIDTH:0.756229
G1 X95.001 Y95.881 E.02795
G1 X95.141 Y96.008 E.01121
;WIDTH:0.720819
G1 X95.281 Y96.135 E.01065
;WIDTH:0.685409
G1 X95.422 Y96.262 E.01014
;WIDTH:0.649999
G1 X95.874 Y96.383 E.02362
G1 X104.393 Y96.383 E.43003
G1 X104.393 Y97.001 E.0312
G1 X104.393 Y97.619 E.0312
G1 X102.703 Y97.619 E.08531
G1 X102.275 Y97.726 E.02227
G1 X101.975 Y97.983 E.01994
G1 X101.829 Y98.274 E.01643
G1 X101.793 Y98.529 E.013
G1 X101.793 Y103.619 E.25694
G1 X96.841 Y103.619 E.24997
G1 X96.472 Y103.696 E.01903
G1 X96.1 Y103.999 E.02422
;WIDTH:0.693884
G1 X96.037 Y104.111 E.00696
;WIDTH:0.737768
G1 X95.973 Y104.222 E.0074
;WIDTH:0.781652
G1 X95.91 Y104.334 E.00789
;WIDTH:0.825536
G1 X95.846 Y104.445 E.00834
;WIDTH:0.828013
G1 X95.846 Y105.354 E.05934
;WIDTH:0.817622
G1 X95.867 Y106.159 E.05187
;WIDTH:0.775717
G1 X95.888 Y106.965 E.04913
;WIDTH:0.733811
G1 X95.909 Y107.771 E.04632
;WIDTH:0.691905
G1 X95.93 Y108.577 E.04351
;WIDTH:0.649999
G1 X95.93 Y128.343 E.99776
G1 X76.994 Y128.343 E.95587
G1 X76.994 Y121.157 E.36274
G1 X79.163 Y120.954 E.10997
G1 X79.319 Y120.926 E.008
G1 X82.422 Y120.078 E.16238
G1 X82.57 Y120.023 E.00797
G1 X85.485 Y118.647 E.16272
G1 X85.622 Y118.567 E.00801
G1 X88.254 Y116.707 E.16269
G1 X88.375 Y116.604 E.00802
G1 X90.645 Y114.316 E.16269
G1 X90.746 Y114.194 E.00799
G1 X92.585 Y111.547 E.1627
G1 X92.663 Y111.41 E.00796
G1 X94.015 Y108.484 E.16271
G1 X94.069 Y108.335 E.008
;WIDTH:0.691905
G1 X94.295 Y107.561 E.04351
;WIDTH:0.733811
G1 X94.522 Y106.788 E.04628
;WIDTH:0.775717
G1 X94.748 Y106.014 E.04913
;WIDTH:0.817622
G1 X94.974 Y105.24 E.05194
;WIDTH:0.852334
G1 X95.021 Y105.071 E.01181
G1 X95.066 Y104.379 E.04667
;WIDTH:0.825536
G1 X95.06 Y104.187 E.0125
;WIDTH:0.781652
G1 X95.055 Y103.994 E.01186
;WIDTH:0.737768
G1 X95.049 Y103.802 E.0111
;WIDTH:0.693884
G1 X95.043 Y103.609 E.01045
;WIDTH:0.649999
G1 X95.191 Y101.693 E.09701
G1 X94.902 Y98.483 E.16269
G1 X94.507 Y96.968 E.07903
;WIDTH:0.6839
G1 X94.443 Y96.668 E.01635
;WIDTH:0.717801
G1 X94.38 Y96.368 E.0172
;WIDTH:0.751702
G1 X94.316 Y96.068 E.01808
G1 X94.156 Y95.563 E.03122
;WIDTH:0.720659
G1 X93.996 Y95.058 E.02985
;WIDTH:0.715545
G1 X93.53 Y94.032 E.06302
;WIDTH:0.741475
G1 X93.063 Y93.005 E.06553
G1 X92.804 Y92.503 E.03281
;WIDTH:0.713254
G1 X92.545 Y92.001 E.03149
;WIDTH:0.715282
G1 X92.007 Y91.208 E.05357
;WIDTH:0.745532
G1 X91.468 Y90.415 E.05602
G1 X91.08 Y89.89 E.03814
;WIDTH:0.714813
G1 X90.692 Y89.364 E.03652
;WIDTH:0.684094
G1 X90.588 Y89.241 E.00859
;WIDTH:0.715021
G1 X90.04 Y88.673 E.04411
;WIDTH:0.746696
G1 X89.493 Y88.104 E.04619
G1 X88.899 Y87.535 E.04814
;WIDTH:0.715073
G1 X88.306 Y86.965 E.04597
;WIDTH:0.684564
G1 X88.182 Y86.861 E.00863
;WIDTH:0.714764
G1 X87.683 Y86.494 E.0346
;WIDTH:0.744963
G1 X87.183 Y86.126 E.03624
G1 X86.362 Y85.57 E.05788
;WIDTH:0.715336
G1 X85.54 Y85.015 E.05545
;WIDTH:0.688695
G1 X85.401 Y84.933 E.00867
;WIDTH:0.714517
G1 X84.998 Y84.731 E.02517
;WIDTH:0.740338
G1 X84.595 Y84.529 E.02614
G1 X82.479 Y83.572 E.13467
;WIDTH:0.695739
G1 X82.328 Y83.514 E.00878
;WIDTH:0.732805
G1 X81.789 Y83.351 E.0323
G1 X79.215 Y82.68 E.15259
;WIDTH:0.722375
G1 X78.833 Y82.62 E.02185
G1 X75.844 Y82.366 E.16948
;WIDTH:0.709852
G1 X75.68 Y82.366 E.00909
;WIDTH:0.722672
G1 X72.7 Y82.62 E.16905
G1 X72.31 Y82.68 E.0223
;WIDTH:0.733033
G1 X69.743 Y83.349 E.15222
G1 X69.045 Y83.572 E.04205
;WIDTH:0.740488
G1 X66.937 Y84.525 E.13418
G1 X66.46 Y84.77 E.0311
;WIDTH:0.713052
G1 X65.984 Y85.015 E.02983
;WIDTH:0.715329
G1 X65.166 Y85.568 E.05521
;WIDTH:0.745042
G1 X64.348 Y86.121 E.05765
G1 X63.845 Y86.491 E.03646
;WIDTH:0.714771
G1 X63.342 Y86.861 E.03488
;WIDTH:0.684499
G1 X63.219 Y86.965 E.00859
;WIDTH:0.715065
G1 X62.628 Y87.532 E.04577
;WIDTH:0.7467
G1 X62.038 Y88.098 E.04785
G1 X61.487 Y88.67 E.04648
;WIDTH:0.715027
G1 X60.937 Y89.241 E.04431
;WIDTH:0.684303
G1 X60.831 Y89.366 E.00874
;WIDTH:0.715732
G1 X60.447 Y89.888 E.03625
;WIDTH:0.74716
G1 X60.064 Y90.409 E.03787
G1 X59.51 Y91.228 E.0579
;WIDTH:0.717462
G1 X58.955 Y92.047 E.05549
;WIDTH:0.690532
G1 X58.874 Y92.184 E.00857
;WIDTH:0.715937
G1 X58.67 Y92.591 E.02548
;WIDTH:0.741341
G1 X58.465 Y92.997 E.02641
G1 X57.997 Y94.028 E.06575
;WIDTH:0.715555
G1 X57.528 Y95.058 E.0633
;WIDTH:0.69432
G1 X57.47 Y95.21 E.00881
;WIDTH:0.734308
G1 X57.289 Y95.803 E.03564
G1 X56.627 Y98.32 E.14962
;WIDTH:0.724376
G1 X56.56 Y98.76 E.02522
G1 X56.304 Y101.69 E.16666
;WIDTH:0.71634
G1 X56.3 Y101.856 E.0093
;WIDTH:0.761671
G1 X56.368 Y102.928 E.0642
;WIDTH:0.807002
G1 X56.436 Y103.999 E.06818
;WIDTH:0.852333
G1 X56.503 Y105.071 E.07229
G1 X56.55 Y105.24 E.01181
;WIDTH:0.817622
G1 X56.777 Y106.014 E.05196
;WIDTH:0.775717
G1 X57.003 Y106.788 E.04913
;WIDTH:0.733811
G1 X57.229 Y107.561 E.04627
;WIDTH:0.691905
G1 X57.456 Y108.335 E.04353
;WIDTH:0.649999
G1 X57.509 Y108.484 E.00798
G1 X58.861 Y111.41 E.16271
G1 X58.94 Y111.547 E.00798
G1 X60.778 Y114.194 E.16267
G1 X60.88 Y114.316 E.00803
G1 X63.15 Y116.604 E.16269
G1 X63.271 Y116.707 E.00802
G1 X65.903 Y118.567 E.16269
G1 X66.039 Y118.647 E.00796
G1 X68.954 Y120.023 E.16272
G1 X69.103 Y120.078 E.00802
G1 X72.361 Y120.954 E.1703
G1 X74.441 Y121.148 E.10545
M204 S1000
G1 X75.137 Y120.603 F10800
M204 S800
;TYPE:External perimeter
G1 F1200
G1 X75.137 Y128.95 E.42135
G1 X54.987 Y128.95 E1.01715
G1 X54.987 Y101.846 E1.36818
G1 X55.245 Y98.575 E.16563
G1 X56.006 Y95.405 E.16456
G1 X57.254 Y92.393 E.16458
G1 X58.957 Y89.613 E.16457
G1 X61.075 Y87.134 E.16459
G1 X63.554 Y85.017 E.16456
G1 X66.334 Y83.314 E.16457
G1 X69.346 Y82.067 E.16456
M73 P1 R91
G1 X72.516 Y81.307 E.16455
G1 X75.767 Y81.052 E.16461
G1 X79.017 Y81.308 E.16456
G1 X82.187 Y82.07 E.16458
G1 X85.198 Y83.318 E.16453
G1 X87.977 Y85.023 E.16458
M73 Q1 S94
G1 X90.456 Y87.141 E.16459
G1 X92.572 Y89.62 E.16452
G1 X94.275 Y92.401 E.16461
G1 X95.594 Y95.588 E.17411
M73 Q1 S93
G1 X95.723 Y95.736 E.00991
G1 X95.874 Y95.776 E.00789
G1 X105 Y95.776 E.46067
G1 X105 Y98.226 E.12367
G1 X102.703 Y98.226 E.11595
G1 X102.651 Y98.23 E.00263
G1 X102.46 Y98.347 E.01131
G1 X102.4 Y98.529 E.00967
G1 X102.4 Y104.226 E.28758
G1 X97.299 Y104.226 E.25749
G1 X96.718 Y104.252 E.02936
G1 X96.594 Y104.352 E.00804
G1 X96.537 Y104.529 E.00939
G1 X96.537 Y128.95 E1.23274
G1 X76.387 Y128.95 E1.01715
G1 X76.387 Y120.604 E.4213
G1 X79.159 Y120.34 E.14056
G1 X82.262 Y119.492 E.16238
G1 X85.272 Y118.071 E.16802
G1 X87.944 Y116.177 E.16533
G1 X90.214 Y113.889 E.16269
G1 X92.112 Y111.155 E.16801
G1 X93.482 Y108.179 E.16538
G1 X94.306 Y105.064 E.16265
G1 X94.513 Y102.679 E.12084
G1 X94.587 Y101.747 E.04719
G1 X94.298 Y98.537 E.16269
G1 X93.429 Y95.324 E.16802
G1 X92.034 Y92.36 E.16536
G1 X90.147 Y89.683 E.16533
G1 X87.865 Y87.407 E.16269
G1 X85.137 Y85.501 E.16799
G1 X82.215 Y84.141 E.16269
G1 X79.051 Y83.29 E.16539
G1 X75.738 Y83 E.16788
G1 X72.473 Y83.29 E.16546
G1 X69.31 Y84.141 E.16534
G1 X66.342 Y85.527 E.16535
G1 X63.7 Y87.373 E.16269
G1 X61.343 Y89.724 E.16805
G1 X59.443 Y92.45 E.16773
G1 X58.077 Y95.374 E.16291
G1 X57.227 Y98.537 E.16533
G1 X56.938 Y101.8 E.16536
G1 X57.209 Y105.012 E.16271
G1 X58.042 Y108.179 E.1653
G1 X59.412 Y111.155 E.16538
G1 X61.277 Y113.848 E.16536
G1 X63.621 Y116.211 E.16801
G1 X66.299 Y118.098 E.16537
G1 X69.213 Y119.474 E.16267
G1 X72.418 Y120.35 E.16772
G1 X75.048 Y120.595 E.13333
M204 S1000
G1 X74.805 Y121.103 F10800
;WIPE_START
G1 F8640
G1 X75.085 Y124.059 E-.8
;WIPE_END
G1 Z.6 F720
G1 X102.437 Y97.012 F10800
G1 Z.2 F720
G1 E.8 F1500
M204 S800
;TYPE:Perimeter
;WIDTH:0.694848
G1 F1200
G1 X102.703 Y97.001 E.01443
;WIDTH:0.671684
G1 X103.775 Y97.001 E.05605
M204 S1000
;WIPE_START
G1 F8640
G1 X102.703 Y97.001 E-.24753
G1 X102.437 Y97.012 E-.06147
;WIPE_END
G1 E-.491 F2100
G1 Z.6 F720
G1 X101.011 Y98.057 F10800
G1 Z.2 F720
G1 E.8 F1500
M204 S800
;TYPE:Solid infill
;WIDTH:0.659879
G1 F1200
G1 X100.46 Y97.506 E.03997
G1 X99.587 Y97.506 E.04479
G1 X100.67 Y98.588 E.07853
G1 X100.67 Y99.461 E.04479
G1 X98.715 Y97.506 E.14183
G1 X97.842 Y97.506 E.04479
G1 X100.67 Y100.333 E.20513
G1 X100.67 Y101.206 E.04479
G1 X96.97 Y97.506 E.26843
G1 X96.097 Y97.506 E.04479
G1 X100.67 Y102.078 E.33173
G1 X100.67 Y102.496 E.02144
G1 X100.214 Y102.496 E.02339
G1 X96.004 Y98.285 E.30547
G1 X96.099 Y99.253 E.0499
G1 X99.342 Y102.496 E.23528
G1 X98.469 Y102.496 E.04479
G1 X96.186 Y100.212 E.16567
G1 X96.272 Y101.171 E.04939
G1 X97.597 Y102.496 E.09613
G1 X96.8 Y102.496 E.04089
G1 X96.738 Y102.509 E.00325
G1 X96.039 Y101.81 E.05071
M204 S1000
;WIPE_START
G1 F8640
G1 X96.738 Y102.509 E-.22826
G1 X96.8 Y102.496 E-.01463
G1 X97.597 Y102.496 E-.18403
G1 X96.454 Y101.353 E-.37308
;WIPE_END
G1 Z.6 F720
G1 X95.08 Y110.367 F10800
G1 Z.2 F720
G1 E.8 F1500
M204 S800
;WIDTH:0.659141
G1 F1200
