; generated by PrusaSlicer 2.6.1+win64 on 2023-09-19 at 14:32:06 UTC


;
;
; 

; external perimeters extrusion width = 0.45mm
; perimeters extrusion width = 0.45mm
; infill extrusion width = 0.45mm
; solid infill extrusion width = 0.45mm
; top infill extrusion width = 0.40mm
; first layer extrusion width = 0.42mm

M73 P0 R41
M73 Q0 S42
M201 X1000 Y1000 Z200 E5000 ; sets maximum accelerations, mm/sec^2
M203 X200 Y200 Z12 E120 ; sets maximum feedrates, mm / sec
M204 S1250 T1250 ; sets acceleration (S) and retract acceleration (R), mm/sec^2
M205 X8.00 Y8.00 Z0.40 E4.50 ; sets the jerk limits, mm/sec
M205 S0 T0 ; sets the minimum extruding and travel feed rate, mm/sec
;TYPE:Custom
M862.3 P "MK3S" ; printer model check
M862.1 P0.4 ; nozzle diameter check
M115 U3.12.2 ; tell printer latest fw version
G90 ; use absolute coordinates
M83 ; extruder relative mode
M104 S240 ; set extruder temp
M140 S85 ; set bed temp
M190 S85 ; wait for bed temp
M109 S240 ; wait for extruder temp
G28 W ; home all without mesh bed level
G80 ; mesh bed leveling

G1 Z0.2 F720
G1 Y-3 F1000 ; go outside print area
G92 E0
G1 X60 E9 F1000 ; intro line
G1 X100 E12.5 F1000 ; intro line

G92 E0
M221 S95

; Don't change E values below. Excessive value can damage the printer.
M907 E430 ; set extruder motor current
G21 ; set units to millimeters
G90 ; use absolute coordinates
M83 ; use relative distances for extrusion
M900 K0.08 ; Filament gcode LA 1.5
M900 K45 ; Filament gcode LA 1.0
M107
;LAYER_CHANGE
;Z:0.2
;HEIGHT:0.2
;BEFORE_LAYER_CHANGE
G92 E0.0
;0.2


G1 E-1 F2100
M73 Q0 S41
G1 Z.2 F720
;AFTER_LAYER_CHANGE
;0.2
G1 Z.4
G1 X101.747 Y79.207 F10800
G1 Z.2 F720
G1 E1 F2100
M204 S800
;TYPE:Skirt/Brim
;WIDTH:0.42
G1 F1200
G1 X102.142 Y78.841 E.01688
G1 X102.906 Y78.369 E.02816
G1 X103.743 Y78.082 E.02774
G1 X104.622 Y77.964 E.02781
G1 X145.163 Y77.962 E1.27113
G1 X146.416 Y78.154 E.03975
G1 X146.972 Y78.366 E.01866
G1 X147.745 Y78.84 E.02843
G1 X148.139 Y79.207 E.01688
G1 X148.534 Y79.731 E.02057
G1 X148.885 Y80.551 E.02797
G1 X148.974 Y81.044 E.01571
G1 X148.983 Y108.172 E.85058
G1 X148.724 Y111.514 E.1051
G1 X147.905 Y115.099 E.1153
G1 X146.519 Y118.592 E.11783
G1 X144.626 Y121.792 E.11657
G1 X142.005 Y124.925 E.12808
G1 X139.189 Y127.354 E.1166
G1 X136.358 Y129.147 E.10507
G1 X132.959 Y130.654 E.11658
G1 X129.006 Y131.683 E.12807
G1 X125.672 Y132.018 E.10506
G1 X121.958 Y131.843 E.11658
G1 X118.315 Y131.098 E.11659
G1 X114.499 Y129.642 E.12806
G1 X111.302 Y127.786 E.11591
G1 X101.921 Y120.434 E.3737
G1 X101.133 Y119.32 E.04278
G1 X101.01 Y118.563 E.02405
G1 X101.01 Y80.962 E1.17895
G1 X101.381 Y79.687 E.04163
G1 X101.711 Y79.255 E.01704
M204 S1000
; printing object Motor_Bracket_37,3mm_rev0-10 id:0 copy 0
;WIPE_START
G1 F8640
G1 X102.142 Y78.841 E-.13799
G1 X102.906 Y78.369 E-.20736
G1 X103.743 Y78.082 E-.20431
G1 X104.622 Y77.964 E-.20478
G1 X105.685 Y77.964 E-.24556
;WIPE_END
G1 Z.4 F720
G1 X126.961 Y87.57 F10800
G1 Z.2 F720
G1 E1 F2100
M204 S800
;TYPE:Perimeter
;WIDTH:0.419999
G1 F1200
G1 X126.961 Y82.257 E.16659
G1 X144.695 Y82.259 E.55604
G1 X144.695 Y102.426 E.63232
G1 X144.358 Y101.151 E.04135
G1 X144.258 Y100.873 E.00926
G1 X142.878 Y97.889 E.10308
G1 X142.732 Y97.633 E.00924
G1 X140.856 Y94.933 E.10309
G1 X140.667 Y94.706 E.00926
G1 X138.352 Y92.372 E.10307
G1 X138.126 Y92.181 E.00928
G1 X135.441 Y90.284 E.10308
G1 X135.184 Y90.134 E.00933
G1 X132.176 Y88.721 E.1042
G1 X131.901 Y88.619 E.0092
G1 X129.057 Y87.844 E.09242
G1 X128.474 Y87.711 E.01875
G1 X127.021 Y87.576 E.04575
M204 S1000
G1 X126.584 Y87.914 F10800
M204 S800
G1 F1200
G1 X126.584 Y81.891 E.18885
G1 X145.072 Y81.882 E.57968
G1 X145.072 Y101.107 E.60279
;WIDTH:0.468389
G1 X145.048 Y101.765 E.02329
;WIDTH:0.516779
G1 X145.024 Y102.422 E.0259
;WIDTH:0.565169
G1 X144.999 Y103.08 E.02859
;WIDTH:0.613559
G1 X144.975 Y103.737 E.03119
;WIDTH:0.661948
G1 X144.951 Y104.395 E.03389
G1 X144.759 Y103.765 E.0339
;WIDTH:0.613559
G1 X144.568 Y103.136 E.03119
;WIDTH:0.565169
G1 X144.376 Y102.507 E.02856
;WIDTH:0.516779
G1 X144.185 Y101.877 E.02594
;WIDTH:0.468389
G1 X143.993 Y101.248 E.02327
;WIDTH:0.419999
G1 X143.915 Y101.032 E.0072
G1 X142.536 Y98.047 E.1031
G1 X142.422 Y97.848 E.00719
G1 X140.546 Y95.148 E.10309
G1 X140.399 Y94.972 E.00719
G1 X138.084 Y92.638 E.10307
G1 X137.909 Y92.489 E.00721
G1 X135.224 Y90.592 E.10308
G1 X135.023 Y90.475 E.00729
G1 X132.015 Y89.062 E.1042
G1 X131.801 Y88.983 E.00715
G1 X128.957 Y88.207 E.09243
G1 X128.439 Y88.086 E.01668
G1 X126.644 Y87.919 E.05652
M204 S1000
;WIPE_START
G1 F8640
G1 X126.601 Y83.588 E-1
;WIPE_END
G1 Z.4 F720
G1 X122.925 Y87.57 F10800
G1 Z.2 F720
G1 E1 F2100
M204 S800
G1 F1200
G1 X121.413 Y87.711 E.04761
G1 X121.123 Y87.764 E.00924
G1 X117.95 Y88.63 E.10313
G1 X117.673 Y88.732 E.00926
G1 X114.7 Y90.135 E.10307
G1 X114.445 Y90.284 E.00926
G1 X111.76 Y92.181 E.10308
G1 X111.535 Y92.372 E.00925
M73 Q1 S41
G1 X109.219 Y94.706 E.10309
G1 X109.03 Y94.933 E.00926
M73 P1 R41
G1 X107.155 Y97.633 E.10307
G1 X107.008 Y97.889 E.00926
G1 X105.629 Y100.873 E.10307
G1 X105.529 Y101.151 E.00926
G1 X105.305 Y101.996 E.02741
G1 X105.305 Y82.257 E.6189
G1 X122.925 Y82.257 E.55246
G1 X122.925 Y87.51 E.1647
M204 S1000
G1 X123.302 Y87.914 F10800
M204 S800
G1 F1200
G1 X121.448 Y88.087 E.05838
G1 X121.223 Y88.127 E.00717
G1 X118.05 Y88.994 E.10313
G1 X117.834 Y89.073 E.00721
G1 X114.861 Y90.476 E.10307
G1 X114.662 Y90.592 E.00722
G1 X111.978 Y92.489 E.10305
G1 X111.802 Y92.638 E.00723
G1 X109.487 Y94.972 E.10307
G1 X109.34 Y95.148 E.00719
G1 X107.464 Y97.848 E.10309
G1 X107.35 Y98.047 E.00719
G1 X105.971 Y101.032 E.1031
G1 X105.893 Y101.248 E.0072
;WIDTH:0.462122
G1 X105.593 Y102.302 E.0382
;WIDTH:0.504244
G1 X105.292 Y103.356 E.04205
;WIDTH:0.546366
G1 X104.991 Y104.41 E.04589
G1 X104.97 Y103.314 E.04589
;WIDTH:0.504244
G1 X104.949 Y102.218 E.04205
;WIDTH:0.462122
G1 X104.928 Y101.122 E.03821
;WIDTH:0.419999
G1 X104.928 Y81.88 E.60332
G1 X123.302 Y81.891 E.5761
G1 X123.302 Y87.854 E.18697
M204 S1000
;WIPE_START
G1 F8640
G1 X121.448 Y88.087 E-.43146
G1 X121.223 Y88.127 E-.05277
G1 X119.068 Y88.716 E-.51577
;WIPE_END
G1 Z.4 F720
G1 X105.305 Y113.966 F10800
G1 Z.2 F720
G1 E1 F2100
M204 S800
G1 F1200
G1 X105.667 Y115.207 E.04053
G1 X106.364 Y116.694 E.05149
G1 X106.147 Y116.645 E.00698
G1 X105.305 Y116.645 E.0264
G1 X105.305 Y114.026 E.08212
M204 S1000
;WIPE_START
G1 F8640
G1 X105.667 Y115.207 E-.28522
G1 X106.364 Y116.694 E-.3792
G1 X106.147 Y116.645 E-.05137
G1 X105.305 Y116.645 E-.19442
G1 X105.305 Y116.256 E-.08979
;WIPE_END
G1 Z.4 F720
G1 X104.987 Y111.552 F10800
G1 Z.2 F720
G1 E1 F2100
M204 S800
;WIDTH:0.53864
G1 F1200
G1 X105.032 Y111.669 E.00517
;WIDTH:0.501276
G1 X105.481 Y113.25 E.06264
;WIDTH:0.460638
G1 X105.93 Y114.832 E.05712
;WIDTH:0.419999
G1 X106.009 Y115.047 E.00718
G1 X107.185 Y117.558 E.08694
G1 X106.721 Y117.153 E.01931
G1 X106.147 Y117.022 E.01846
G1 X104.928 Y117.022 E.03822
G1 X104.928 Y114.965 E.0645
;WIDTH:0.460638
G1 X104.948 Y113.321 E.05711
;WIDTH:0.501276
G1 X104.969 Y111.677 E.06266
;WIDTH:0.53864
G1 X104.979 Y111.611 E.00275
M204 S1000
;WIPE_START
G1 F8640
G1 X105.032 Y111.669 E-.01814
G1 X105.481 Y113.25 E-.37949
G1 X105.93 Y114.832 E-.37972
G1 X106.009 Y115.047 E-.05289
G1 X106.321 Y115.713 E-.16976
;WIPE_END
G1 Z.4 F720
G1 X123.679 Y88.257 F10800
G1 Z.2 F720
G1 E1 F2100
M204 S800
;WIDTH:0.419999
G1 F1200
G1 X121.483 Y88.462 E.06915
G1 X121.322 Y88.491 E.00513
G1 X118.149 Y89.357 E.10313
G1 X117.995 Y89.414 E.00515
G1 X115.022 Y90.817 E.10307
G1 X114.88 Y90.9 E.00516
G1 X112.195 Y92.797 E.10308
G1 X112.07 Y92.903 E.00514
G1 X109.755 Y95.237 E.10307
G1 X109.65 Y95.363 E.00514
G1 X107.774 Y98.063 E.10309
G1 X107.693 Y98.206 E.00515
G1 X106.313 Y101.19 E.10308
G1 X106.258 Y101.344 E.00513
G1 X105.417 Y104.522 E.10307
G1 X105.389 Y104.684 E.00515
G1 X105.259 Y106.214 E.04814
;WIDTH:0.469803
G1 X105.223 Y106.344 E.00479
;WIDTH:0.519607
G1 X105.187 Y106.475 E.00538
;WIDTH:0.569411
G1 X105.151 Y106.606 E.00595
G1 X105.108 Y107.281 E.02961
;WIDTH:0.540837
G1 X105.066 Y107.956 E.028
;WIDTH:0.512548
G1 X105.066 Y108.128 E.00672
;WIDTH:0.540878
G1 X105.108 Y108.757 E.0261
;WIDTH:0.569208
G1 X105.151 Y109.387 E.02763
G1 X105.188 Y109.517 E.00591
;WIDTH:0.519472
G1 X105.224 Y109.647 E.00535
;WIDTH:0.469736
G1 X105.261 Y109.778 E.00483
;WIDTH:0.419999
G1 X105.407 Y111.398 E.051
G1 X105.436 Y111.56 E.00516
G1 X106.294 Y114.733 E.10306
G1 X106.35 Y114.887 E.00514
G1 X107.25 Y116.808 E.06651
;WIDTH:0.463066
G1 X107.308 Y116.981 E.00637
;WIDTH:0.506133
G1 X107.365 Y117.155 E.00705
;WIDTH:0.5492
G1 X107.423 Y117.329 E.00772
;WIDTH:0.592266
G1 X107.481 Y117.503 E.00838
G1 X107.773 Y118.044 E.02808
;WIDTH:0.571661
G1 X108.628 Y119.277 E.06597
G1 X108.701 Y119.348 E.00448
;WIDTH:0.533746
G1 X108.774 Y119.418 E.00413
;WIDTH:0.49583
G1 X108.847 Y119.489 E.00383
;WIDTH:0.457915
G1 X108.92 Y119.56 E.00351
;WIDTH:0.419999
G1 X109.823 Y120.821 E.04863
G1 X112.277 Y123.248 E.10822
G1 X114.972 Y125.131 E.10308
G1 X115.114 Y125.213 E.00514
G1 X118.094 Y126.6 E.10306
G1 X118.249 Y126.656 E.00517
G1 X121.425 Y127.506 E.10309
G1 X121.586 Y127.534 E.00512
G1 X124.861 Y127.82 E.10308
G1 X125.028 Y127.82 E.00524
G1 X128.504 Y127.494 E.10947
G1 X131.43 Y126.712 E.09496
G1 X131.792 Y126.6 E.01188
G1 X134.915 Y125.131 E.10821
G1 X137.735 Y123.143 E.10818
G1 X140.063 Y120.821 E.10309
G1 X140.169 Y120.696 E.00514
G1 X142.059 Y118.006 E.10308
G1 X142.141 Y117.864 E.00514
G1 X143.536 Y114.887 E.10308
G1 X143.593 Y114.733 E.00515
G1 X144.451 Y111.56 E.10306
G1 X144.48 Y111.398 E.00516
G1 X144.774 Y108.124 E.10307
G1 X144.775 Y107.96 E.00514
G1 X144.497 Y104.684 E.10309
G1 X144.469 Y104.522 E.00515
G1 X143.629 Y101.344 E.10307
G1 X143.573 Y101.19 E.00514
G1 X142.194 Y98.206 E.10307
G1 X142.112 Y98.063 E.00517
G1 X140.237 Y95.363 E.10307
G1 X140.132 Y95.237 E.00514
G1 X137.816 Y92.903 E.10309
G1 X137.691 Y92.797 E.00514
G1 X135.006 Y90.9 E.10308
G1 X134.863 Y90.817 E.00518
G1 X131.855 Y89.403 E.10421
G1 X131.702 Y89.347 E.00511
G1 X128.858 Y88.571 E.09243
G1 X128.404 Y88.462 E.01464
G1 X126.207 Y88.257 E.06918
G1 X126.207 Y81.578 E.20942
G1 X126.625 Y81.503 E.01332
G1 X145.072 Y81.505 E.57839
G1 X145.449 Y81.574 E.01202
G1 X145.449 Y107.944 E.82681
G1 X145.2 Y111.15 E.10082
G1 X144.471 Y114.236 E.09942
G1 X143.274 Y117.172 E.09941
G1 X141.638 Y119.889 E.09944
G1 X139.604 Y122.321 E.09941
G1 X137.219 Y124.41 E.09941
G1 X134.54 Y126.106 E.09942
G1 X131.631 Y127.37 E.09945
G1 X128.563 Y128.169 E.0994
G1 X125.432 Y128.483 E.09866
G1 X122.241 Y128.312 E.10019
G1 X119.14 Y127.653 E.0994
G1 X116.2 Y126.531 E.09867
G1 X113.424 Y124.949 E.10018
G1 X110.947 Y122.97 E.09941
G1 X108.804 Y120.633 E.09942
G1 X108.35 Y119.95 E.02571
;WIDTH:0.457915
G1 X108.31 Y119.856 E.00353
;WIDTH:0.49583
G1 X108.27 Y119.763 E.00381
;WIDTH:0.533746
G1 X108.231 Y119.669 E.00415
;WIDTH:0.571661
G1 X108.191 Y119.575 E.00449
G1 X107.353 Y118.332 E.06591
;WIDTH:0.552669
G1 X107.335 Y118.305 E.00138
;WIDTH:0.592266
G1 X107.003 Y117.772 E.02868
G1 X106.892 Y117.702 E.00599
;WIDTH:0.5492
G1 X106.78 Y117.632 E.00556
;WIDTH:0.506133
G1 X106.669 Y117.562 E.00505
;WIDTH:0.463066
G1 X106.557 Y117.493 E.0046
;WIDTH:0.419999
G1 X106.147 Y117.399 E.01319
G1 X104.551 Y117.399 E.05004
G1 X104.551 Y109.81 E.23795
;WIDTH:0.469736
G1 X104.576 Y109.677 E.0048
;WIDTH:0.519472
G1 X104.601 Y109.543 E.0054
;WIDTH:0.569208
G1 X104.626 Y109.41 E.00592
G1 X104.611 Y108.78 E.02758
;WIDTH:0.540878
G1 X104.597 Y108.149 E.02613
;WIDTH:0.512548
G1 X104.597 Y107.936 E.00832
;WIDTH:0.540837
G1 X104.611 Y107.26 E.02799
;WIDTH:0.569411
G1 X104.626 Y106.583 E.02964
G1 X104.601 Y106.45 E.00592
;WIDTH:0.519607
G1 X104.576 Y106.317 E.00536
;WIDTH:0.469803
G1 X104.551 Y106.184 E.0048
;WIDTH:0.419999
G1 X104.551 Y81.54 E.77269
G1 X104.821 Y81.503 E.00854
M73 P1 R40
G1 X123.226 Y81.503 E.57707
G1 X123.679 Y81.578 E.0144
G1 X123.679 Y88.197 E.20753
M204 S1000
G1 X124.056 Y88.601 F10800
M204 S800
G1 F1200
G1 X121.421 Y88.855 E.083
G1 X118.248 Y89.721 E.10313
G1 X115.183 Y91.158 E.10614
G1 X112.413 Y93.105 E.10616
G1 X110.022 Y95.503 E.10618
G1 X108.035 Y98.364 E.10922
G1 X106.622 Y101.441 E.10616
G1 X105.765 Y104.716 E.10614
M73 Q2 S41
G1 X105.488 Y108.09 E.10615
M73 P2 R40
G1 X105.8 Y111.461 E.10615
G1 X106.692 Y114.727 E.10615
G1 X108.136 Y117.789 E.10615
G1 X110.09 Y120.554 E.10616
G1 X111.719 Y122.179 E.07214
G1 X112.493 Y122.939 E.03401
G1 X115.188 Y124.822 E.10308
G1 X118.254 Y126.258 E.10615
G1 X121.619 Y127.158 E.10922
G1 X124.994 Y127.444 E.1062
G1 X128.409 Y127.129 E.10753
G1 X131.633 Y126.258 E.10471
G1 X134.064 Y125.127 E.08407
G1 X134.699 Y124.822 E.02209
G1 X137.469 Y122.876 E.10614
G1 X139.797 Y120.554 E.10309
G1 X141.75 Y117.789 E.10614
G1 X143.195 Y114.727 E.10616
G1 X144.087 Y111.461 E.10615
G1 X144.399 Y108.09 E.10615
G1 X144.122 Y104.716 E.10615
G1 X143.264 Y101.441 E.10615
G1 X141.803 Y98.278 E.10924
G1 X139.864 Y95.503 E.10614
G1 X137.474 Y93.105 E.10615
G1 X134.703 Y91.158 E.10619
G1 X131.603 Y89.711 E.10727
G1 X128.369 Y88.837 E.10504
G1 X125.83 Y88.601 E.07995
G1 X125.83 Y81.956 E.20835
G1 X125.845 Y81.38 E.01807
G1 X126.058 Y81.231 E.00815
G1 X126.596 Y81.126 E.01719
G1 X145.072 Y81.127 E.5793
G1 X145.493 Y81.193 E.01336
G1 X145.737 Y81.298 E.00833
G1 X145.826 Y81.429 E.00497
G1 X145.826 Y107.958 E.8318
G1 X145.574 Y111.208 E.10221
G1 X144.831 Y114.351 E.10126
G1 X143.612 Y117.342 E.10127
G1 X141.946 Y120.108 E.10124
G1 X139.874 Y122.585 E.10125
G1 X137.445 Y124.713 E.10125
G1 X134.717 Y126.441 E.10125
G1 X131.755 Y127.727 E.10125
G1 X128.63 Y128.541 E.10125
G1 X125.441 Y128.861 E.10049
G1 X122.191 Y128.687 E.10205
G1 X119.033 Y128.015 E.10123
G1 X116.039 Y126.873 E.10047
G1 X113.212 Y125.262 E.10202
G1 X110.689 Y123.247 E.10124
G1 X108.506 Y120.866 E.10128
G1 X106.618 Y118.028 E.10688
G1 X106.393 Y117.832 E.00936
G1 X106.147 Y117.776 E.00791
G1 X104.174 Y117.776 E.06186
G1 X104.174 Y81.297 E1.14377
G1 X104.471 Y81.169 E.01014
G1 X104.803 Y81.126 E.0105
G1 X123.226 Y81.126 E.57764
G1 X123.702 Y81.19 E.01506
G1 X123.943 Y81.29 E.00818
G1 X124.056 Y81.412 E.00521
G1 X124.056 Y88.541 E.22352
M204 S1000
G1 X124.433 Y88.945 F10800
M204 S800
;TYPE:External perimeter
G1 F1200
G1 X121.52 Y89.219 E.09174
G1 X118.348 Y90.085 E.1031
G1 X115.344 Y91.499 E.1041
G1 X112.63 Y93.413 E.10413
G1 X110.29 Y95.768 E.10409
G1 X108.377 Y98.522 E.10514
G1 X106.987 Y101.537 E.1041
M73 Q2 S40
G1 X106.14 Y104.748 E.10412
G1 X105.863 Y108.056 E.10408
G1 X106.164 Y111.363 E.10412
G1 X107.033 Y114.567 E.10409
G1 X108.445 Y117.572 E.1041
G1 X110.356 Y120.287 E.1041
G1 X111.985 Y121.912 E.07214
G1 X112.709 Y122.63 E.03197
G1 X115.404 Y124.513 E.10308
G1 X118.413 Y125.916 E.1041
G1 X121.652 Y126.783 E.10513
G1 X124.96 Y127.069 E.10411
G1 X128.314 Y126.764 E.1056
G1 X131.474 Y125.916 E.10258
G1 X133.904 Y124.785 E.08404
G1 X134.483 Y124.513 E.02006
G1 X137.203 Y122.609 E.1041
G1 X139.531 Y120.287 E.10309
G1 X141.442 Y117.572 E.1041
G1 X142.853 Y114.567 E.10409
G1 X143.723 Y111.363 E.1041
G1 X144.023 Y108.056 E.10411
G1 X143.746 Y104.748 E.10408
G1 X142.899 Y101.537 E.10412
G1 X141.493 Y98.493 E.10513
G1 X139.596 Y95.768 E.1041
G1 X137.256 Y93.413 E.10409
G1 X134.542 Y91.499 E.10413
G1 X131.504 Y90.075 E.1052
G1 X128.334 Y89.213 E.103
G1 X125.453 Y88.945 E.09072
G1 X125.453 Y81.604 E.23017
G1 X125.49 Y81.214 E.01228
G1 X125.67 Y81.006 E.00862
G1 X126 Y80.837 E.01162
G1 X126.567 Y80.749 E.01799
G1 X145.072 Y80.75 E.58021
G1 X145.562 Y80.822 E.01553
G1 X145.97 Y80.993 E.01387
G1 X146.161 Y81.203 E.0089
G1 X146.203 Y81.429 E.00721
G1 X146.203 Y107.973 E.83227
G1 X145.948 Y111.267 E.10359
G1 X145.191 Y114.466 E.10307
G1 X143.95 Y117.511 E.1031
G1 X142.254 Y120.328 E.1031
G1 X140.145 Y122.85 E.10308
G1 X137.672 Y125.016 E.10308
G1 X134.894 Y126.775 E.10309
G1 X131.878 Y128.085 E.1031
G1 X128.696 Y128.914 E.1031
G1 X125.45 Y129.24 E.10229
G1 X122.142 Y129.062 E.10387
G1 X118.926 Y128.378 E.10309
G1 X115.877 Y127.215 E.10232
G1 X112.999 Y125.575 E.10386
G1 X110.431 Y123.523 E.10307
G1 X108.209 Y121.1 E.10308
G1 X106.304 Y118.237 E.10782
