; generated by PrusaSlicer 2.6.1+win64 on 2023-09-18 at 16:06:02 UTC


;
;
; 

; external perimeters extrusion width = 0.45mm
; perimeters extrusion width = 0.45mm
; infill extrusion width = 0.45mm
; solid infill extrusion width = 0.45mm
; top infill extrusion width = 0.40mm
; first layer extrusion width = 0.42mm

; external perimeters extrusion width = 0.45mm
; perimeters extrusion width = 0.45mm
; infill extrusion width = 0.45mm
; solid infill extrusion width = 0.45mm
; top infill extrusion width = 0.40mm
; first layer extrusion width = 0.42mm

M73 P0 R92
M73 Q0 S93
M201 X1000 Y1000 Z200 E5000 ; sets maximum accelerations, mm/sec^2
M203 X200 Y200 Z12 E120 ; sets maximum feedrates, mm / sec
M204 S1250 T1250 ; sets acceleration (S) and retract acceleration (R), mm/sec^2
M205 X8.00 Y8.00 Z0.40 E4.50 ; sets the jerk limits, mm/sec
M205 S0 T0 ; sets the minimum extruding and travel feed rate, mm/sec
;TYPE:Custom
M862.3 P "MK3S" ; printer model check
M862.1 P0.4 ; nozzle diameter check
M115 U3.12.2 ; tell printer latest fw version
G90 ; use absolute coordinates
M83 ; extruder relative mode
M104 S240 ; set extruder temp
M140 S85 ; set bed temp
M190 S85 ; wait for bed temp
M109 S240 ; wait for extruder temp
G28 W ; home all without mesh bed level
G80 ; mesh bed leveling

G1 Z0.2 F720
G1 Y-3 F1000 ; go outside print area
G92 E0
G1 X60 E9 F1000 ; intro line
G1 X100 E12.5 F1000 ; intro line

G92 E0
M221 S95

; Don't change E values below. Excessive value can damage the printer.
M907 E430 ; set extruder motor current
G21 ; set units to millimeters
G90 ; use absolute coordinates
M83 ; use relative distances for extrusion
M900 K0.08 ; Filament gcode LA 1.5
M900 K45 ; Filament gcode LA 1.0
M107
;LAYER_CHANGE
;Z:0.2
;HEIGHT:0.2
;BEFORE_LAYER_CHANGE
G92 E0.0
;0.2


G1 E-1 F2100
G1 Z.2 F720
;AFTER_LAYER_CHANGE
;0.2
; printing object Motor_Bracket_37,3mm_rev0-7 id:0 copy 0
G1 Z.4
G1 X108.328 Y81.33 F10800
G1 Z.2 F720
G1 E1 F2100
M204 S800
;TYPE:Perimeter
;WIDTH:0.419999
G1 F1200
G1 X111.082 Y76.56 E.1727
G1 X126.27 Y85.331 E.54991
G1 X116.175 Y102.815 E.63301
G1 X116.508 Y101.587 E.03989
G1 X116.56 Y101.296 E.00927
G1 X116.855 Y98.056 E.10201
G1 X116.856 Y97.761 E.00925
G1 X116.585 Y94.519 E.102
G1 X116.535 Y94.228 E.00926
G1 X115.705 Y91.082 E.10202
G1 X115.606 Y90.804 E.00925
G1 X114.243 Y87.849 E.10203
G1 X114.095 Y87.589 E.00938
G1 X112.207 Y84.881 E.10351
G1 X112.021 Y84.658 E.0091
G1 X110.063 Y82.68 E.08727
G1 X109.545 Y82.193 E.02229
G1 X108.377 Y81.365 E.04489
M204 S1000
G1 X107.829 Y81.439 F10800
M204 S800
G1 F1200
G1 X110.938 Y76.054 E.19496
G1 X126.785 Y85.193 E.57358
G1 X117.138 Y101.902 E.60495
;WIDTH:0.467784
G1 X116.792 Y102.453 E.02299
;WIDTH:0.515569
G1 X116.446 Y103.005 E.0256
;WIDTH:0.563354
G1 X116.1 Y103.556 E.02816
;WIDTH:0.611139
G1 X115.754 Y104.108 E.03078
;WIDTH:0.658924
G1 X115.408 Y104.66 E.03337
G1 X115.555 Y104.025 E.03339
;WIDTH:0.611139
G1 X115.702 Y103.391 E.03075
;WIDTH:0.563354
G1 X115.85 Y102.757 E.02817
;WIDTH:0.515569
G1 X115.997 Y102.122 E.02562
;WIDTH:0.467784
G1 X116.144 Y101.488 E.02299
;WIDTH:0.419999
G1 X116.185 Y101.262 E.0072
G1 X116.48 Y98.022 E.10201
G1 X116.48 Y97.792 E.00721
G1 X116.209 Y94.55 E.102
G1 X116.17 Y94.324 E.00719
G1 X115.341 Y91.178 E.10201
G1 X115.263 Y90.962 E.0072
G1 X113.901 Y88.007 E.10202
G1 X113.785 Y87.805 E.0073
G1 X111.898 Y85.097 E.10349
G1 X111.753 Y84.923 E.0071
G1 X109.795 Y82.945 E.08727
G1 X109.327 Y82.501 E.02023
G1 X107.878 Y81.474 E.05569
M204 S1000
;WIPE_START
G1 F8640
G1 X110.007 Y77.703 E-1
;WIPE_END
G1 Z.4 F720
G1 X104.832 Y79.312 F10800
G1 Z.2 F720
G1 E1 F2100
M204 S800
G1 F1200
G1 X103.476 Y78.689 E.04679
G1 X103.199 Y78.59 E.00922
G1 X100.057 Y77.765 E.10185
G1 X99.766 Y77.715 E.00926
G1 X96.524 Y77.447 E.102
G1 X96.229 Y77.448 E.00925
G1 X92.989 Y77.746 E.10202
G1 X92.698 Y77.798 E.00927
G1 X89.559 Y78.653 E.10201
G1 X89.282 Y78.755 E.00926
G1 X86.338 Y80.141 E.10202
G1 X86.083 Y80.29 E.00926
G1 X83.424 Y82.165 E.10201
G1 X83.108 Y82.447 E.01328
M73 Q0 S92
G1 X92.651 Y65.919 E.5984
G1 X107.586 Y74.542 E.54072
G1 X104.862 Y79.26 E.17082
M204 S1000
G1 X104.987 Y79.798 F10800
M204 S800
G1 F1200
G1 X103.318 Y79.032 E.05758
G1 X103.103 Y78.955 E.00716
G1 X99.961 Y78.13 E.10185
G1 X99.735 Y78.091 E.00719
G1 X96.493 Y77.823 E.102
G1 X96.263 Y77.824 E.00721
G1 X93.023 Y78.121 E.10201
G1 X92.797 Y78.162 E.0072
G1 X89.658 Y79.017 E.10201
G1 X89.442 Y79.096 E.00721
G1 X86.499 Y80.482 E.102
G1 X86.3 Y80.598 E.00722
G1 X83.642 Y82.473 E.10199
G1 X83.466 Y82.622 E.00723
G1 X81.331 Y84.77 E.09496
G1 X92.513 Y65.403 E.70118
G1 X108.096 Y74.413 E.56439
G1 X105.017 Y79.746 E.19308
M204 S1000
;WIPE_START
G1 F8640
G1 X103.318 Y79.032 E-.42554
G1 X103.103 Y78.955 E-.05273
G1 X100.918 Y78.381 E-.52173
;WIPE_END
G1 Z.4 F720
G1 X77.389 Y91.724 F10800
G1 Z.2 F720
G1 E1 F2100
M204 S800
;WIDTH:0.545104
G1 F1200
G1 X76.903 Y93.551 E.07894
G1 X76.846 Y93.872 E.01361
;WIDTH:0.505001
G1 X76.788 Y94.193 E.01253
;WIDTH:0.464898
G1 X76.731 Y94.514 E.01144
;WIDTH:0.424795
G1 X76.681 Y95.287 E.0246
;WIDTH:0.391764
G1 X76.632 Y96.059 E.02244
;WIDTH:0.405683
G1 X76.603 Y96.124 E.00215
;WIDTH:0.452633
G1 X76.574 Y96.188 E.00239
;WIDTH:0.499583
G1 X76.545 Y96.252 E.00267
;WIDTH:0.546533
G1 X76.515 Y96.317 E.003
;WIDTH:0.593483
G1 X76.486 Y96.381 E.00322
;WIDTH:0.640432
G1 X76.457 Y96.445 E.00349
G1 X76.434 Y96.379 E.00347
;WIDTH:0.593483
G1 X76.41 Y96.312 E.00326
;WIDTH:0.546533
G1 X76.387 Y96.246 E.00293
;WIDTH:0.499583
G1 X76.363 Y96.179 E.0027
;WIDTH:0.452633
G1 X76.34 Y96.112 E.00241
;WIDTH:0.405683
G1 X76.317 Y96.046 E.00211
;WIDTH:0.391764
G1 X76.333 Y95.272 E.02246
;WIDTH:0.424795
G1 X76.35 Y94.498 E.02458
;WIDTH:0.447768
G1 X76.361 Y94.233 E.00893
;WIDTH:0.496436
G1 X76.385 Y93.826 E.01537
;WIDTH:0.545104
G1 X76.41 Y93.42 E.01699
G1 X77.359 Y91.776 E.07926
M204 S1000
;WIPE_START
G1 F8640
G1 X76.903 Y93.551 E-.42316
G1 X76.846 Y93.872 E-.07528
G1 X76.788 Y94.193 E-.07532
G1 X76.731 Y94.514 E-.07528
G1 X76.681 Y95.287 E-.17886
G1 X76.634 Y96.031 E-.1721
;WIPE_END
G1 Z.4 F720
G1 X107.331 Y81.548 F10800
G1 Z.2 F720
G1 E1 F2100
M204 S800
;WIDTH:0.419999
G1 F1200
G1 X110.768 Y75.595 E.21553
G1 X111.168 Y75.739 E.01333
G1 X126.973 Y84.866 E.57225
G1 X127.265 Y85.115 E.01203
G1 X114.082 Y107.949 E.8267
G1 X112.159 Y110.726 E.10591
G1 X109.841 Y113.117 E.10441
G1 X107.163 Y115.097 E.10442
G1 X104.198 Y116.613 E.10441
G1 X101.025 Y117.624 E.10442
G1 X97.73 Y118.103 E.1044
G1 X94.4 Y118.036 E.10443
G1 X91.127 Y117.427 E.10438
G1 X87.996 Y116.29 E.10444
G1 X85.094 Y114.658 E.10439
G1 X82.498 Y112.572 E.10442
G1 X80.277 Y110.091 E.10441
G1 X78.491 Y107.28 E.10442
G1 X77.189 Y104.215 E.10441
G1 X76.406 Y100.978 E.10442
G1 X76.146 Y97.445 E.11107
G1 X76.03 Y97.055 E.01276
G1 X75.97 Y96.994 E.00268
G1 X75.97 Y93.302 E.11576
G1 X76.063 Y93.142 E.0058
;WIDTH:0.456779
G1 X76.496 Y92.427 E.02877
;WIDTH:0.493558
G1 X76.93 Y91.712 E.03134
;WIDTH:0.530337
G1 X77.364 Y90.997 E.0339
;WIDTH:0.569205
G1 X77.493 Y90.813 E.00983
G1 X78.014 Y89.861 E.04749
;WIDTH:0.520466
G1 X78.536 Y88.91 E.04308
;WIDTH:0.471726
G1 X79.057 Y87.958 E.03869
;WIDTH:0.422986
G1 X79.155 Y87.787 E.00623
;WIDTH:0.468517
G1 X79.717 Y86.86 E.03836
;WIDTH:0.514316
G1 X80.28 Y85.932 E.04255
;WIDTH:0.560114
G1 X80.842 Y85.004 E.04666
;WIDTH:0.579314
G1 X81.351 Y84.102 E.04619
;WIDTH:0.539486
G1 X81.74 Y83.387 E.03361
;WIDTH:0.499657
G1 X82.13 Y82.673 E.0309
;WIDTH:0.459828
G1 X82.519 Y81.958 E.02822
;WIDTH:0.419999
G1 X92.37 Y64.896 E.61773
G1 X108.224 Y74.039 E.57383
G1 X108.579 Y74.331 E.01441
G1 X105.141 Y80.284 E.21554
G1 X103.161 Y79.375 E.06831
G1 X103.007 Y79.319 E.00514
G1 X99.866 Y78.495 E.10182
G1 X99.704 Y78.467 E.00515
G1 X96.462 Y78.198 E.102
G1 X96.298 Y78.199 E.00514
G1 X93.058 Y78.497 E.10202
G1 X92.896 Y78.526 E.00516
G1 X89.757 Y79.381 E.10201
G1 X89.603 Y79.438 E.00515
G1 X86.66 Y80.824 E.102
G1 X86.518 Y80.906 E.00514
G1 X83.859 Y82.782 E.10203
G1 X83.734 Y82.887 E.00512
;WIDTH:0.459828
G1 X83.146 Y83.45 E.02822
;WIDTH:0.499657
G1 X82.559 Y84.013 E.03089
;WIDTH:0.539486
G1 X81.971 Y84.576 E.03361
;WIDTH:0.579314
G1 X81.384 Y85.139 E.03628
G1 X81.278 Y85.281 E.0079
;WIDTH:0.560114
G1 X80.677 Y86.184 E.04665
;WIDTH:0.514316
G1 X80.076 Y87.088 E.04255
;WIDTH:0.468517
G1 X79.476 Y87.991 E.03837
;WIDTH:0.422986
G1 X79.394 Y88.133 E.00518
;WIDTH:0.471726
G1 X78.916 Y89.107 E.03868
;WIDTH:0.520466
G1 X78.438 Y90.081 E.04308
;WIDTH:0.569205
G1 X77.96 Y91.055 E.04748
G1 X77.919 Y91.226 E.0077
;WIDTH:0.530337
G1 X77.722 Y92.039 E.0339
;WIDTH:0.493558
G1 X77.525 Y92.852 E.03135
;WIDTH:0.456779
G1 X77.328 Y93.664 E.02875
;WIDTH:0.419999
G1 X77.109 Y94.547 E.02852
G1 X76.832 Y97.952 E.10711
G1 X77.15 Y101.355 E.10716
G1 X78.052 Y104.65 E.10711
G1 X79.512 Y107.74 E.10715
G1 X81.486 Y110.529 E.10713
G1 X83.788 Y112.828 E.10201
G1 X83.913 Y112.934 E.00514
G1 X86.579 Y114.8 E.10203
G1 X86.721 Y114.882 E.00514
G1 X89.669 Y116.257 E.10199
G1 X89.824 Y116.313 E.00517
G1 X92.966 Y117.157 E.10201
G1 X93.127 Y117.185 E.00512
G1 X96.368 Y117.471 E.10201
G1 X96.532 Y117.471 E.00514
G1 X99.774 Y117.191 E.10203
G1 X99.935 Y117.163 E.00512
G1 X103.079 Y116.325 E.10202
G1 X103.234 Y116.269 E.00517
G1 X106.185 Y114.899 E.10201
G1 X106.327 Y114.817 E.00514
G1 X108.996 Y112.956 E.10202
G1 X109.121 Y112.851 E.00512
G1 X111.427 Y110.556 E.10201
G1 X111.533 Y110.43 E.00516
G1 X113.406 Y107.77 E.102
G1 X113.488 Y107.628 E.00514
G1 X114.872 Y104.683 E.10203
G1 X114.928 Y104.53 E.00511
G1 X115.78 Y101.389 E.10204
G1 X115.809 Y101.228 E.00513
G1 X116.104 Y97.988 E.10201
G1 X116.105 Y97.824 E.00514
G1 X115.833 Y94.582 E.10201
G1 X115.805 Y94.42 E.00515
G1 X114.976 Y91.274 E.10201
G1 X114.921 Y91.119 E.00516
G1 X113.559 Y88.165 E.10199
G1 X113.476 Y88.02 E.00524
G1 X111.589 Y85.313 E.10346
G1 X111.485 Y85.188 E.0051
G1 X109.527 Y83.211 E.08724
G1 X109.109 Y82.808 E.01821
G1 X107.38 Y81.583 E.06644
M204 S1000
G1 X106.833 Y81.657 F10800
M204 S800
G1 F1200
G1 X110.253 Y75.734 E.21445
G1 X110.553 Y75.242 E.01807
G1 X110.813 Y75.22 E.00818
G1 X111.331 Y75.398 E.01717
G1 X127.162 Y84.539 E.57317
G1 X127.539 Y84.845 E.01522
G1 X127.689 Y85.127 E.01001
G1 X114.401 Y108.151 E.8335
G1 X112.451 Y110.966 E.10737
M73 P0 R91
G1 X110.09 Y113.402 E.10637
G1 X107.363 Y115.419 E.10635
G1 X104.342 Y116.963 E.10638
G1 X101.11 Y117.993 E.10636
G1 X97.753 Y118.48 E.10636
G1 X94.362 Y118.413 E.10634
G1 X91.027 Y117.792 E.10636
G1 X87.839 Y116.634 E.10635
G1 X84.882 Y114.971 E.10637
G1 X82.237 Y112.847 E.10636
G1 X79.975 Y110.319 E.10636
G1 X78.156 Y107.456 E.10635
G1 X76.83 Y104.334 E.10635
G1 X76.032 Y101.037 E.10636
G1 X75.77 Y97.472 E.11208
G1 X75.7 Y97.238 E.00766
G1 X75.593 Y97.13 E.00477
G1 X75.593 Y93.201 E.12319
G1 X92.195 Y64.445 E1.0411
G1 X92.343 Y64.475 E.00473
G1 X92.627 Y64.598 E.0097
G1 X108.412 Y73.712 E.5715
G1 X108.793 Y74.006 E.01509
G1 X108.951 Y74.213 E.00816
G1 X108.988 Y74.376 E.00524
G1 X105.296 Y80.77 E.2315
G1 X102.911 Y79.684 E.08217
G1 X99.77 Y78.859 E.10182
G1 X96.43 Y78.574 E.1051
G1 X93.092 Y78.872 E.10508
G1 X89.856 Y79.745 E.10509
G1 X86.82 Y81.165 E.10509
G1 X84.001 Y83.153 E.10816
G1 X81.645 Y85.537 E.10509
G1 X79.737 Y88.292 E.10507
G1 X78.336 Y91.337 E.10509
G1 X77.485 Y94.579 E.10509
G1 X77.207 Y97.919 E.10509
G1 X77.514 Y101.257 E.1051
G1 X78.394 Y104.491 E.10509
G1 X79.821 Y107.523 E.10507
G1 X81.753 Y110.262 E.10509
G1 X84.054 Y112.562 E.10201
G1 X86.795 Y114.491 E.10509
G1 X89.829 Y115.915 E.10509
G1 X93.064 Y116.793 E.1051
G1 X96.402 Y117.096 E.10509
G1 X99.838 Y116.799 E.10813
G1 X103.075 Y115.927 E.10511
G1 X106.111 Y114.508 E.10508
G1 X108.855 Y112.584 E.10508
G1 X111.161 Y110.289 E.10201
G1 X113.098 Y107.553 E.10511
G1 X114.53 Y104.523 E.10508
G1 X115.434 Y101.194 E.10816
G1 X115.729 Y97.855 E.1051
G1 X115.441 Y94.516 E.10508
G1 X114.578 Y91.277 E.1051
G1 X113.167 Y88.236 E.10511
G1 X111.217 Y85.454 E.10652
G1 X108.891 Y83.116 E.1034
G1 X106.882 Y81.692 E.07721
M204 S1000
G1 X106.334 Y81.766 F10800
M204 S800
;TYPE:External perimeter
G1 F1200
G1 X110.102 Y75.24 E.23628
G1 X110.329 Y74.921 E.01228
G1 X110.589 Y74.831 E.00863
G1 X110.959 Y74.849 E.01161
G1 X111.494 Y75.056 E.01799
G1 X127.35 Y84.213 E.5741
G1 X127.739 Y84.519 E.01552
G1 X128.01 Y84.877 E.01408
G1 X128.066 Y85.139 E.0084
G1 X128.024 Y85.309 E.00549
G1 X114.719 Y108.353 E.83431
G1 X112.743 Y111.207 E.10884
G1 X110.339 Y113.687 E.1083
G1 X107.562 Y115.74 E.10828
M73 P1 R91
M73 Q1 S92
G1 X104.486 Y117.313 E.10832
G1 X101.195 Y118.361 E.10829
G1 X97.777 Y118.858 E.1083
G1 X94.323 Y118.789 E.10832
G1 X90.927 Y118.157 E.10831
G1 X87.681 Y116.978 E.10828
G1 X84.67 Y115.284 E.10832
G1 X81.977 Y113.122 E.10828
G1 X79.673 Y110.548 E.10831
G1 X77.822 Y107.632 E.10829
G1 X76.471 Y104.453 E.1083
G1 X75.658 Y101.095 E.10833
G1 X75.434 Y98.04 E.09604
G1 X75.371 Y97.422 E.01948
G1 X75.216 Y97.302 E.00615
G1 X75.216 Y93.1 E.13175
G1 X91.995 Y64.038 E1.05218
G1 X92.417 Y64.105 E.0134
G1 X92.8 Y64.263 E.01299
G1 X108.682 Y73.433 E.57501
G1 X109.129 Y73.793 E.018
G1 X109.33 Y74.104 E.01161
G1 X109.382 Y74.374 E.00862
G1 X109.337 Y74.526 E.00497
G1 X105.451 Y81.256 E.24366
G1 X102.815 Y80.049 E.0909
G1 X99.674 Y79.224 E.10182
G1 X96.399 Y78.95 E.10304
G1 X93.127 Y79.248 E.10302
G1 X89.955 Y80.108 E.10305
G1 X86.952 Y81.522 E.10407
G1 X84.269 Y83.419 E.10303
G1 X81.954 Y85.752 E.10305
G1 X80.079 Y88.451 E.10304
G1 X78.701 Y91.434 E.10303
G1 X77.86 Y94.611 E.10304
G1 X77.583 Y97.883 E.10296
G1 X77.878 Y101.158 E.1031
G1 X78.735 Y104.331 E.10305
G1 X80.13 Y107.306 E.10302
G1 X82.019 Y109.995 E.10304
G1 X84.321 Y112.295 E.10203
G1 X87.011 Y114.182 E.10303
G1 X90.019 Y115.585 E.10407
G1 X93.194 Y116.434 E.10305
G1 X96.468 Y116.72 E.10304
G1 X99.741 Y116.434 E.10301
G1 X102.916 Y115.585 E.10305
G1 X105.895 Y114.199 E.10302
G1 X108.589 Y112.317 E.10304
G1 X110.916 Y109.996 E.10305
G1 X112.789 Y107.336 E.102
G1 X114.189 Y104.363 E.10303
G1 X115.058 Y101.16 E.10406
G1 X115.353 Y97.887 E.10304
G1 X115.076 Y94.612 E.10305
G1 X114.236 Y91.435 E.10304
G1 X112.857 Y88.452 E.10304
G1 X110.949 Y85.719 E.10451
G1 X108.673 Y83.424 E.10134
G1 X106.383 Y81.801 E.08801
M204 S1000
G1 X106.692 Y81.588 F10800
;WIPE_START
G1 F8640
G1 X108.519 Y78.033 E-1
;WIPE_END
G1 Z.4 F720
G1 X76.457 Y96.445 F10800
G1 Z.2 F720
G1 E1 F2100
M204 S800
;TYPE:Perimeter
;WIDTH:0.640432
G1 F1200
G1 X76.441 Y96.826 E.01895
;WIDTH:0.607982
G1 X76.454 Y96.944 E.00558
;WIDTH:0.56285
G1 X76.466 Y97.063 E.00517
;WIDTH:0.517717
G1 X76.479 Y97.181 E.00469
;WIDTH:0.472584
G1 X76.491 Y97.3 E.00427
;WIDTH:0.427451
G1 X76.504 Y97.419 E.00383
;WIDTH:0.382318
G1 X76.506 Y97.69 E.00765
;WIDTH:0.34725
G1 X76.508 Y97.961 E.00686
;WIDTH:0.312332
G1 X76.51 Y97.981 E.00045
;WIDTH:0.358366
G1 X76.749 Y100.925 E.07747
G1 X76.796 Y101.181 E.00683
;WIDTH:0.32923
G1 X76.843 Y101.437 E.0062
;WIDTH:0.335393
G1 X77.184 Y102.77 E.03346
;WIDTH:0.370692
G1 X77.525 Y104.104 E.03753
G1 X77.607 Y104.341 E.00683
;WIDTH:0.335919
G1 X77.689 Y104.579 E.00613
;WIDTH:0.301146
G1 X77.77 Y104.782 E.00469
;WIDTH:0.335434
G1 X78.289 Y105.948 E.03104
;WIDTH:0.380992
G1 X78.809 Y107.113 E.03586
G1 X78.978 Y107.421 E.00988
;WIDTH:0.335841
G1 X79.147 Y107.73 E.00858
;WIDTH:0.29069
G1 X79.26 Y107.916 E.00448
;WIDTH:0.317532
G1 X79.696 Y108.568 E.01791
;WIDTH:0.353406
G1 X80.131 Y109.22 E.02024
;WIDTH:0.38928
G1 X80.566 Y109.872 E.02257
G1 X80.754 Y110.108 E.00869
;WIDTH:0.353613
G1 X80.941 Y110.344 E.00778
;WIDTH:0.317946
G1 X81.128 Y110.58 E.00689
;WIDTH:0.282278
G1 X81.271 Y110.745 E.00435
;WIDTH:0.31549
G1 X81.764 Y111.265 E.01624
;WIDTH:0.355516
G1 X82.257 Y111.786 E.01864
;WIDTH:0.395542
G1 X82.749 Y112.307 E.02101
G1 X83.024 Y112.553 E.01082
;WIDTH:0.355661
G1 X83.298 Y112.798 E.00956
;WIDTH:0.31578
G1 X83.572 Y113.044 E.00835
;WIDTH:0.275898
G1 X83.74 Y113.182 E.00421
;WIDTH:0.314125
G1 X84.26 Y113.572 E.01466
;WIDTH:0.356964
G1 X84.78 Y113.962 E.01697
;WIDTH:0.399802
G1 X85.3 Y114.353 E.01931
G1 X85.669 Y114.584 E.01292
;WIDTH:0.357052
G1 X86.037 Y114.816 E.01136
;WIDTH:0.314302
G1 X86.405 Y115.048 E.00982
;WIDTH:0.271552
