; generated by PrusaSlicer 2.6.1+win64 on 2023-09-11 at 15:41:52 UTC


;
;
; 

; external perimeters extrusion width = 0.65mm
; perimeters extrusion width = 0.65mm
; infill extrusion width = 0.65mm
; solid infill extrusion width = 0.65mm
; top infill extrusion width = 0.60mm
; first layer extrusion width = 0.65mm

M73 P0 R109
M73 Q0 S111
M201 X1000 Y1000 Z200 E5000 ; sets maximum accelerations, mm/sec^2
M203 X200 Y200 Z12 E120 ; sets maximum feedrates, mm / sec
M204 S1250 T1250 ; sets acceleration (S) and retract acceleration (R), mm/sec^2
M205 X8.00 Y8.00 Z0.40 E4.50 ; sets the jerk limits, mm/sec
M205 S0 T0 ; sets the minimum extruding and travel feed rate, mm/sec
;TYPE:Custom
M862.3 P "MK3S" ; printer model check
M862.1 P0.6 ; nozzle diameter check
M115 U3.12.2 ; tell printer latest fw version
G90 ; use absolute coordinates
M83 ; extruder relative mode
M104 S240 ; set extruder temp
M140 S85 ; set bed temp
M190 S85 ; wait for bed temp
M109 S240 ; wait for extruder temp
G28 W ; home all without mesh bed level
G80 ; mesh bed leveling

G1 Z0.2 F720
G1 Y-3 F1000 ; go outside print area
G92 E0
G1 X60 E9 F1000 ; intro line
G1 X100 E12.5 F1000 ; intro line

G92 E0
M221 S95
G21 ; set units to millimeters
G90 ; use absolute coordinates
M83 ; use relative distances for extrusion
M900 K0.04 ; Filament gcode LA 1.5
M900 K24 ; Filament gcode LA 1.0
M107
;LAYER_CHANGE
;Z:0.2
;HEIGHT:0.2
;BEFORE_LAYER_CHANGE
G92 E0.0
;0.2


G1 E-1 F2100
G1 Z.2 F720
;AFTER_LAYER_CHANGE
;0.2
G1 Z.4
G1 X62.276 Y81.944 F10800
G1 Z.2 F720
G1 E1 F1500
M204 S800
;TYPE:Skirt/Brim
;WIDTH:0.65
G1 F1200
G1 X66.106 Y79.833 E.22076
G1 X69.84 Y78.551 E.19929
G1 X73.733 Y77.897 E.19927
G1 X172.745 Y77.858 E4.99801
G1 X176.267 Y77.897 E.1778
G1 X180.16 Y78.551 E.19927
G1 X183.894 Y79.833 E.19929
G1 X187.368 Y81.707 E.19925
G1 X190.49 Y84.125 E.19933
G1 X193.15 Y86.994 E.19749
G1 X195.551 Y90.691 E.22252
G1 X196.956 Y93.92 E.17776
G1 X197.952 Y97.74 E.19928
G1 X198.32 Y101.886 E.21011
G1 X198.32 Y129.536 E1.39574
G1 X197.928 Y130.911 E.07217
G1 X196.869 Y131.872 E.07219
G1 X195.713 Y132.143 E.05994
G1 X54.287 Y132.143 E7.13903
G1 X52.912 Y131.75 E.07219
G1 X51.95 Y130.691 E.07222
G1 X51.68 Y129.536 E.05987
G1 X51.68 Y101.886 E1.39574
G1 X51.978 Y98.162 E.18858
G1 X52.906 Y94.325 E.19927
G1 X54.651 Y90.314 E.2208
G1 X56.565 Y87.358 E.17776
G1 X59.174 Y84.442 E.19751
G1 X62.205 Y82 E.19648
M204 S1000
; printing object Motor_Bracket_37,3mm_Mirrored_rev0 id:0 copy 0
;WIPE_START
G1 F8640
G1 X65.991 Y79.897 E-1
;WIPE_END
G1 Z.4 F720
G1 X153.199 Y97.867 F10800
G1 Z.2 F720
G1 E1 F1500
M204 S800
;TYPE:Perimeter
;WIDTH:0.649999
G1 F1200
G1 X150.029 Y97.858 E.16002
G1 X150.029 Y94.59 E.16496
G1 X149.982 Y94.265 E.01658
G1 X154.222 Y94.265 E.21403
G1 X154.044 Y94.741 E.02565
G1 X153.223 Y97.78 E.1589
M204 S1000
G1 X153.697 Y98.615 F10800
M204 S800
G1 F1200
G1 X153.528 Y98.536 E.00942
G1 X152.984 Y98.465 E.02769
G1 X149.422 Y98.465 E.17981
G1 X149.422 Y94.59 E.19561
G1 X149.337 Y93.995 E.03034
G1 X149.168 Y93.657 E.01908
G1 X155.177 Y93.657 E.30333
G1 X154.63 Y94.899 E.06851
G1 X153.781 Y98.04 E.16424
G1 X153.71 Y98.526 E.02479
M204 S1000
;WIPE_START
G1 F8640
G1 X153.528 Y98.536 E-.04209
G1 X152.984 Y98.465 E-.12668
G1 X149.422 Y98.465 E-.82248
G1 X149.422 Y98.427 E-.00875
;WIPE_END
G1 Z.4 F720
G1 X154.206 Y99.733 F10800
G1 Z.2 F720
G1 E1 F1500
M204 S800
G1 F1200
G1 X153.858 Y99.348 E.0262
G1 X153.373 Y99.123 E.02699
G1 X152.984 Y99.072 E.0198
G1 X148.814 Y99.072 E.2105
G1 X148.814 Y94.59 E.22625
G1 X148.754 Y94.165 E.02167
G1 X148.511 Y93.679 E.02743
G1 X148.011 Y93.251 E.03322
;WIDTH:0.67169
G1 X147.297 Y93.061 E.03863
G1 X148.061 Y93.05 E.03995
;WIDTH:0.649999
G1 X155.664 Y93.05 E.38379
G1 X156.187 Y92.932 E.02706
G1 X155.307 Y94.81 E.10469
G1 X155.216 Y95.058 E.01333
G1 X154.43 Y97.965 E.15201
G1 X154.321 Y98.458 E.02549
G1 X154.214 Y99.644 E.06011
M204 S1000
;WIPE_START
G1 F8640
G1 X153.858 Y99.348 E-.1069
G1 X153.373 Y99.123 E-.12345
G1 X152.984 Y99.072 E-.09059
G1 X150.043 Y99.072 E-.67906
;WIPE_END
G1 Z.4 F720
G1 X171.184 Y123.052 F10800
G1 Z.2 F720
G1 E1 F1500
M204 S800
G1 F1200
G1 X171.184 Y126.582 E.17819
G1 X155.716 Y126.582 E.78081
G1 X155.716 Y112.643 E.70362
G1 X157.624 Y115.406 E.1695
G1 X157.928 Y115.772 E.02402
G1 X160.22 Y118.082 E.16426
G1 X160.583 Y118.389 E.024
G1 X163.24 Y120.266 E.16421
G1 X163.656 Y120.509 E.02432
G1 X166.645 Y121.91 E.16663
G1 X167.084 Y122.072 E.02362
G1 X169.769 Y122.806 E.14051
G1 X170.638 Y123.001 E.04496
G1 X171.095 Y123.043 E.02317
M204 S1000
G1 X171.792 Y122.499 F10800
M204 S800
G1 F1200
G1 X171.792 Y127.189 E.23675
G1 X155.109 Y127.189 E.84214
G1 X155.109 Y109.959 E.86975
G1 X156.083 Y112.067 E.11722
G1 X156.267 Y112.388 E.01868
G1 X158.123 Y115.06 E.16423
G1 X158.359 Y115.344 E.01864
G1 X160.651 Y117.654 E.16426
G1 X160.933 Y117.893 E.01866
G1 X163.59 Y119.771 E.16424
G1 X163.914 Y119.959 E.01891
G1 X166.902 Y121.361 E.16661
G1 X167.244 Y121.487 E.0184
G1 X169.929 Y122.22 E.1405
G1 X170.694 Y122.396 E.03963
G1 X171.702 Y122.49 E.0511
M204 S1000
G1 X172.399 Y121.945 F10800
M204 S800
G1 F1200
G1 X172.399 Y127.796 E.29535
G1 X154.502 Y127.796 E.90342
G1 X154.502 Y106.048 E1.09781
G1 X155.18 Y108.61 E.13378
G1 X155.269 Y108.859 E.01335
G1 X156.634 Y111.812 E.16422
G1 X156.765 Y112.042 E.01336
G1 X158.621 Y114.714 E.16423
G1 X158.79 Y114.917 E.01333
G1 X161.082 Y117.227 E.16426
G1 X161.283 Y117.397 E.01329
G1 X163.94 Y119.275 E.16424
G1 X164.172 Y119.41 E.01355
G1 X167.16 Y120.811 E.16659
G1 X167.404 Y120.901 E.01313
G1 X170.089 Y121.635 E.14051
G1 X170.751 Y121.792 E.03434
G1 X172.309 Y121.937 E.07899
M204 S1000
;WIPE_START
G1 F8640
G1 X172.376 Y126.267 E-1
;WIPE_END
G1 Z.4 F720
G1 X177.291 Y123.052 F10800
G1 Z.2 F720
M73 P0 R108
G1 E1 F1500
M204 S800
G1 F1200
G1 X178.305 Y122.916 E.05164
G1 X181.437 Y122.059 E.16391
G1 X181.883 Y121.895 E.02399
G1 X184.825 Y120.506 E.16423
G1 X185.236 Y120.266 E.02403
G1 X187.893 Y118.389 E.16421
G1 X188.256 Y118.082 E.024
G1 X190.547 Y115.772 E.16423
G1 X190.851 Y115.406 E.02402
G1 X192.759 Y112.643 E.1695
G1 X192.759 Y126.582 E.70362
G1 X177.291 Y126.582 E.78081
G1 X177.291 Y123.142 E.17365
M204 S1000
G1 X176.684 Y122.499 F10800
M204 S800
G1 F1200
G1 X177.782 Y122.396 E.05567
G1 X178.144 Y122.33 E.01857
G1 X181.277 Y121.474 E.16395
G1 X181.624 Y121.346 E.01867
G1 X184.566 Y119.957 E.16423
G1 X184.886 Y119.771 E.01868
G1 X187.543 Y117.893 E.16424
G1 X187.825 Y117.654 E.01866
G1 X190.116 Y115.344 E.16423
G1 X190.353 Y115.06 E.01867
G1 X192.209 Y112.388 E.16423
G1 X192.393 Y112.067 E.01868
G1 X193.367 Y109.959 E.11722
G1 X193.367 Y127.189 E.86975
G1 X176.684 Y127.189 E.84214
G1 X176.684 Y122.589 E.2322
M204 S1000
G1 X176.077 Y121.945 F10800
M204 S800
G1 F1200
G1 X177.725 Y121.792 E.08355
G1 X177.984 Y121.745 E.01329
G1 X181.117 Y120.888 E.16396
G1 X181.365 Y120.797 E.01333
G1 X184.307 Y119.408 E.16423
G1 X184.535 Y119.275 E.01332
G1 X187.192 Y117.397 E.16424
G1 X187.394 Y117.227 E.01333
G1 X189.685 Y114.917 E.16423
G1 X189.854 Y114.714 E.01333
G1 X191.71 Y112.042 E.16423
G1 X191.841 Y111.812 E.01336
G1 X193.206 Y108.859 E.16422
G1 X193.296 Y108.61 E.01337
G1 X193.974 Y106.048 E.13378
G1 X193.974 Y127.796 E1.09781
G1 X176.077 Y127.796 E.90342
M73 Q0 S110
G1 X176.077 Y122.035 E.29081
M204 S1000
;WIPE_START
G1 F8640
G1 X177.725 Y121.792 E-.38464
G1 X177.984 Y121.745 E-.06078
G1 X180.301 Y121.111 E-.55458
;WIPE_END
G1 Z.4 F720
G1 X114.757 Y94.758 F10800
G1 Z.2 F720
G1 E1 F1500
M204 S800
;WIDTH:0.593829
G1 F1200
G1 X114.106 Y93.629 E.0597
G1 X115.028 Y93.629 E.04224
G1 X114.846 Y93.984 E.01827
G1 X114.767 Y94.668 E.03154
M204 S1000
;WIPE_START
G1 F8640
G1 X114.106 Y93.629 E-.28434
G1 X115.028 Y93.629 E-.21289
G1 X114.846 Y93.984 E-.09212
G1 X114.767 Y94.668 E-.15899
;WIPE_END
G1 E-.25166 F2100
G1 Z.4 F720
G1 X115.336 Y96.919 F10800
G1 Z.2 F720
G1 E1 F1500
M204 S800
;WIDTH:0.649999
G1 F1200
G1 X113.553 Y93.831 E.18
G1 X113.048 Y93.306 E.03677
;WIDTH:0.67169
G1 X112.239 Y93.061 E.04419
G1 X113.122 Y93.05 E.04617
;WIDTH:0.649999
G1 X115.34 Y93.05 E.11196
;WIDTH:0.694854
G1 X116.588 Y93.073 E.06766
G1 X116.144 Y93.244 E.02579
;WIDTH:0.657642
G1 X115.647 Y93.67 E.03346
;WIDTH:0.649999
G1 X115.401 Y94.152 E.02732
G1 X115.336 Y94.59 E.02235
G1 X115.336 Y96.829 E.11302
M204 S1000
;WIPE_START
G1 F8640
G1 X113.553 Y93.831 E-.80542
G1 X113.048 Y93.306 E-.1682
G1 X112.939 Y93.273 E-.02638
;WIPE_END
G1 Z.4 F720
G1 X95.478 Y93.073 F10800
G1 Z.2 F720
G1 E1 F1500
M204 S800
;WIDTH:0.694854
G1 F1200
G1 X95.09 Y93.207 E.02225
;WIDTH:0.674352
G1 X94.604 Y93.577 E.03207
;WIDTH:0.665969
G1 X94.344 Y94.047 E.02783
G1 X93.827 Y92.943 E.06316
G1 X94.371 Y93.058 E.02881
;WIDTH:0.694854
G1 X95.388 Y93.072 E.05514
M204 S1000
;WIPE_START
G1 F8640
G1 X95.09 Y93.207 E-.07554
G1 X94.604 Y93.577 E-.14104
G1 X94.344 Y94.047 E-.12402
G1 X93.827 Y92.943 E-.28148
G1 X94.371 Y93.058 E-.12839
G1 X95.388 Y93.072 E-.23485
;WIPE_END
G1 E-.01468 F2100
G1 Z.4 F720
G1 X94.284 Y120.839 F10800
G1 Z.2 F720
G1 E1 F1500
M204 S800
;WIDTH:0.649999
G1 F1200
G1 X94.284 Y126.582 E.2899
G1 X78.815 Y126.582 E.78086
G1 X78.815 Y123.052 E.17819
G1 X79.829 Y122.916 E.05164
G1 X82.962 Y122.059 E.16396
G1 X83.408 Y121.895 E.02399
G1 X86.35 Y120.506 E.16423
G1 X86.76 Y120.266 E.02398
G1 X89.417 Y118.389 E.16421
G1 X89.78 Y118.082 E.024
G1 X92.072 Y115.772 E.16426
G1 X92.376 Y115.406 E.02402
G1 X94.284 Y112.643 E.1695
G1 X94.284 Y120.749 E.40918
M204 S1000
G1 X94.891 Y120.839 F10800
M204 S800
G1 F1200
G1 X94.891 Y127.189 E.32054
G1 X78.208 Y127.189 E.84214
G1 X78.208 Y122.499 E.23675
G1 X79.306 Y122.396 E.05567
G1 X79.669 Y122.33 E.01862
G1 X82.802 Y121.474 E.16395
G1 X83.148 Y121.346 E.01862
G1 X86.091 Y119.957 E.16427
G1 X86.41 Y119.771 E.01864
G1 X89.067 Y117.893 E.16424
G1 X89.349 Y117.654 E.01866
G1 X91.641 Y115.344 E.16426
G1 X91.877 Y115.06 E.01864
G1 X93.733 Y112.388 E.16423
G1 X93.917 Y112.067 E.01868
G1 X94.891 Y109.959 E.11722
G1 X94.891 Y120.749 E.54467
M204 S1000
G1 X95.498 Y120.839 F10800
M204 S800
G1 F1200
G1 X95.498 Y127.796 E.35118
G1 X77.601 Y127.796 E.90342
G1 X77.601 Y121.945 E.29535
G1 X79.25 Y121.792 E.0836
G1 X79.509 Y121.745 E.01329
G1 X82.642 Y120.888 E.16396
G1 X82.889 Y120.797 E.01329
G1 X85.832 Y119.408 E.16427
G1 X86.06 Y119.275 E.01332
G1 X88.717 Y117.397 E.16424
G1 X88.918 Y117.227 E.01329
G1 X91.21 Y114.917 E.16426
G1 X91.379 Y114.714 E.01333
G1 X93.235 Y112.042 E.16423
G1 X93.366 Y111.812 E.01336
G1 X94.731 Y108.859 E.16422
G1 X94.82 Y108.61 E.01335
G1 X95.498 Y106.048 E.13378
G1 X95.498 Y120.749 E.74209
M204 S1000
;WIPE_START
G1 F8640
G1 X95.498 Y125.08 E-1
;WIPE_END
G1 Z.4 F720
G1 X72.709 Y123.052 F10800
G1 Z.2 F720
G1 E1 F1500
M204 S800
G1 F1200
G1 X72.709 Y126.582 E.17819
G1 X57.241 Y126.582 E.78081
G1 X57.241 Y112.643 E.70362
G1 X59.149 Y115.406 E.1695
G1 X59.453 Y115.772 E.02402
M73 P1 R108
G1 X61.744 Y118.082 E.16423
G1 X62.107 Y118.389 E.024
G1 X64.764 Y120.266 E.16421
M73 Q1 S110
G1 X65.181 Y120.509 E.02436
G1 X68.169 Y121.91 E.16659
G1 X68.609 Y122.072 E.02367
G1 X71.293 Y122.806 E.14046
G1 X72.162 Y123.001 E.04496
G1 X72.619 Y123.043 E.02317
M204 S1000
G1 X73.316 Y122.499 F10800
M204 S800
G1 F1200
G1 X73.316 Y127.189 E.23675
G1 X56.633 Y127.189 E.84214
G1 X56.633 Y109.959 E.86975
G1 X57.607 Y112.067 E.11722
G1 X57.791 Y112.388 E.01868
G1 X59.647 Y115.06 E.16423
G1 X59.884 Y115.344 E.01867
G1 X62.175 Y117.654 E.16423
G1 X62.457 Y117.893 E.01866
G1 X65.114 Y119.771 E.16424
G1 X65.438 Y119.959 E.01891
G1 X68.427 Y121.361 E.16665
G1 X68.769 Y121.487 E.0184
G1 X71.453 Y122.22 E.14045
G1 X72.219 Y122.396 E.03967
G1 X73.226 Y122.49 E.05105
M204 S1000
G1 X73.923 Y121.945 F10800
M204 S800
G1 F1200
G1 X73.923 Y127.796 E.29535
G1 X56.026 Y127.796 E.90342
G1 X56.026 Y106.048 E1.09781
G1 X56.704 Y108.61 E.13378
G1 X56.794 Y108.859 E.01337
G1 X58.158 Y111.812 E.1642
G1 X58.29 Y112.042 E.01339
G1 X60.146 Y114.714 E.16423
G1 X60.315 Y114.917 E.01333
G1 X62.606 Y117.227 E.16423
G1 X62.808 Y117.397 E.01333
G1 X65.465 Y119.275 E.16424
G1 X65.696 Y119.41 E.01351
G1 X68.684 Y120.811 E.16659
G1 X68.929 Y120.901 E.01318
G1 X71.613 Y121.635 E.14046
G1 X72.275 Y121.792 E.03434
G1 X73.833 Y121.937 E.07899
M204 S1000
;WIPE_START
G1 F8640
G1 X73.9 Y126.267 E-1
;WIPE_END
G1 Z.4 F720
G1 X173.006 Y121.392 F10800
G1 Z.2 F720
G1 E1 F1500
M204 S800
G1 F1200
G1 X173.006 Y128.403 E.35391
G1 X153.895 Y128.403 E.9647
G1 X153.895 Y108.699 E.99463
;WIDTH:0.692159
G1 X153.916 Y107.885 E.04396
;WIDTH:0.734318
G1 X153.937 Y107.072 E.04675
;WIDTH:0.776478
G1 X153.958 Y106.258 E.04967
;WIDTH:0.818637
G1 X153.979 Y105.445 E.05246
;WIDTH:0.85367
G1 X153.997 Y105.196 E.01683
G1 X153.974 Y104.112 E.07309
;WIDTH:0.807871
G1 X153.951 Y103.027 E.06903
;WIDTH:0.762072
G1 X153.928 Y101.943 E.06484
;WIDTH:0.716575
G1 X153.928 Y101.72 E.01249
;WIDTH:0.741973
G1 X153.941 Y101.155 E.03285
;WIDTH:0.767371
G1 X153.954 Y100.59 E.03404
G1 X153.895 Y100.441 E.00965
;WIDTH:0.728247
G1 X153.836 Y100.291 E.00919
;WIDTH:0.689123
G1 X153.777 Y100.142 E.00861
;WIDTH:0.649999
G1 X153.508 Y99.845 E.02023
G1 X153.217 Y99.709 E.01621
G1 X152.984 Y99.679 E.01186
G1 X148.207 Y99.679 E.24114
G1 X148.207 Y94.59 E.25689
G1 X148.171 Y94.335 E.013
G1 X148.025 Y94.043 E.01648
G1 X147.725 Y93.786 E.01994
G1 X147.297 Y93.679 E.02227
G1 X116.854 Y93.679 E1.53673
G1 X116.429 Y93.784 E.0221
G1 X116.13 Y94.038 E.0198
G1 X115.982 Y94.327 E.01639
G1 X115.943 Y94.59 E.01342
G1 X115.943 Y99.184 E.2319
G1 X113.028 Y94.134 E.29434
G1 X112.724 Y93.819 E.0221
G1 X112.239 Y93.679 E.02548
G1 X95.744 Y93.679 E.83265
G1 X95.355 Y93.767 E.02013
G1 X95.064 Y93.985 E.01835
G1 X94.87 Y94.335 E.0202
;WIDTH:0.68974
G1 X94.846 Y94.578 E.01313
;WIDTH:0.729481
G1 X94.823 Y94.821 E.01393
G1 X94.885 Y95.025 E.01217
;WIDTH:0.740129
G1 X95.547 Y97.362 E.14081
G1 X95.75 Y98.426 E.0628
;WIDTH:0.745781
G1 X95.93 Y99.639 E.07167
G1 X96.063 Y101.702 E.12082
;WIDTH:0.715671
G1 X96.072 Y101.927 E.0126
;WIDTH:0.761672
G1 X96.049 Y103.017 E.06516
;WIDTH:0.807672
G1 X96.026 Y104.107 E.06933
;WIDTH:0.853672
G1 X96.003 Y105.196 E.07343
G1 X96.021 Y105.445 E.01683
;WIDTH:0.818636
G1 X96.042 Y106.258 E.05246
;WIDTH:0.776477
G1 X96.063 Y107.072 E.04967
;WIDTH:0.734318
G1 X96.084 Y107.885 E.04675
;WIDTH:0.692159
G1 X96.105 Y108.699 E.04396
;WIDTH:0.649999
G1 X96.105 Y128.403 E.99463
G1 X76.994 Y128.403 E.9647
G1 X76.994 Y121.392 E.35391
G1 X79.193 Y121.187 E.11148
G1 X79.349 Y121.159 E.008
G1 X82.482 Y120.303 E.16395
G1 X82.63 Y120.248 E.00797
G1 X85.572 Y118.859 E.16423
G1 X85.709 Y118.779 E.00801
G1 X88.366 Y116.901 E.16424
G1 X88.487 Y116.799 E.00799
G1 X90.779 Y114.489 E.16426
G1 X90.88 Y114.367 E.00799
G1 X92.736 Y111.695 E.16423
G1 X92.815 Y111.558 E.00798
G1 X94.18 Y108.604 E.16426
G1 X94.233 Y108.455 E.00798
;WIDTH:0.692159
G1 X94.462 Y107.674 E.04394
;WIDTH:0.734318
G1 X94.69 Y106.893 E.04677
;WIDTH:0.776477
G1 X94.919 Y106.112 E.04964
;WIDTH:0.818636
G1 X95.147 Y105.331 E.05248
;WIDTH:0.853672
G1 X95.194 Y105.162 E.01183
G1 X95.263 Y104.08 E.07309
;WIDTH:0.807873
G1 X95.331 Y102.997 E.06902
;WIDTH:0.762073
G1 X95.4 Y101.914 E.06489
;WIDTH:0.716273
G1 X95.397 Y101.75 E.00918
;WIDTH:0.745781
G1 X95.229 Y99.69 E.12079
G1 X95.099 Y98.511 E.06932
;WIDTH:0.700466
G1 X95.071 Y98.35 E.00893
;WIDTH:0.740129
G1 X94.875 Y97.55 E.04775
G1 X94.232 Y95.207 E.14085
;WIDTH:0.729481
G1 X94.179 Y95.05 E.00946
G1 X94.008 Y94.733 E.02056
;WIDTH:0.68974
G1 X93.837 Y94.415 E.01942
;WIDTH:0.649999
G1 X93.212 Y93.081 E.07436
;WIDTH:0.69339
G1 X93.079 Y92.746 E.01949
;WIDTH:0.73678
G1 X92.946 Y92.411 E.0208
G1 X92.704 Y91.969 E.02907
;WIDTH:0.724801
G1 X91.015 Y89.546 E.16746
G1 X90.726 Y89.185 E.02622
;WIDTH:0.730962
G1 X88.79 Y87.229 E.15745
G1 X88.296 Y86.785 E.038
;WIDTH:0.736117
G1 X86.218 Y85.305 E.14705
G1 X85.488 Y84.843 E.0498
;WIDTH:0.713355
G1 X84.428 Y84.334 E.06555
;WIDTH:0.740258
G1 X83.368 Y83.826 E.06816
G1 X82.877 Y83.621 E.03085
;WIDTH:0.711804
G1 X82.386 Y83.416 E.02959
;WIDTH:0.713368
G1 X81.351 Y83.124 E.05995
;WIDTH:0.743387
G1 X80.317 Y82.832 E.06258
G1 X79.78 Y82.703 E.03217
;WIDTH:0.713477
