; generated by PrusaSlicer 2.6.1+win64 on 2023-09-12 at 07:30:05 UTC


;
;
; 

; external perimeters extrusion width = 0.65mm
; perimeters extrusion width = 0.65mm
; infill extrusion width = 0.65mm
; solid infill extrusion width = 0.65mm
; top infill extrusion width = 0.60mm
; first layer extrusion width = 0.65mm

M73 P0 R48
M73 Q0 S49
M201 X1000 Y1000 Z200 E5000 ; sets maximum accelerations, mm/sec^2
M203 X200 Y200 Z12 E120 ; sets maximum feedrates, mm / sec
M204 S1250 T1250 ; sets acceleration (S) and retract acceleration (R), mm/sec^2
M205 X8.00 Y8.00 Z0.40 E4.50 ; sets the jerk limits, mm/sec
M205 S0 T0 ; sets the minimum extruding and travel feed rate, mm/sec
;TYPE:Custom
M862.3 P "MK3S" ; printer model check
M862.1 P0.6 ; nozzle diameter check
M115 U3.12.2 ; tell printer latest fw version
G90 ; use absolute coordinates
M83 ; extruder relative mode
M104 S240 ; set extruder temp
M140 S85 ; set bed temp
M190 S85 ; wait for bed temp
M109 S240 ; wait for extruder temp
G28 W ; home all without mesh bed level
G80 ; mesh bed leveling

G1 Z0.2 F720
G1 Y-3 F1000 ; go outside print area
G92 E0
G1 X60 E9 F1000 ; intro line
G1 X100 E12.5 F1000 ; intro line

G92 E0
M221 S95
G21 ; set units to millimeters
G90 ; use absolute coordinates
M83 ; use relative distances for extrusion
M900 K0.04 ; Filament gcode LA 1.5
M900 K24 ; Filament gcode LA 1.0
M107
;LAYER_CHANGE
;Z:0.2
;HEIGHT:0.2
;BEFORE_LAYER_CHANGE
G92 E0.0
;0.2


G1 E-1 F2100
G1 Z.2 F720
;AFTER_LAYER_CHANGE
;0.2
G1 Z.4
G1 X106.142 Y87.22 F10800
G1 Z.2 F720
G1 E1 F1500
M204 S800
;TYPE:Skirt/Brim
;WIDTH:0.65
G1 F1200
G1 X107.791 Y85.213 E.13112
G1 X110.582 Y82.724 E.18877
M73 Q0 S48
G1 X113.724 Y80.694 E.18883
G1 X117.141 Y79.173 E.1888
G1 X120.752 Y78.197 E.18882
G1 X124.469 Y77.788 E.18876
G1 X128.172 Y77.956 E.18712
G1 X132.258 Y78.814 E.21075
G1 X135.379 Y80 E.16854
G1 X138.644 Y81.824 E.18879
G1 X141.589 Y84.129 E.18878
G1 X148.007 Y89.385 E.41875
G1 X148.822 Y90.56 E.07218
G1 X148.962 Y91.402 E.04309
G1 X148.962 Y129.626 E1.9295
G1 X148.57 Y131.001 E.07217
G1 X147.511 Y131.963 E.07222
G1 X146.355 Y132.233 E.05992
G1 X103.645 Y132.233 E2.15595
G1 X102.27 Y131.841 E.07217
G1 X101.308 Y130.782 E.07222
G1 X101.038 Y129.626 E.05992
G1 X101.038 Y101.976 E1.39574
G1 X101.366 Y98.048 E.19897
G1 X102.134 Y94.799 E.16853
G1 X103.515 Y91.324 E.18876
G1 X105.416 Y88.103 E.1888
G1 X106.084 Y87.29 E.05312
M204 S1000
; printing object Motor_Bracket_37,3mm_rev0-4 id:0 copy 0
;WIPE_START
G1 F8640
G1 X107.791 Y85.213 E-.62077
G1 X109.017 Y84.12 E-.37923
;WIPE_END
G1 Z.4 F720
G1 X122.192 Y123.268 F10800
G1 Z.2 F720
G1 E1 F1500
M204 S800
;TYPE:Perimeter
;WIDTH:0.649999
G1 F1200
G1 X122.192 Y126.673 E.17188
G1 X106.598 Y126.673 E.78717
G1 X106.598 Y112.767 E.70196
G1 X108.536 Y115.577 E.17231
G1 X108.84 Y115.943 E.02402
G1 X111.147 Y118.268 E.16534
G1 X111.509 Y118.575 E.02396
G1 X114.184 Y120.465 E.16533
G1 X114.6 Y120.707 E.02429
G1 X117.6 Y122.116 E.16731
G1 X118.043 Y122.279 E.02383
G1 X120.829 Y123.039 E.14577
G1 X121.632 Y123.215 E.0415
G1 X122.102 Y123.259 E.02383
M204 S1000
G1 X122.799 Y122.714 F10800
M204 S800
G1 F1200
G1 X122.799 Y127.28 E.23049
G1 X105.991 Y127.28 E.84845
G1 X105.991 Y110.076 E.86844
G1 X106.982 Y112.22 E.11923
G1 X107.166 Y112.541 E.01868
G1 X109.034 Y115.231 E.16532
G1 X109.271 Y115.515 E.01867
G1 X111.578 Y117.84 E.16534
G1 X111.86 Y118.079 E.01866
G1 X114.535 Y119.97 E.16536
G1 X114.858 Y120.158 E.01887
G1 X117.858 Y121.567 E.16731
G1 X118.202 Y121.693 E.01849
G1 X120.989 Y122.453 E.14582
G1 X121.688 Y122.611 E.03617
G1 X122.709 Y122.706 E.05176
M204 S1000
G1 X123.406 Y122.161 F10800
M204 S800
G1 F1200
G1 X123.406 Y127.887 E.28904
G1 X105.384 Y127.887 E.90973
G1 X105.384 Y106.153 E1.09711
G1 X106.07 Y108.744 E.1353
G1 X106.159 Y108.992 E.0133
G1 X107.533 Y111.965 E.16533
G1 X107.664 Y112.195 E.01336
G1 X109.533 Y114.885 E.16535
G1 X109.702 Y115.088 E.01333
G1 X112.009 Y117.413 E.16534
G1 X112.21 Y117.583 E.01329
G1 X114.885 Y119.474 E.16536
G1 X115.116 Y119.608 E.01348
G1 X118.117 Y121.017 E.16735
G1 X118.362 Y121.108 E.01319
G1 X121.148 Y121.868 E.14577
G1 X121.744 Y122.006 E.03088
G1 X123.316 Y122.153 E.0797
M204 S1000
;WIPE_START
G1 F8640
G1 X123.384 Y126.483 E-1
;WIPE_END
G1 Z.4 F720
G1 X128.298 Y123.268 F10800
G1 Z.2 F720
G1 E1 F1500
M204 S800
G1 F1200
G1 X129.324 Y123.131 E.05225
G1 X132.486 Y122.268 E.16545
G1 X132.933 Y122.103 E.02405
G1 X135.895 Y120.705 E.16534
G1 X136.306 Y120.465 E.02403
G1 X138.981 Y118.575 E.16533
G1 X139.343 Y118.268 E.02396
G1 X141.65 Y115.943 E.16534
G1 X141.954 Y115.577 E.02402
G1 X143.402 Y113.493 E.1281
G1 X143.402 Y126.673 E.66531
G1 X128.298 Y126.673 E.76243
G1 X128.298 Y123.358 E.16734
M204 S1000
M73 Q1 S48
G1 X127.691 Y122.714 F10800
M204 S800
M73 P1 R48
G1 F1200
G1 X128.802 Y122.611 E.05632
G1 X129.165 Y122.545 E.01862
G1 X132.327 Y121.682 E.16545
G1 X132.674 Y121.554 E.01867
G1 X135.636 Y120.156 E.16534
G1 X135.955 Y119.97 E.01864
G1 X138.63 Y118.079 E.16536
G1 X138.912 Y117.84 E.01866
G1 X141.219 Y115.515 E.16534
G1 X141.456 Y115.231 E.01867
G1 X143.324 Y112.541 E.16532
G1 X143.508 Y112.22 E.01868
G1 X144.009 Y111.136 E.06028
G1 X144.009 Y127.28 E.81493
G1 X127.691 Y127.28 E.82371
G1 X127.691 Y122.804 E.22594
M204 S1000
G1 X127.084 Y122.161 F10800
M204 S800
G1 F1200
G1 X128.746 Y122.006 E.08426
G1 X129.005 Y121.959 E.01329
G1 X132.167 Y121.096 E.16545
G1 X132.415 Y121.005 E.01333
G1 X135.377 Y119.607 E.16534
G1 X135.605 Y119.474 E.01332
G1 X138.28 Y117.583 E.16536
G1 X138.481 Y117.413 E.01329
G1 X140.788 Y115.088 E.16534
G1 X140.957 Y114.885 E.01333
G1 X142.826 Y112.195 E.16535
G1 X142.957 Y111.965 E.01336
G1 X144.331 Y108.992 E.16533
G1 X144.42 Y108.744 E.0133
G1 X144.616 Y108.005 E.03859
G1 X144.616 Y127.887 E1.00362
G1 X127.084 Y127.887 E.88499
G1 X127.084 Y122.251 E.2845
M204 S1000
;WIPE_START
G1 F8640
G1 X128.746 Y122.006 E-.38791
G1 X129.005 Y121.959 E-.06078
G1 X131.308 Y121.33 E-.55131
;WIPE_END
G1 Z.4 F720
G1 X144.549 Y95.457 F10800
G1 Z.2 F720
G1 E1 F1500
M204 S800
;WIDTH:0.78463
G1 F1200
G1 X144.354 Y94.829 E.04056
G1 X143.55 Y93.114 E.11682
G1 X143.961 Y93.208 E.026
G1 X144.549 Y93.208 E.03626
G1 X144.549 Y95.367 E.13315
M204 S1000
;WIPE_START
G1 F8640
G1 X144.354 Y94.829 E-.13213
G1 X143.55 Y93.114 E-.43735
G1 X143.961 Y93.208 E-.09735
G1 X144.549 Y93.208 E-.13577
G1 X144.549 Y94.063 E-.1974
;WIPE_END
G1 Z.4 F720
G1 X124.013 Y121.608 F10800
G1 Z.2 F720
G1 E1 F1500
M204 S800
;WIDTH:0.649999
G1 F1200
G1 X124.013 Y128.494 E.3476
G1 X104.777 Y128.494 E.97101
G1 X104.777 Y108.833 E.99246
;WIDTH:0.692339
G1 X104.798 Y108.014 E.04424
;WIDTH:0.734679
G1 X104.819 Y107.195 E.04712
;WIDTH:0.777019
G1 X104.841 Y106.376 E.05001
;WIDTH:0.819358
G1 X104.862 Y105.558 E.05283
;WIDTH:0.854622
G1 X104.879 Y105.309 E.01684
G1 X104.856 Y104.217 E.07372
;WIDTH:0.808516
G1 X104.833 Y103.126 E.06947
;WIDTH:0.76241
G1 X104.81 Y102.034 E.06534
;WIDTH:0.716304
G1 X104.823 Y101.801 E.01307
;WIDTH:0.726245
G1 X105.061 Y98.855 E.16793
G1 X105.182 Y98.259 E.03455
;WIDTH:0.737032
G1 X105.788 Y95.784 E.14707
G1 X106.138 Y94.848 E.05768
;WIDTH:0.716229
G1 X106.558 Y93.855 E.06036
;WIDTH:0.744002
G1 X106.977 Y92.862 E.06283
G1 X107.277 Y92.326 E.03581
;WIDTH:0.715104
G1 X107.553 Y91.839 E.03129
;WIDTH:0.686205
G1 X107.665 Y91.653 E.01161
;WIDTH:0.715801
G1 X108.133 Y90.905 E.04937
;WIDTH:0.747147
G1 X108.601 Y90.157 E.05167
G1 X109.105 Y89.522 E.04747
;WIDTH:0.715524
G1 X109.577 Y88.933 E.04221
;WIDTH:0.684276
G1 X109.717 Y88.766 E.01162
;WIDTH:0.715377
G1 X110.169 Y88.25 E.03836
;WIDTH:0.746478
G1 X110.659 Y87.694 E.04336
G1 X111.364 Y87.055 E.05566
;WIDTH:0.715956
G1 X112.069 Y86.417 E.05321
;WIDTH:0.68794
G1 X112.234 Y86.274 E.01171
;WIDTH:0.714963
G1 X112.633 Y85.945 E.0289
;WIDTH:0.741986
G1 X113.032 Y85.615 E.0301
G1 X113.994 Y84.99 E.06668
;WIDTH:0.716386
G1 X114.956 Y84.365 E.06424
;WIDTH:0.695446
G1 X115.142 Y84.25 E.01187
;WIDTH:0.733664
G1 X115.697 Y83.925 E.03694
G1 X118.108 Y82.858 E.15143
;WIDTH:0.725516
G1 X118.591 Y82.666 E.0295
G1 X121.564 Y81.882 E.17451
;WIDTH:0.712959
G1 X121.82 Y81.844 E.01442
;WIDTH:0.727211
G1 X124.734 Y81.559 E.16659
G1 X125.372 Y81.573 E.03631
;WIDTH:0.737707
G1 X127.885 Y81.729 E.14546
G1 X128.898 Y81.913 E.05948
;WIDTH:0.716199
G1 X129.935 Y82.147 E.05951
;WIDTH:0.744385
G1 X130.972 Y82.381 E.06201
G1 X131.567 Y82.586 E.03671
;WIDTH:0.71514
G1 X132.109 Y82.777 E.03212
;WIDTH:0.685894
G1 X132.313 Y82.853 E.01164
;WIDTH:0.715771
G1 X133.118 Y83.176 E.04853
;WIDTH:0.747233
G1 X133.923 Y83.499 E.0508
G1 X134.627 Y83.878 E.04682
;WIDTH:0.716584
G1 X135.283 Y84.233 E.04178
;WIDTH:0.686327
G1 X135.469 Y84.339 E.01145
;WIDTH:0.717549
G1 X136.067 Y84.698 E.03913
;WIDTH:0.748771
G1 X136.711 Y85.088 E.04419
G1 X137.475 Y85.676 E.05658
;WIDTH:0.717291
G1 X138.24 Y86.265 E.05414
;WIDTH:0.688378
G1 X138.412 Y86.404 E.01187
;WIDTH:0.714925
G1 X138.795 Y86.728 E.02803
;WIDTH:0.741471
G1 X139.179 Y87.053 E.02922
G1 X139.975 Y87.9 E.06751
;WIDTH:0.716414
G1 X140.771 Y88.747 E.06509
;WIDTH:0.696184
G1 X140.917 Y88.91 E.01189
;WIDTH:0.73286
G1 X141.315 Y89.375 E.03511
G1 X142.837 Y91.626 E.15589
;WIDTH:0.700831
G1 X142.854 Y91.65 E.00161
;WIDTH:0.738163
G1 X143.167 Y92.153 E.03425
G1 X143.367 Y92.298 E.01428
;WIDTH:0.694081
G1 X143.566 Y92.443 E.01333
;WIDTH:0.649999
G1 X143.961 Y92.534 E.02046
G1 X145.223 Y92.534 E.0637
G1 X145.223 Y93.579 E.05275
G1 X145.233 Y98.35 E.24083
;WIDTH:0.629281
G1 X145.239 Y98.557 E.0101
;WIDTH:0.618275
G1 X145.263 Y99.649 E.05225
;WIDTH:0.569218
G1 X145.288 Y100.741 E.0478
;WIDTH:0.520161
G1 X145.312 Y101.833 E.04334
;WIDTH:0.471103
G1 X145.313 Y102.013 E.00641
;WIDTH:0.516977
G1 X145.289 Y103.105 E.04305
;WIDTH:0.563093
G1 X145.266 Y104.196 E.0472
;WIDTH:0.609209
G1 X145.243 Y105.288 E.05143
;WIDTH:0.621737
G1 X145.237 Y105.494 E.00992
;WIDTH:0.649999
G1 X145.223 Y128.494 E1.16101
G1 X126.477 Y128.494 E.94628
G1 X126.477 Y121.608 E.3476
G1 X128.69 Y121.402 E.11219
G1 X128.845 Y121.374 E.00795
G1 X132.007 Y120.511 E.16545
G1 X132.156 Y120.456 E.00802
G1 X135.118 Y119.058 E.16534
G1 X135.255 Y118.978 E.00801
G1 X137.929 Y117.088 E.16529
G1 X138.05 Y116.985 E.00802
M73 P1 R47
G1 X140.357 Y114.66 E.16534
G1 X140.458 Y114.538 E.00799
G1 X142.327 Y111.848 E.16535
G1 X142.406 Y111.711 E.00798
G1 X143.78 Y108.738 E.16533
G1 X143.834 Y108.588 E.00805
G1 X144.658 Y105.418 E.16534
;WIDTH:0.621737
G1 X144.678 Y105.264 E.00747
;WIDTH:0.609209
G1 X144.747 Y104.174 E.05143
;WIDTH:0.563093
G1 X144.816 Y103.085 E.0472
;WIDTH:0.516977
G1 X144.885 Y101.995 E.04305
;WIDTH:0.471103
G1 X144.885 Y101.852 E.00509
;WIDTH:0.520161
G1 X144.812 Y100.762 E.04335
;WIDTH:0.569218
G1 X144.738 Y99.673 E.04777
;WIDTH:0.618275
G1 X144.665 Y98.583 E.05226
;WIDTH:0.629281
G1 X144.643 Y98.428 E.00763
;WIDTH:0.649999
G1 X143.798 Y95.264 E.16531
G1 X143.743 Y95.115 E.00802
G1 X142.831 Y93.17 E.10844
;WIDTH:0.694081
G1 X142.698 Y92.832 E.01967
;WIDTH:0.738163
G1 X142.564 Y92.494 E.02102
G1 X142.295 Y91.998 E.03262
;WIDTH:0.73286
G1 X140.746 Y89.765 E.15591
G1 X140.303 Y89.196 E.04137
;WIDTH:0.716414
G1 X139.489 Y88.367 E.06506
;WIDTH:0.741471
G1 X138.675 Y87.537 E.06753
G1 X138.266 Y87.159 E.03235
;WIDTH:0.713641
G1 X137.856 Y86.78 E.03114
;WIDTH:0.717291
G1 X137.073 Y86.217 E.05408
;WIDTH:0.748771
G1 X136.29 Y85.654 E.0566
G1 X135.708 Y85.268 E.04099
;WIDTH:0.717549
G1 X135.126 Y84.883 E.03914
;WIDTH:0.686327
G1 X134.988 Y84.804 E.00851
;WIDTH:0.716584
G1 X134.319 Y84.476 E.04174
;WIDTH:0.747233
G1 X133.649 Y84.147 E.04371
G1 X132.856 Y83.795 E.05081
;WIDTH:0.715771
G1 X132.063 Y83.444 E.04852
;WIDTH:0.685894
G1 X131.912 Y83.388 E.00861
;WIDTH:0.71514
G1 X131.361 Y83.225 E.03212
;WIDTH:0.744385
G1 X130.809 Y83.063 E.03355
G1 X129.779 Y82.802 E.06198
;WIDTH:0.716199
G1 X128.748 Y82.541 E.05954
;WIDTH:0.691739
G1 X128.589 Y82.511 E.00873
;WIDTH:0.737707
G1 X127.836 Y82.422 E.0438
G1 X125.326 Y82.224 E.14546
;WIDTH:0.727211
G1 X124.798 Y82.24 E.03006
G1 X121.9 Y82.503 E.16557
;WIDTH:0.712939
G1 X121.744 Y82.527 E.00879
;WIDTH:0.725516
G1 X118.766 Y83.325 E.17499
G1 X118.378 Y83.458 E.02328
;WIDTH:0.733664
G1 X115.98 Y84.555 E.15146
G1 X115.315 Y84.904 E.04314
;WIDTH:0.716386
G1 X114.367 Y85.55 E.06424
;WIDTH:0.741986
G1 X113.42 Y86.197 E.06667
G1 X112.964 Y86.541 E.0332
;WIDTH:0.71371
G1 X112.508 Y86.886 E.03189
;WIDTH:0.715956
G1 X111.824 Y87.547 E.05323
;WIDTH:0.746478
G1 X111.139 Y88.208 E.05569
G1 X110.664 Y88.703 E.04013
;WIDTH:0.715377
G1 X110.189 Y89.199 E.0384
;WIDTH:0.684276
G1 X110.085 Y89.322 E.00859
;WIDTH:0.715524
G1 X109.638 Y89.932 E.04229
;WIDTH:0.747147
G1 X109.191 Y90.541 E.04424
G1 X108.696 Y91.271 E.05165
;WIDTH:0.715801
G1 X108.202 Y92.002 E.04936
;WIDTH:0.686205
G1 X108.12 Y92.142 E.00868
;WIDTH:0.715104
G1 X107.87 Y92.642 E.03124
;WIDTH:0.744002
G1 X107.619 Y93.143 E.03267
G1 X107.174 Y94.125 E.06285
;WIDTH:0.716229
G1 X106.729 Y95.107 E.06036
;WIDTH:0.692352
G1 X106.672 Y95.258 E.00872
;WIDTH:0.737032
G1 X106.46 Y95.954 E.04199
G1 X105.815 Y98.42 E.14711
;WIDTH:0.726245
G1 X105.742 Y98.912 E.02826
G1 X105.487 Y101.841 E.16705
;WIDTH:0.716245
G1 X105.482 Y102.005 E.00919
;WIDTH:0.762371
G1 X105.551 Y103.095 E.06534
;WIDTH:0.808497
G1 X105.621 Y104.185 E.06953
;WIDTH:0.854622
G1 X105.69 Y105.275 E.07371
G1 X105.737 Y105.444 E.01184
;WIDTH:0.819358
G1 X105.967 Y106.23 E.05287
;WIDTH:0.777019
G1 X106.197 Y107.016 E.04999
;WIDTH:0.734679
G1 X106.426 Y107.802 E.04709
;WIDTH:0.692339
G1 X106.656 Y108.588 E.04422
;WIDTH:0.649999
G1 X106.71 Y108.738 E.00805
G1 X108.084 Y111.711 E.16533
G1 X108.163 Y111.848 E.00798
G1 X110.032 Y114.538 E.16535
G1 X110.133 Y114.66 E.00799
G1 X112.44 Y116.985 E.16534
G1 X112.56 Y117.088 E.00798
G1 X115.235 Y118.978 E.16533
G1 X115.374 Y119.059 E.00812
G1 X118.375 Y120.468 E.16735
G1 X118.522 Y120.522 E.00791
G1 X121.308 Y121.282 E.14577
G1 X121.8 Y121.402 E.02556
G1 X123.923 Y121.6 E.10763
M204 S1000
G1 X124.62 Y121.055 F10800
M204 S800
;TYPE:External perimeter
G1 F1200
G1 X124.62 Y129.101 E.40615
G1 X104.17 Y129.101 E1.03229
G1 X104.17 Y101.996 E1.36823
G1 X104.423 Y98.729 E.16541
G1 X105.172 Y95.559 E.16442
G1 X106.401 Y92.543 E.1644
G1 X108.079 Y89.752 E.16439
G1 X110.168 Y87.253 E.16442
G1 X112.617 Y85.105 E.16444
G1 X115.367 Y83.361 E.16438
G1 X118.354 Y82.061 E.16444
G1 X121.505 Y81.237 E.16441
G1 X124.745 Y80.909 E.16439
G1 X127.997 Y81.083 E.16439
G1 X131.184 Y81.757 E.16443
G1 X134.228 Y82.913 E.16436
G1 X137.059 Y84.525 E.16445
G1 X139.606 Y86.554 E.16438
G1 X141.811 Y88.951 E.16441
G1 X143.709 Y91.792 E.17247
G1 X143.829 Y91.897 E.00805
G1 X143.961 Y91.927 E.00683
G1 X145.83 Y91.927 E.09434
G1 X145.83 Y129.101 E1.8765
G1 X125.87 Y129.101 E1.00756
M73 P2 R47
M73 Q2 S48
G1 X125.87 Y121.055 E.40615
G1 X128.685 Y120.788 E.14274
G1 X131.847 Y119.925 E.16545
G1 X134.859 Y118.509 E.16801
G1 X137.579 Y116.592 E.16798
G1 X139.926 Y114.232 E.16801
G1 X141.855 Y111.456 E.17064
G1 X143.247 Y108.433 E.168
G1 X144.093 Y105.215 E.16796
G1 X144.37 Y101.898 E.16802
G1 X144.066 Y98.584 E.16799
G1 X143.193 Y95.373 E.16797
G1 X141.777 Y92.361 E.16801
G1 X139.86 Y89.641 E.16798
G1 X137.5 Y87.294 E.16801
G1 X134.724 Y85.371 E.17047
G1 X131.75 Y83.992 E.16548
G1 X128.586 Y83.145 E.16534
G1 X125.271 Y82.851 E.16799
G1 X121.905 Y83.145 E.17056
G1 X118.645 Y84.031 E.17053
G1 X115.675 Y85.418 E.16546
G1 X112.949 Y87.328 E.16802
G1 X110.596 Y89.681 E.16798
G1 X108.686 Y92.407 E.16802
G1 X107.296 Y95.373 E.16535
G1 X106.423 Y98.584 E.16797
G1 X106.12 Y101.898 E.16798
G1 X106.396 Y105.215 E.16802
G1 X107.243 Y108.433 E.16797
G1 X108.661 Y111.502 E.17066
G1 X110.564 Y114.232 E.16798
G1 X112.911 Y116.592 E.16801
G1 X115.632 Y118.509 E.16802
G1 X118.682 Y119.936 E.16998
G1 X121.857 Y120.798 E.16607
G1 X124.53 Y121.047 E.13551
M204 S1000
G1 X124.288 Y121.555 F10800
;WIPE_START
G1 F8640
G1 X124.578 Y125.378 E-1
;WIPE_END
G1 Z.4 F720
M73 Q2 S47
G1 X121.949 Y124.729 F10800
G1 Z.2 F720
G1 E1 F1500
M204 S800
;TYPE:Solid infill
;WIDTH:0.654652
G1 F1200
G1 X120.781 Y123.561 E.08402
G1 X119.591 Y123.236 E.06275
G1 X121.676 Y125.32 E.14995
G1 X121.676 Y126.157 E.04257
