; generated by PrusaSlicer 2.6.1+win64 on 2023-09-16 at 17:51:18 UTC


;
;
; 

; external perimeters extrusion width = 0.45mm
; perimeters extrusion width = 0.45mm
; infill extrusion width = 0.45mm
; solid infill extrusion width = 0.45mm
; top infill extrusion width = 0.40mm
; first layer extrusion width = 0.42mm

M73 P0 R30
M73 Q0 S30
M201 X1000 Y1000 Z200 E5000 ; sets maximum accelerations, mm/sec^2
M203 X200 Y200 Z12 E120 ; sets maximum feedrates, mm / sec
M204 S1250 T1250 ; sets acceleration (S) and retract acceleration (R), mm/sec^2
M205 X8.00 Y8.00 Z0.40 E4.50 ; sets the jerk limits, mm/sec
M205 S0 T0 ; sets the minimum extruding and travel feed rate, mm/sec
;TYPE:Custom
M862.3 P "MK3S" ; printer model check
M862.1 P0.4 ; nozzle diameter check
M115 U3.12.2 ; tell printer latest fw version
G90 ; use absolute coordinates
M83 ; extruder relative mode
M104 S240 ; set extruder temp
M140 S85 ; set bed temp
M190 S85 ; wait for bed temp
M109 S240 ; wait for extruder temp
G28 W ; home all without mesh bed level
G80 ; mesh bed leveling

G1 Z0.2 F720
G1 Y-3 F1000 ; go outside print area
G92 E0
G1 X60 E9 F1000 ; intro line
G1 X100 E12.5 F1000 ; intro line

G92 E0
M221 S95

; Don't change E values below. Excessive value can damage the printer.
M907 E430 ; set extruder motor current
G21 ; set units to millimeters
G90 ; use absolute coordinates
M83 ; use relative distances for extrusion
M900 K0.08 ; Filament gcode LA 1.5
M900 K45 ; Filament gcode LA 1.0
M107
;LAYER_CHANGE
;Z:0.2
;HEIGHT:0.2
;BEFORE_LAYER_CHANGE
G92 E0.0
;0.2


G1 E-1 F2100
M73 P0 R29
G1 Z.2 F720
;AFTER_LAYER_CHANGE
;0.2
G1 Z.4
G1 X106.185 Y127.901 F10800
G1 Z.2 F720
G1 E1 F2100
M204 S800
;TYPE:Skirt/Brim
;WIDTH:0.42
G1 F1200
G1 X109.099 Y125.614 E.11615
G1 X112.331 Y123.803 E.11616
G1 X115.451 Y122.615 E.10468
G1 X119.059 Y121.779 E.11612
G1 X119.58 Y121.721 E.01644
G1 X124.77 Y121.732 E.16273
G1 X125.716 Y121.919 E.03024
G1 X140.11 Y127.667 E.48597
G1 X141.413 Y128.937 E.05705
G1 X151.363 Y152.113 E.79081
G1 X151.386 Y153.932 E.05704
M73 Q0 S29
G1 X149.019 Y159.86 E.20014
G1 X147.749 Y161.163 E.05705
G1 X124.113 Y171.31 E.8065
G1 X122.294 Y171.333 E.05704
G1 X113.507 Y167.825 E.29665
G1 X110.344 Y166.276 E.11043
G1 X107.295 Y164.171 E.11617
G1 X104.363 Y161.347 E.12764
G1 X102.344 Y158.688 E.10468
G1 X100.56 Y155.441 E.11616
G1 X99.298 Y151.958 E.11615
G1 X98.587 Y148.322 E.11616
G1 X98.463 Y144.253 E.12764
G1 X98.876 Y140.941 E.10465
G1 X99.859 Y137.403 E.11513
G1 X101.399 Y133.997 E.1172
G1 X103.431 Y130.9 E.11614
G1 X106.144 Y127.946 E.12576
M204 S1000
; printing object Motor_Bracket_37,3mm_Mirrored_rev0-3 id:0 copy 0
;WIPE_START
G1 F8640
G1 X109.099 Y125.614 E-.8692
G1 X109.593 Y125.337 E-.1308
;WIPE_END
G1 Z.4 F720
G1 X138.326 Y132.778 F10800
G1 Z.2 F720
G1 E1 F2100
M204 S800
;TYPE:Perimeter
;WIDTH:0.534618
G1 F1200
G1 X136.603 Y130.953 E.10261
G1 X137.736 Y131.406 E.04989
G1 X138.302 Y132.723 E.05861
M204 S1000
;WIPE_START
G1 F8640
G1 X136.603 Y130.953 E-.56651
G1 X137.736 Y131.406 E-.28175
G1 X137.995 Y132.01 E-.15174
;WIPE_END
G1 Z.4 F720
G1 X140.007 Y135.871 F10800
G1 Z.2 F720
G1 E1 F2100
M204 S800
;WIDTH:0.639356
G1 F1200
G1 X139.63 Y135.341 E.03226
;WIDTH:0.595485
G1 X139.254 Y134.811 E.02986
;WIDTH:0.551614
G1 X138.877 Y134.281 E.02751
;WIDTH:0.507742
G1 X138.501 Y133.751 E.02512
;WIDTH:0.463871
G1 X138.124 Y133.221 E.02277
;WIDTH:0.419999
G1 X137.982 Y133.041 E.00719
G1 X135.748 Y130.681 E.10189
G1 X135.576 Y130.529 E.0072
G1 X134.253 Y129.547 E.05166
G1 X138.065 Y131.069 E.1287
G1 X138.826 Y132.842 E.0605
;WIDTH:0.463871
G1 X139.062 Y133.448 E.02276
;WIDTH:0.507742
G1 X139.298 Y134.054 E.02514
;WIDTH:0.551614
G1 X139.534 Y134.66 E.02751
;WIDTH:0.595485
G1 X139.771 Y135.266 E.0299
;WIDTH:0.639356
G1 X139.985 Y135.816 E.02927
M204 S1000
;WIPE_START
G1 F8640
G1 X139.63 Y135.341 E-.13693
G1 X139.254 Y134.811 E-.15005
M73 Q1 S29
G1 X138.877 Y134.281 E-.15018
G1 X138.501 Y133.751 E-.15005
G1 X138.124 Y133.221 E-.15018
G1 X137.982 Y133.041 E-.05294
G1 X137.358 Y132.382 E-.20967
;WIPE_END
G1 Z.4 F720
G1 X141.905 Y151.172 F10800
G1 Z.2 F720
G1 E1 F2100
M204 S800
;WIDTH:0.419999
G1 F1200
M73 P1 R29
G1 X142.325 Y149.747 E.04658
G1 X142.384 Y149.458 E.00925
G1 X142.75 Y146.234 E.10174
G1 X142.758 Y145.939 E.00925
;WIDTH:0.421012
G1 X142.56 Y142.696 E.10214
;WIDTH:0.424116
G1 X142.518 Y142.403 E.00938
G1 X142.637 Y142.677 E.00947
;WIDTH:0.421012
G1 X143.919 Y145.663 E.10216
;WIDTH:0.419999
G1 X147.084 Y153.035 E.25155
G1 X147.085 Y153.12 E.00267
G1 X147.044 Y153.224 E.00351
G1 X141.96 Y151.195 E.17163
M204 S1000
G1 X141.446 Y151.395 F10800
M204 S800
G1 F1200
G1 X141.964 Y149.64 E.05737
G1 X142.009 Y149.416 E.00716
G1 X142.375 Y146.192 E.10174
G1 X142.381 Y145.962 E.00721
G1 X142.183 Y142.719 E.10187
G1 X142.149 Y142.492 E.0072
;WIDTH:0.468717
G1 X142.132 Y142.317 E.00623
;WIDTH:0.517435
G1 X142.115 Y142.143 E.0069
;WIDTH:0.566153
G1 X142.099 Y141.968 E.00765
G1 X141.94 Y141.412 E.02516
;WIDTH:0.51692
G1 X141.782 Y140.857 E.02274
;WIDTH:0.467686
G1 X141.623 Y140.301 E.02042
;WIDTH:0.418452
G1 X141.464 Y139.745 E.01806
;WIDTH:0.412271
G1 X141.47 Y139.676 E.00213
;WIDTH:0.455323
G1 X141.475 Y139.606 E.00241
;WIDTH:0.498375
G1 X141.481 Y139.537 E.00262
;WIDTH:0.541428
G1 X141.486 Y139.467 E.00291
;WIDTH:0.58448
G1 X141.492 Y139.397 E.00316
;WIDTH:0.627532
G1 X141.497 Y139.328 E.00336
G1 X141.543 Y139.38 E.00337
;WIDTH:0.58448
G1 X141.589 Y139.433 E.00316
;WIDTH:0.541428
G1 X141.635 Y139.485 E.00288
;WIDTH:0.498375
G1 X141.681 Y139.538 E.00266
;WIDTH:0.455323
G1 X141.727 Y139.591 E.00241
;WIDTH:0.412271
G1 X141.773 Y139.643 E.00213
;WIDTH:0.418452
G1 X141.978 Y140.183 E.01804
;WIDTH:0.467686
G1 X142.183 Y140.723 E.0204
;WIDTH:0.51692
G1 X142.388 Y141.264 E.0228
;WIDTH:0.566153
G1 X142.593 Y141.804 E.02513
G1 X142.668 Y141.916 E.00586
;WIDTH:0.517435
G1 X142.743 Y142.029 E.00535
;WIDTH:0.468717
G1 X142.818 Y142.141 E.00477
;WIDTH:0.419999
G1 X147.51 Y153.072 E.37297
G1 X147.435 Y153.26 E.00635
G1 X147.244 Y153.71 E.01533
G1 X141.502 Y151.418 E.19385
M204 S1000
G1 X140.987 Y151.618 F10800
M204 S800
G1 F1200
G1 X141.602 Y149.533 E.06816
G1 X141.634 Y149.373 E.00512
G1 X142.001 Y146.149 E.10174
G1 X142.005 Y145.985 E.00514
G1 X141.807 Y142.742 E.10187
G1 X141.782 Y142.58 E.00514
G1 X140.974 Y139.268 E.10689
G1 X139.679 Y136.284 E.10199
G1 X139.601 Y136.14 E.00513
G1 X137.81 Y133.429 E.10188
G1 X137.708 Y133.3 E.00516
G1 X135.474 Y130.941 E.10187
G1 X135.351 Y130.832 E.00515
G1 X132.736 Y128.903 E.10189
;WIDTH:0.400209
G1 X132.594 Y128.826 E.0048
;WIDTH:0.383674
G1 X132.058 Y128.571 E.01682
;WIDTH:0.405613
G1 X132.009 Y128.52 E.00213
;WIDTH:0.452605
G1 X131.96 Y128.469 E.00241
;WIDTH:0.499597
G1 X131.911 Y128.419 E.00266
;WIDTH:0.546589
G1 X131.862 Y128.368 E.00296
;WIDTH:0.593581
G1 X131.813 Y128.317 E.00324
;WIDTH:0.640572
G1 X131.764 Y128.266 E.00351
G1 X131.835 Y128.269 E.00353
;WIDTH:0.593581
G1 X131.905 Y128.272 E.00321
;WIDTH:0.546589
G1 X131.976 Y128.275 E.00298
;WIDTH:0.499597
G1 X132.046 Y128.278 E.00266
;WIDTH:0.452605
G1 X132.117 Y128.28 E.00242
;WIDTH:0.405613
G1 X132.188 Y128.283 E.00214
;WIDTH:0.400209
G1 X132.909 Y128.594 E.02333
;WIDTH:0.419999
G1 X138.349 Y130.777 E.18379
G1 X147.919 Y153.067 E.76058
G1 X147.786 Y153.4 E.01124
G1 X147.632 Y153.784 E.01297
G1 X147.394 Y154.176 E.01438
G1 X141.043 Y151.64 E.21442
M204 S1000
;WIPE_START
G1 F8640
G1 X141.602 Y149.533 E-.50334
G1 X141.634 Y149.373 E-.03768
G1 X141.859 Y147.398 E-.45898
;WIPE_END
G1 Z.4 F720
G1 X142.479 Y142.287 F10800
G1 Z.2 F720
G1 E1 F2100
M204 S800
;WIDTH:0.424116
G1 F1200
G1 X142.518 Y142.403 E.00388
M204 S1000
;WIPE_START
G1 F8640
G1 X142.479 Y142.287 E-.02826
;WIPE_END
G1 E-.97174 F2100
G1 Z.4 F720
G1 X140.007 Y135.871 F10800
G1 Z.2 F720
G1 E1 F2100
M204 S800
;WIDTH:0.639356
G1 F1200
G1 X140.115 Y136.095 E.01233
;WIDTH:0.616708
G1 X141.405 Y139.083 E.15528
;WIDTH:0.627532
G1 X141.497 Y139.328 E.01272
M204 S1000
;WIPE_START
G1 F8640
G1 X141.405 Y139.083 E-.06043
G1 X140.115 Y136.095 E-.75149
G1 X140.007 Y135.871 E-.05742
;WIPE_END
G1 E-.13066 F2100
G1 Z.4 F720
G1 X140.408 Y154.921 F10800
G1 Z.2 F720
G1 E1 F2100
M204 S800
;WIDTH:0.419999
G1 F1200
G1 X145.547 Y156.973 E.1735
G1 X145.325 Y157.529 E.01877
G1 X135.262 Y161.852 E.3434
;WIDTH:0.414386
G1 X134.743 Y162.1 E.01777
;WIDTH:0.412271
G1 X134.673 Y162.106 E.00216
;WIDTH:0.455324
G1 X134.604 Y162.113 E.00238
;WIDTH:0.498376
G1 X134.534 Y162.119 E.00266
;WIDTH:0.541429
G1 X134.465 Y162.125 E.00287
;WIDTH:0.584482
G1 X134.395 Y162.132 E.00317
;WIDTH:0.627534
G1 X134.325 Y162.138 E.00342
G1 X134.369 Y162.084 E.00339
;WIDTH:0.584482
G1 X134.413 Y162.03 E.00314
;WIDTH:0.541429
G1 X134.457 Y161.976 E.00289
;WIDTH:0.498376
G1 X134.501 Y161.921 E.00267
;WIDTH:0.455324
G1 X134.545 Y161.867 E.00239
;WIDTH:0.412271
G1 X134.589 Y161.813 E.00214
;WIDTH:0.414386
G1 X135.042 Y161.516 E.01673
;WIDTH:0.419999
G1 X137.422 Y159.303 E.1019
G1 X137.619 Y159.084 E.00924
G1 X139.574 Y156.494 E.10175
G1 X139.731 Y156.245 E.00923
G1 X140.38 Y154.975 E.04472
M204 S1000
;WIPE_START
G1 F8640
G1 X144.419 Y156.537 E-1
;WIPE_END
G1 Z.4 F720
G1 X127.349 Y165.246 F10800
G1 Z.2 F720
G1 E1 F2100
M204 S800
G1 F1200
G1 X123.149 Y167.049 E.14331
G1 X119.716 Y165.679 E.11589
G1 X121.555 Y165.903 E.05809
G1 X121.851 Y165.913 E.00929
G1 X125.095 Y165.741 E.10186
G1 X125.388 Y165.7 E.00928
G1 X127.291 Y165.26 E.06124
M204 S1000
;WIPE_START
G1 F8640
G1 X123.315 Y166.977 E-1
;WIPE_END
G1 Z.4 F720
G1 X140.229 Y154.444 F10800
G1 Z.2 F720
G1 E1 F2100
M204 S800
G1 F1200
G1 X146.027 Y156.759 E.19575
G1 X145.617 Y157.814 E.03549
G1 X133.307 Y163.099 E.42004
;WIDTH:0.468717
G1 X133.175 Y163.129 E.00479
;WIDTH:0.517435
G1 X133.043 Y163.159 E.00534
;WIDTH:0.566152
G1 X132.912 Y163.189 E.00585
G1 X132.389 Y163.437 E.02518
;WIDTH:0.522539
G1 X131.866 Y163.685 E.02308
;WIDTH:0.48551
G1 X128.873 Y164.966 E.11981
;WIDTH:0.49808
G1 X127.133 Y165.728 E.07189
;WIDTH:0.45904
G1 X125.648 Y166.387 E.05621
;WIDTH:0.419999
G1 X123.154 Y167.457 E.08509
G1 X118.279 Y165.513 E.16456
;WIDTH:0.415303
G1 X118.034 Y165.421 E.0081
;WIDTH:0.404439
G1 X117.018 Y165.04 E.03262
;WIDTH:0.405614
G1 X116.965 Y164.994 E.00212
;WIDTH:0.452606
G1 X116.911 Y164.947 E.00244
;WIDTH:0.499597
G1 X116.858 Y164.901 E.00266
;WIDTH:0.546588
G1 X116.805 Y164.854 E.00297
;WIDTH:0.593579
G1 X116.752 Y164.808 E.00321
;WIDTH:0.64057
G1 X116.699 Y164.761 E.00352
G1 X116.769 Y164.758 E.00348
;WIDTH:0.593579
G1 X116.84 Y164.755 E.00325
;WIDTH:0.546588
G1 X116.91 Y164.752 E.00293
;WIDTH:0.499597
G1 X116.981 Y164.749 E.0027
;WIDTH:0.452606
G1 X117.052 Y164.746 E.00242
;WIDTH:0.405614
G1 X117.122 Y164.743 E.00211
;WIDTH:0.404439
G1 X118.153 Y165.08 E.03261
;WIDTH:0.415303
G1 X118.376 Y165.133 E.0071
;WIDTH:0.419999
G1 X121.601 Y165.528 E.10187
G1 X121.831 Y165.536 E.00722
G1 X125.075 Y165.364 E.10186
G1 X125.303 Y165.332 E.00722
;WIDTH:0.45904
G1 X126.89 Y164.985 E.05621
;WIDTH:0.49808
G1 X128.477 Y164.638 E.06148
G1 X128.7 Y164.559 E.00895
;WIDTH:0.48551
G1 X131.689 Y163.287 E.11955
;WIDTH:0.490326
G1 X131.9 Y163.181 E.00878
;WIDTH:0.528239
G1 X132.283 Y162.955 E.01795
;WIDTH:0.566152
G1 X132.666 Y162.729 E.01935
G1 X132.764 Y162.636 E.00588
;WIDTH:0.517435
G1 X132.862 Y162.544 E.0053
;WIDTH:0.468717
G1 X132.961 Y162.451 E.00481
;WIDTH:0.419999
G1 X134.787 Y161.242 E.06866
G1 X137.165 Y159.027 E.10189
G1 X137.318 Y158.857 E.00717
G1 X139.273 Y156.267 E.10175
G1 X139.395 Y156.073 E.00719
G1 X140.201 Y154.497 E.0555
M204 S1000
;WIPE_START
G1 F8640
G1 X144.238 Y156.064 E-1
;WIPE_END
G1 Z.4 F720
G1 X134.325 Y162.138 F10800
G1 Z.2 F720
G1 E1 F2100
M204 S800
;WIDTH:0.627534
G1 F1200
G1 X134.093 Y162.263 E.01281
;WIDTH:0.58267
G1 X133.86 Y162.387 E.01185
;WIDTH:0.537805
G1 X133.627 Y162.511 E.01086
;WIDTH:0.49294
G1 X133.394 Y162.636 E.00989
;WIDTH:0.448075
G1 X133.161 Y162.76 E.00889
M204 S1000
;WIPE_START
G1 F8640
G1 X133.394 Y162.636 E-.06094
G1 X133.627 Y162.511 E-.06105
G1 X133.86 Y162.387 E-.06094
G1 X134.093 Y162.263 E-.06094
G1 X134.325 Y162.138 E-.06085
;WIPE_END
G1 E-.69528 F2100
G1 Z.4 F720
G1 X140.049 Y153.966 F10800
G1 Z.2 F720
G1 E1 F2100
M204 S800
;WIDTH:0.419999
G1 F1200
G1 X146.457 Y156.525 E.21635
G1 X146.372 Y156.941 E.01331
G1 X145.909 Y158.099 E.0391
G1 X123.159 Y167.866 E.77627
G1 X114.862 Y164.552 E.28013
G1 X111.988 Y163.138 E.10043
M73 Q2 S29
G1 X109.403 Y161.324 E.09902
G1 X107.129 Y159.134 E.09899
M73 P2 R29
G1 X105.219 Y156.619 E.09902
G1 X103.72 Y153.839 E.09903
G1 X102.667 Y150.862 E.09901
G1 X102.085 Y147.758 E.09902
G1 X101.988 Y144.602 E.099
G1 X102.379 Y141.468 E.09903
G1 X103.248 Y138.433 E.09898
G1 X104.575 Y135.567 E.09903
G1 X106.327 Y132.94 E.09901
G1 X108.463 Y130.614 E.09902
G1 X110.932 Y128.645 E.09902
G1 X113.675 Y127.08 E.09902
G1 X116.626 Y125.957 E.099
G1 X119.902 Y125.262 E.105
G1 X124.455 Y125.262 E.14276
G1 X124.614 Y125.292 E.00507
G1 X126.384 Y125.99 E.05966
;WIDTH:0.40333
G1 X126.564 Y126.056 E.00575
;WIDTH:0.391663
G1 X127.239 Y126.308 E.02089
;WIDTH:0.406035
G1 X127.293 Y126.354 E.00214
;WIDTH:0.452778
G1 X127.346 Y126.401 E.00241
;WIDTH:0.49952
G1 X127.399 Y126.447 E.00266
;WIDTH:0.546263
G1 X127.452 Y126.494 E.00296
;WIDTH:0.593006
G1 X127.505 Y126.54 E.00321
;WIDTH:0.639748
G1 X127.558 Y126.586 E.00348
G1 X127.488 Y126.59 E.00348
;WIDTH:0.593006
G1 X127.417 Y126.593 E.00325
;WIDTH:0.546263
G1 X127.347 Y126.596 E.00293
;WIDTH:0.49952
G1 X127.276 Y126.6 E.0027
;WIDTH:0.452778
G1 X127.206 Y126.603 E.00239
;WIDTH:0.406035
G1 X127.135 Y126.606 E.00215
;WIDTH:0.40333
G1 X126.293 Y126.347 E.0264
;WIDTH:0.419999
G1 X123.044 Y125.956 E.1026
G1 X122.879 Y125.951 E.00518
G1 X119.973 Y126.121 E.09127
G1 X119.473 Y126.165 E.01574
G1 X116.156 Y126.965 E.10698
G1 X113.028 Y128.329 E.107
G1 X110.312 Y130.112 E.10187
G1 X110.183 Y130.214 E.00516
G1 X107.817 Y132.441 E.10188
G1 X107.708 Y132.564 E.00515
G1 X105.764 Y135.168 E.10189
G1 X105.678 Y135.307 E.00512
G1 X104.215 Y138.208 E.10187
G1 X104.154 Y138.361 E.00516
G1 X103.217 Y141.472 E.10187
G1 X103.184 Y141.627 E.00497
G1 X102.821 Y144.671 E.09612
G1 X102.794 Y145.023 E.01107
G1 X102.998 Y148.429 E.10698
G1 X103.79 Y151.749 E.10702
G1 X105.067 Y154.736 E.10185
G1 X105.145 Y154.881 E.00516
G1 X106.921 Y157.602 E.10188
G1 X107.022 Y157.731 E.00514
G1 X109.243 Y160.102 E.10186
G1 X109.365 Y160.212 E.00515
G1 X111.964 Y162.162 E.10188
G1 X112.103 Y162.249 E.00514
G1 X115 Y163.72 E.10187
G1 X115.151 Y163.78 E.00509
G1 X118.261 Y164.727 E.10193
G1 X118.421 Y164.761 E.00513
G1 X121.647 Y165.154 E.1019
G1 X121.811 Y165.16 E.00515
G1 X125.055 Y164.988 E.10186
G1 X125.218 Y164.965 E.00516
G1 X128.383 Y164.233 E.10186
G1 X128.539 Y164.182 E.00515
G1 X131.53 Y162.913 E.10187
G1 X131.675 Y162.836 E.00515
G1 X134.53 Y160.966 E.10701
G1 X136.908 Y158.751 E.10189
G1 X137.017 Y158.629 E.00513
G1 X138.972 Y156.04 E.10172
G1 X139.059 Y155.901 E.00514
G1 X140.022 Y154.02 E.06626
M204 S1000
G1 X139.87 Y153.489 F10800
M204 S800
G1 F1200
G1 X146.246 Y156.034 E.21525
G1 X146.775 Y156.261 E.01805
G1 X146.835 Y156.515 E.00818
G1 X146.733 Y157.053 E.01717
G1 X146.202 Y158.384 E.04493
G1 X123.164 Y168.274 E.78609
G1 X114.708 Y164.897 E.28549
G1 X111.795 Y163.464 E.10179
G1 X109.162 Y161.616 E.10086
G1 X106.846 Y159.385 E.10083
G1 X104.901 Y156.823 E.10086
G1 X103.374 Y153.993 E.10083
G1 X102.301 Y150.96 E.10087
G1 X101.709 Y147.799 E.10083
G1 X101.61 Y144.584 E.10085
G1 X102.008 Y141.393 E.10083
G1 X102.894 Y138.301 E.10085
G1 X104.245 Y135.382 E.10085
G1 X106.029 Y132.706 E.10084
G1 X108.205 Y130.337 E.10086
G1 X110.72 Y128.332 E.10085
G1 X113.513 Y126.738 E.10083
G1 X116.519 Y125.594 E.10085
G1 X119.847 Y124.885 E.10669
G1 X124.455 Y124.885 E.14448
G1 X124.645 Y124.899 E.00597
G1 X138.634 Y130.484 E.47228
G1 X148.327 Y153.062 E.7704
G1 X147.983 Y153.923 E.02907
G1 X147.746 Y154.342 E.01509
G1 X147.533 Y154.556 E.00947
G1 X147.384 Y154.579 E.00473
G1 X140.528 Y151.841 E.23147
G1 X141.26 Y149.33 E.08201
G1 X141.626 Y146.106 E.10174
G1 X141.416 Y142.668 E.108
G1 X140.628 Y139.417 E.10488
G1 X139.333 Y136.434 E.10196
G1 X137.495 Y133.637 E.10494
