; generated by PrusaSlicer 2.6.1+win64 on 2023-09-16 at 15:18:13 UTC


;
;
; 

; external perimeters extrusion width = 0.45mm
; perimeters extrusion width = 0.45mm
; infill extrusion width = 0.45mm
; solid infill extrusion width = 0.45mm
; top infill extrusion width = 0.40mm
; first layer extrusion width = 0.42mm

M73 P0 R31
M73 Q0 S31
M201 X1000 Y1000 Z200 E5000 ; sets maximum accelerations, mm/sec^2
M203 X200 Y200 Z12 E120 ; sets maximum feedrates, mm / sec
M204 S1250 T1250 ; sets acceleration (S) and retract acceleration (R), mm/sec^2
M205 X8.00 Y8.00 Z0.40 E4.50 ; sets the jerk limits, mm/sec
M205 S0 T0 ; sets the minimum extruding and travel feed rate, mm/sec
;TYPE:Custom
M862.3 P "MK3S" ; printer model check
M862.1 P0.4 ; nozzle diameter check
M115 U3.12.2 ; tell printer latest fw version
G90 ; use absolute coordinates
M83 ; extruder relative mode
M104 S240 ; set extruder temp
M140 S85 ; set bed temp
M190 S85 ; wait for bed temp
M109 S240 ; wait for extruder temp
G28 W ; home all without mesh bed level
G80 ; mesh bed leveling

G1 Z0.2 F720
G1 Y-3 F1000 ; go outside print area
G92 E0
G1 X60 E9 F1000 ; intro line
G1 X100 E12.5 F1000 ; intro line

G92 E0
M221 S95

; Don't change E values below. Excessive value can damage the printer.
M907 E430 ; set extruder motor current
G21 ; set units to millimeters
G90 ; use absolute coordinates
M83 ; use relative distances for extrusion
M900 K0.08 ; Filament gcode LA 1.5
M900 K45 ; Filament gcode LA 1.0
M107
;LAYER_CHANGE
;Z:0.2
;HEIGHT:0.2
;BEFORE_LAYER_CHANGE
G92 E0.0
;0.2


G1 E-1 F2100
G1 Z.2 F720
;AFTER_LAYER_CHANGE
;0.2
G1 Z.4
G1 X101.95 Y89.565 F10800
G1 Z.2 F720
G1 E1 F2100
M204 S800
;TYPE:Skirt/Brim
;WIDTH:0.42
G1 F1200
G1 X102.587 Y89.118 E.0244
G1 X120.792 Y80.386 E.63307
G1 X122.609 Y80.287 E.05706
G1 X146.667 Y88.748 E.79961
G1 X148.022 Y89.962 E.05704
G1 X148.816 Y91.618 E.05758
G1 X151.046 Y96.265 E.16161
G1 X151.145 Y98.082 E.05706
G1 X142.646 Y122.248 E.8032
G1 X141.432 Y123.602 E.05702
G1 X132.833 Y127.727 E.29903
G1 X129.552 Y129.006 E.11041
G1 X125.575 Y129.876 E.12764
G1 X121.875 Y130.071 E.11617
G1 X118.552 Y129.757 E.10465
G1 X114.954 Y128.872 E.11618
G1 X111.536 Y127.443 E.11616
G1 X108.379 Y125.504 E.11616
G1 X105.3 Y122.841 E.12764
G1 X103.142 Y120.294 E.10467
G1 X101.204 Y117.176 E.11511
G1 X99.74 Y113.737 E.11719
G1 X98.836 Y110.144 E.11617
G1 X98.493 Y106.088 E.12763
G1 X98.776 Y102.424 E.11522
G1 X101.291 Y90.76 E.37412
G1 X101.921 Y89.617 E.04092
M204 S1000
; printing object Motor_Bracket_37,3mm_Mirrored_rev0-5 id:0 copy 0
;WIPE_START
G1 F8640
G1 X102.587 Y89.118 E-.19216
G1 X105.742 Y87.605 E-.80784
;WIPE_END
G1 Z.4 F720
G1 X134.228 Y122.294 F10800
G1 Z.2 F720
G1 E1 F2100
M204 S800
;TYPE:Perimeter
;WIDTH:0.419999
G1 F1200
G1 X136.617 Y120.257 E.09844
G1 X136.825 Y120.047 E.00927
G1 X138.856 Y117.589 E.09997
G1 X139.023 Y117.346 E.00924
;WIDTH:0.464649
G1 X139.437 Y116.665 E.02795
;WIDTH:0.509298
G1 X139.851 Y115.983 E.03094
;WIDTH:0.553947
G1 X140.264 Y115.301 E.03388
;WIDTH:0.598596
G1 X140.678 Y114.62 E.03682
;WIDTH:0.602452
G1 X140.682 Y114.612 E.00042
G1 X140.678 Y114.62 E.00042
;WIDTH:0.598596
G1 X140.435 Y115.379 E.03682
;WIDTH:0.553947
G1 X140.193 Y116.139 E.03389
;WIDTH:0.509298
G1 X139.95 Y116.898 E.03091
;WIDTH:0.464649
G1 X139.707 Y117.658 E.02798
;WIDTH:0.419999
G1 X138.858 Y120.073 E.08026
G1 X134.282 Y122.268 E.15913
M204 S1000
;WIPE_START
G1 F8640
G1 X136.617 Y120.257 E-.71155
G1 X136.825 Y120.047 E-.06825
G1 X137.432 Y119.312 E-.2202
;WIPE_END
G1 Z.4 F720
G1 X141.233 Y99.344 F10800
G1 Z.2 F720
G1 E1 F2100
M204 S800
G1 F1200
G1 X146.538 Y96.799 E.18448
G1 X146.829 Y97.407 E.02113
G1 X144.263 Y104.703 E.2425
;WIDTH:0.438088
G1 X143.197 Y107.707 E.10474
;WIDTH:0.488019
G1 X143.134 Y107.81 E.00447
;WIDTH:0.537949
G1 X143.071 Y107.913 E.00497
;WIDTH:0.587879
G1 X143.009 Y108.016 E.00545
G1 X142.859 Y108.508 E.02331
;WIDTH:0.544145
G1 X142.71 Y108.999 E.02138
;WIDTH:0.500411
G1 X142.56 Y109.49 E.01953
;WIDTH:0.456676
G1 X142.41 Y109.981 E.01766
;WIDTH:0.412942
G1 X142.261 Y110.472 E.01579
;WIDTH:0.412263
M73 Q1 S31
G1 X142.219 Y110.528 E.00215
;WIDTH:0.455318
G1 X142.176 Y110.583 E.00239
;WIDTH:0.498374
G1 X142.134 Y110.639 E.00265
;WIDTH:0.541429
G1 X142.092 Y110.694 E.00287
;WIDTH:0.584485
G1 X142.049 Y110.75 E.00318
;WIDTH:0.62754
G1 X142.007 Y110.806 E.0034
G1 X141.997 Y110.736 E.00344
;WIDTH:0.584485
G1 X141.987 Y110.667 E.00314
;WIDTH:0.541429
G1 X141.977 Y110.598 E.00289
;WIDTH:0.498374
G1 X141.966 Y110.529 E.00265
;WIDTH:0.455318
G1 X141.956 Y110.46 E.00239
;WIDTH:0.412263
G1 X141.946 Y110.391 E.00214
;WIDTH:0.412815
G1 X142.053 Y109.89 E.01576
;WIDTH:0.456423
G1 X142.16 Y109.39 E.01758
;WIDTH:0.500031
G1 X142.267 Y108.889 E.01947
;WIDTH:0.543639
G1 X142.374 Y108.388 E.02133
;WIDTH:0.587247
G1 X142.482 Y107.888 E.02315
G1 X142.465 Y107.785 E.00472
;WIDTH:0.537528
G1 X142.449 Y107.682 E.00429
;WIDTH:0.487808
G1 X142.432 Y107.579 E.00386
;WIDTH:0.438088
G1 X142.403 Y104.391 E.10476
;WIDTH:0.419999
G1 X142.376 Y104.097 E.00926
M73 P1 R31
G1 X141.804 Y100.961 E.09995
G1 X141.726 Y100.676 E.00926
G1 X141.254 Y99.4 E.04266
M204 S1000
;WIPE_START
G1 F8640
G1 X145.14 Y97.487 E-1
;WIPE_END
G1 Z.4 F720
G1 X130.924 Y87.874 F10800
G1 Z.2 F720
G1 E1 F2100
M204 S800
;WIDTH:0.627942
G1 F1200
G1 X130.994 Y87.876 E.00341
;WIDTH:0.584766
G1 X131.064 Y87.878 E.00316
;WIDTH:0.541589
G1 X131.133 Y87.879 E.00286
;WIDTH:0.498413
G1 X131.203 Y87.881 E.00265
;WIDTH:0.455236
G1 X131.273 Y87.883 E.0024
;WIDTH:0.41206
G1 X131.343 Y87.884 E.00215
;WIDTH:0.413755
G1 X131.84 Y88.083 E.01651
;WIDTH:0.458626
G1 X132.337 Y88.282 E.01851
;WIDTH:0.503497
G1 X132.834 Y88.48 E.02049
;WIDTH:0.548368
G1 X133.331 Y88.679 E.0225
;WIDTH:0.593239
G1 X133.828 Y88.877 E.02448
G1 X133.921 Y88.889 E.00429
;WIDTH:0.553091
G1 X134.014 Y88.9 E.00397
;WIDTH:0.512942
G1 X134.108 Y88.912 E.0037
;WIDTH:0.472794
G1 X134.201 Y88.923 E.00335
;WIDTH:0.432645
G1 X137.211 Y89.975 E.10333
;WIDTH:0.419999
G1 X144.493 Y92.536 E.24203
G1 X144.792 Y93.16 E.0217
M73 P1 R30
G1 X139.487 Y95.704 E.18447
G1 X138.757 Y94.486 E.04452
G1 X138.584 Y94.247 E.00925
G1 X136.496 Y91.837 E.09998
G1 X136.284 Y91.632 E.00925
;WIDTH:0.432645
G1 X133.813 Y89.616 E.10334
;WIDTH:0.472794
G1 X133.761 Y89.557 E.00281
;WIDTH:0.512942
G1 X133.708 Y89.497 E.00313
;WIDTH:0.553091
G1 X133.656 Y89.437 E.00337
;WIDTH:0.593239
G1 X133.603 Y89.378 E.00363
G1 X133.124 Y89.138 E.02452
;WIDTH:0.548368
G1 X132.646 Y88.899 E.02246
;WIDTH:0.503497
G1 X132.167 Y88.66 E.0205
;WIDTH:0.458626
G1 X131.689 Y88.42 E.01849
;WIDTH:0.413755
G1 X131.21 Y88.181 E.01651
;WIDTH:0.41206
G1 X131.162 Y88.13 E.00215
;WIDTH:0.455236
G1 X131.115 Y88.079 E.00238
;WIDTH:0.498413
G1 X131.067 Y88.028 E.00265
;WIDTH:0.541589
G1 X131.019 Y87.977 E.0029
;WIDTH:0.584766
G1 X130.972 Y87.926 E.00312
;WIDTH:0.627942
G1 X130.965 Y87.918 E.00052
M204 S1000
;WIPE_START
G1 F8640
G1 X130.994 Y87.876 E-.01179
G1 X131.064 Y87.878 E-.01617
G1 X131.133 Y87.879 E-.01593
G1 X131.203 Y87.881 E-.01617
G1 X131.273 Y87.883 E-.01617
G1 X131.343 Y87.884 E-.01616
G1 X131.84 Y88.083 E-.12362
G1 X132.337 Y88.282 E-.12362
G1 X132.834 Y88.48 E-.12353
G1 X133.331 Y88.679 E-.12362
G1 X133.828 Y88.877 E-.12353
G1 X133.921 Y88.889 E-.02165
G1 X134.014 Y88.9 E-.02162
G1 X134.108 Y88.912 E-.02188
G1 X134.201 Y88.923 E-.02162
G1 X135.031 Y89.213 E-.20292
;WIPE_END
G1 Z.4 F720
G1 X117.442 Y86.756 F10800
G1 Z.2 F720
G1 E1 F2100
M204 S800
;WIDTH:0.419999
G1 F1200
G1 X121.933 Y84.602 E.15617
G1 X124.253 Y85.418 E.07711
;WIDTH:0.467797
G1 X124.996 Y85.706 E.02815
;WIDTH:0.515595
G1 X125.74 Y85.993 E.03134
;WIDTH:0.563393
G1 X126.484 Y86.281 E.03453
;WIDTH:0.61119
G1 X127.228 Y86.569 E.0377
G1 X126.437 Y86.466 E.03769
;WIDTH:0.563393
G1 X125.646 Y86.364 E.03452
;WIDTH:0.515595
G1 X124.855 Y86.261 E.03135
;WIDTH:0.467797
G1 X124.064 Y86.159 E.02818
;WIDTH:0.419999
G1 X123.77 Y86.137 E.00924
G1 X120.582 Y86.183 E.09997
G1 X120.288 Y86.213 E.00927
G1 X117.501 Y86.745 E.08896
M204 S1000
;WIPE_START
G1 F8640
G1 X121.4 Y84.86 E-1
;WIPE_END
G1 Z.4 F720
G1 X106.469 Y92.647 F10800
G1 Z.2 F720
G1 E1 F2100
M204 S800
;WIDTH:0.530743
G1 F1200
G1 X106.727 Y92.817 E.01253
G1 X106.968 Y92.865 E.00997
G1 X107.476 Y92.834 E.02064
G1 X106.763 Y93.706 E.04569
G1 X106.705 Y93.18 E.02147
G1 X106.493 Y92.702 E.02121
M204 S1000
G1 X106.271 Y92.026 F10800
M204 S800
;WIDTH:0.419999
G1 F1200
G1 X106.84 Y92.4 E.02135
G1 X107.022 Y92.436 E.00582
G1 X107.507 Y92.406 E.01524
;WIDTH:0.452318
G1 X108.012 Y92.177 E.01888
G1 X108.203 Y92.007 E.0087
;WIDTH:0.46457
G1 X110.019 Y90.408 E.08483
G1 X110.872 Y89.782 E.0371
;WIDTH:0.471665
G1 X111.861 Y89.115 E.04253
G1 X112.853 Y88.558 E.04056
;WIDTH:0.452905
G1 X113.904 Y88.031 E.04008
;WIDTH:0.457035
G1 X114.865 Y87.595 E.03634
;WIDTH:0.501543
G1 X115.826 Y87.159 E.04024
;WIDTH:0.546051
G1 X116.786 Y86.723 E.04411
;WIDTH:0.570725
G1 X117.05 Y86.61 E.0126
G1 X117.76 Y86.248 E.03498
;WIDTH:0.533044
G1 X118.471 Y85.887 E.0325
;WIDTH:0.495362
G1 X119.181 Y85.525 E.02998
;WIDTH:0.457681
G1 X119.892 Y85.163 E.02752
;WIDTH:0.419999
G1 X121.911 Y84.195 E.0702
G1 X144.765 Y92.232 E.75959
G1 X145.285 Y93.341 E.0384
G1 X139.34 Y96.193 E.20674
G1 X138.433 Y94.68 E.05531
G1 X138.299 Y94.494 E.00719
G1 X136.211 Y92.084 E.09998
G1 X136.046 Y91.925 E.00718
G1 X133.572 Y89.914 E.09996
G1 X133.378 Y89.783 E.00734
G1 X131.04 Y88.488 E.0838
G1 X130.346 Y88.125 E.02456
G1 X127.375 Y87.094 E.0986
G1 X127.158 Y87.039 E.00702
G1 X124.004 Y86.531 E.10017
G1 X123.775 Y86.514 E.0072
G1 X120.588 Y86.56 E.09994
G1 X120.359 Y86.583 E.00722
;WIDTH:0.457681
G1 X119.573 Y86.714 E.02748
;WIDTH:0.495362
G1 X118.786 Y86.845 E.03001
;WIDTH:0.533044
G1 X118 Y86.976 E.03247
;WIDTH:0.570725
G1 X117.213 Y87.107 E.03501
G1 X116.984 Y87.185 E.01062
;WIDTH:0.546051
G1 X116.006 Y87.58 E.04413
;WIDTH:0.501543
G1 X115.028 Y87.975 E.04022
;WIDTH:0.457035
G1 X114.05 Y88.37 E.03632
;WIDTH:0.412801
G1 X113.845 Y88.469 E.007
;WIDTH:0.452905
G1 X113.057 Y88.914 E.03085
;WIDTH:0.471665
G1 X112.073 Y89.487 E.04059
G1 X111.08 Y90.103 E.04166
;WIDTH:0.427158
G1 X110.891 Y90.238 E.00742
;WIDTH:0.46457
G1 X110.297 Y90.726 E.02695
G1 X108.47 Y92.312 E.08482
;WIDTH:0.452318
G1 X108.306 Y92.477 E.00792
G1 X107.89 Y93.011 E.02304
;WIDTH:0.419999
G1 X107.007 Y94.091 E.04374
;WIDTH:0.464501
G1 X106.534 Y94.634 E.02524
G1 X106.169 Y95.144 E.02198
;WIDTH:0.457584
G1 X104.855 Y97.455 E.09166
G1 X104.519 Y98.136 E.02618
;WIDTH:0.466076
G1 X103.745 Y100.272 E.07994
G1 X103.578 Y100.82 E.02016
;WIDTH:0.438895
G1 X103.411 Y101.368 E.01886
;WIDTH:0.441257
G1 X103.244 Y102.295 E.0312
;WIDTH:0.470799
G1 X103.077 Y103.223 E.03355
G1 X102.986 Y103.868 E.02318
;WIDTH:0.440793
G1 X102.896 Y104.514 E.02158
;WIDTH:0.410787
G1 X102.879 Y104.742 E.00699
;WIDTH:0.440946
G1 X102.872 Y105.491 E.02479
;WIDTH:0.47175
G1 X102.866 Y106.241 E.02674
G1 X102.891 Y107.085 E.03011
;WIDTH:0.441101
G1 X102.916 Y107.93 E.02799
;WIDTH:0.412361
G1 X102.938 Y108.158 E.00704
;WIDTH:0.44065
G1 X103.026 Y108.707 E.01839
;WIDTH:0.468939
G1 X103.115 Y109.256 E.0197
G1 X103.321 Y110.273 E.03676
;WIDTH:0.441414
G1 X103.526 Y111.291 E.03441
;WIDTH:0.418363
G1 X103.586 Y111.513 E.00718
;WIDTH:0.462347
G1 X103.821 Y112.199 E.02529
G1 X104.699 Y114.474 E.08505
;WIDTH:0.421502
G1 X104.716 Y114.515 E.0014
;WIDTH:0.453837
G1 X104.969 Y115.001 E.01872
G1 X106.425 Y117.449 E.09732
;WIDTH:0.437964
G1 X106.554 Y117.634 E.00741
;WIDTH:0.446356
G1 X108.519 Y119.934 E.10148
G1 X108.802 Y120.218 E.01345
;WIDTH:0.458337
M73 Q1 S30
G1 X110.824 Y121.901 E.09087
G1 X111.457 Y122.368 E.02717
;WIDTH:0.441552
G1 X112.428 Y122.931 E.0372
;WIDTH:0.466574
G1 X113.399 Y123.493 E.03952
G1 X113.921 Y123.76 E.02065
;WIDTH:0.439037
G1 X114.443 Y124.028 E.01933
;WIDTH:0.441257
G1 X115.314 Y124.351 E.03077
;WIDTH:0.471014
G1 X116.184 Y124.674 E.03303
G1 X116.817 Y124.882 E.02372
;WIDTH:0.440821
G1 X117.45 Y125.089 E.02203
;WIDTH:0.410628
G1 X117.671 Y125.146 E.00698
;WIDTH:0.440914
G1 X118.394 Y125.282 E.02435
;WIDTH:0.471657
G1 X119.116 Y125.418 E.02619
G1 X119.966 Y125.545 E.03064
;WIDTH:0.441116
G1 X120.816 Y125.671 E.02845
;WIDTH:0.412672
G1 X121.044 Y125.69 E.00703
;WIDTH:0.440629
G1 X121.586 Y125.699 E.01793
;WIDTH:0.468586
G1 X122.127 Y125.708 E.01915
G1 X123.18 Y125.685 E.03728
;WIDTH:0.441447
G1 X124.232 Y125.662 E.03487
;WIDTH:0.418972
G1 X124.461 Y125.643 E.00719
;WIDTH:0.461717
G1 X125.149 Y125.537 E.02424
G1 X127.596 Y125.064 E.08679
;WIDTH:0.451024
G1 X128.112 Y124.908 E.01829
G1 X130.783 Y123.901 E.09687
;WIDTH:0.444163
G1 X131.006 Y123.799 E.00818
;WIDTH:0.488442
G1 X131.937 Y123.28 E.03949
;WIDTH:0.532721
G1 X132.867 Y122.76 E.04339
;WIDTH:0.576999
G1 X133.797 Y122.24 E.04732
G1 X133.889 Y122.159 E.00544
;WIDTH:0.551918
G1 X133.981 Y122.079 E.00516
;WIDTH:0.526837
G1 X134.778 Y121.376 E.04276
;WIDTH:0.491225
G1 X135.576 Y120.673 E.03964
;WIDTH:0.455612
G1 X136.373 Y119.97 E.03647
;WIDTH:0.419999
G1 X136.534 Y119.807 E.00718
G1 X138.565 Y117.349 E.09997
G1 X138.696 Y117.16 E.00721
G1 X140.27 Y114.388 E.09995
G1 X140.366 Y114.179 E.00721
G1 X141.436 Y111.176 E.09996
G1 X141.494 Y110.954 E.00719
G1 X142.027 Y107.811 E.09995
G1 X142.046 Y107.582 E.0072
G1 X142.026 Y104.393 E.09999
G1 X142.005 Y104.165 E.00718
G1 X141.433 Y101.028 E.09998
G1 X141.372 Y100.807 E.00719
G1 X140.76 Y99.152 E.05533
G1 X146.705 Y96.301 E.20673
G1 X146.748 Y96.365 E.00242
G1 X147.236 Y97.384 E.03542
G1 X139.162 Y120.346 E.76317
G1 X137.222 Y121.276 E.06746
;WIDTH:0.455612
G1 X136.256 Y121.719 E.03647
;WIDTH:0.491225
G1 X135.29 Y122.163 E.03963
;WIDTH:0.526837
G1 X134.324 Y122.607 E.04278
;WIDTH:0.551918
G1 X134.186 Y122.659 E.00624
;WIDTH:0.576999
G1 X134.048 Y122.711 E.00655
G1 X133.097 Y123.192 E.04733
;WIDTH:0.532721
G1 X132.146 Y123.673 E.0434
;WIDTH:0.488442
G1 X131.195 Y124.153 E.03946
;WIDTH:0.444163
G1 X130.94 Y124.259 E.00921
;WIDTH:0.451024
G1 X128.257 Y125.289 E.09752
G1 X127.671 Y125.435 E.02049
;WIDTH:0.461717
G1 X125.232 Y125.948 E.08679
G1 X124.245 Y126.034 E.0345
;WIDTH:0.441447
G1 X123.193 Y126.084 E.0349
;WIDTH:0.468586
G1 X122.142 Y126.134 E.03724
G1 X121.569 Y126.096 E.02033
;WIDTH:0.440629
G1 X121.028 Y126.059 E.01793
;WIDTH:0.412672
G1 X120.768 Y126.035 E.00803
;WIDTH:0.441116
G1 X119.914 Y125.939 E.02845
;WIDTH:0.471657
G1 X119.06 Y125.843 E.03064
G1 X118.312 Y125.672 E.02735
;WIDTH:0.440914
G1 X117.596 Y125.505 E.02433
;WIDTH:0.410628
G1 X117.343 Y125.441 E.00798
;WIDTH:0.440821
G1 X116.701 Y125.262 E.02205
;WIDTH:0.471014
G1 X116.029 Y125.073 E.02485
G1 X115.169 Y124.722 E.03306
;WIDTH:0.441257
G1 X114.309 Y124.371 E.03077
;WIDTH:0.414509
G1 X114.07 Y124.267 E.00805
;WIDTH:0.440542
G1 X113.626 Y124.062 E.01617
;WIDTH:0.466574
G1 X113.182 Y123.857 E.01723
G1 X112.224 Y123.273 E.03952
;WIDTH:0.441552
G1 X111.266 Y122.69 E.03717
;WIDTH:0.422119
G1 X111.045 Y122.548 E.00828
;WIDTH:0.458337
G1 X110.556 Y122.218 E.02038
G1 X108.556 Y120.51 E.09085
;WIDTH:0.446356
G1 X108.222 Y120.207 E.01513
G1 X106.258 Y117.896 E.10174
;WIDTH:0.437976
G1 X106.092 Y117.649 E.00978
;WIDTH:0.453837
G1 X104.616 Y115.213 E.09732
G1 X104.347 Y114.614 E.02244
;WIDTH:0.462347
G1 X103.431 Y112.353 E.08508
G1 X103.164 Y111.369 E.03556
;WIDTH:0.441414
G1 X102.931 Y110.357 E.03441
;WIDTH:0.468939
G1 X102.699 Y109.345 E.03678
G1 X102.633 Y108.76 E.02085
;WIDTH:0.44065
G1 X102.572 Y108.207 E.0184
;WIDTH:0.412361
G1 X102.549 Y107.947 E.00802
;WIDTH:0.441101
G1 X102.493 Y107.104 E.02797
;WIDTH:0.47175
G1 X102.438 Y106.261 E.03012
G1 X102.475 Y105.48 E.02788
;WIDTH:0.440946
G1 X102.512 Y104.731 E.02482
;WIDTH:0.410787
G1 X102.531 Y104.471 E.00797
;WIDTH:0.440793
G1 X102.592 Y103.822 E.02157
;WIDTH:0.470799
G1 X102.657 Y103.141 E.02434
G1 X102.854 Y102.219 E.03354
;WIDTH:0.441257
G1 X103.05 Y101.296 E.03125
;WIDTH:0.414916
G1 X103.11 Y101.042 E.00807
;WIDTH:0.440496
G1 X103.229 Y100.583 E.01568
;WIDTH:0.466076
G1 X103.349 Y100.124 E.01669
G1 X104.169 Y98.005 E.07995
;WIDTH:0.422844
G1 X104.269 Y97.762 E.0083
;WIDTH:0.457584
G1 X104.495 Y97.248 E.01936
G1 X105.837 Y94.952 E.0917
;WIDTH:0.426171
