; generated by PrusaSlicer 2.6.0+win64 on 2023-07-21 at 12:20:02 UTC


;
;
; 

; external perimeters extrusion width = 0.65mm
; perimeters extrusion width = 0.65mm
; infill extrusion width = 0.65mm
; solid infill extrusion width = 0.65mm
; top infill extrusion width = 0.60mm
; first layer extrusion width = 0.65mm

M73 P0 R106
M73 Q0 S108
M201 X1000 Y1000 Z200 E5000 ; sets maximum accelerations, mm/sec^2
M203 X200 Y200 Z12 E120 ; sets maximum feedrates, mm / sec
M204 S1250 T1250 ; sets acceleration (S) and retract acceleration (R), mm/sec^2
M205 X8.00 Y8.00 Z0.40 E4.50 ; sets the jerk limits, mm/sec
M205 S0 T0 ; sets the minimum extruding and travel feed rate, mm/sec
;TYPE:Custom
M862.3 P "MK3S" ; printer model check
M862.1 P0.6 ; nozzle diameter check
M115 U3.12.2 ; tell printer latest fw version
G90 ; use absolute coordinates
M83 ; extruder relative mode
M104 S240 ; set extruder temp
M140 S85 ; set bed temp
M190 S85 ; wait for bed temp
M109 S240 ; wait for extruder temp
G28 W ; home all without mesh bed level
G80 ; mesh bed leveling

G1 Z0.2 F720
G1 Y-3 F1000 ; go outside print area
G92 E0
G1 X60 E9 F1000 ; intro line
G1 X100 E12.5 F1000 ; intro line

G92 E0
M221 S95
G21 ; set units to millimeters
G90 ; use absolute coordinates
M83 ; use relative distances for extrusion
M900 K0.04 ; Filament gcode LA 1.5
M900 K24 ; Filament gcode LA 1.0
M107
;LAYER_CHANGE
;Z:0.2
;HEIGHT:0.2
;BEFORE_LAYER_CHANGE
G92 E0.0
;0.2


G1 E-1 F2100
G1 Z.2 F720
;AFTER_LAYER_CHANGE
;0.2
G1 Z.4
G1 X61.38 Y82.475 F10800
G1 Z.2 F720
G1 E1 F1500
M204 S800
;TYPE:Skirt/Brim
;WIDTH:0.65
G1 F1200
G1 X64.983 Y80.277 E.21305
G1 X68.131 Y78.982 E.17183
G1 X71.834 Y78.07 E.19251
G1 X75.83 Y77.743 E.20239
G1 X174.367 Y77.75 E4.97404
G1 X177.761 Y78.007 E.17182
G1 X181.478 Y78.856 E.19246
G1 X185.017 Y80.277 E.19251
G1 X188.288 Y82.235 E.19244
G1 X191.503 Y84.971 E.2131
G1 X193.959 Y87.888 E.19249
G1 X195.927 Y91.153 E.19244
G1 X197.359 Y94.687 E.19248
G1 X198.155 Y97.997 E.17185
G1 X198.495 Y102 E.20279
G1 X198.495 Y129.65 E1.39574
G1 X198.103 Y131.025 E.07217
G1 X197.044 Y131.987 E.07222
G1 X195.888 Y132.257 E.05992
G1 X54.112 Y132.257 E7.15669
G1 X52.737 Y131.865 E.07217
G1 X51.775 Y130.806 E.07222
G1 X51.505 Y129.65 E.05992
G1 X51.505 Y102 E1.39574
G1 X51.781 Y98.401 E.18221
G1 X52.641 Y94.687 E.19244
G1 X54.26 Y90.788 E.21311
G1 X56.042 Y87.888 E.17182
G1 X58.475 Y84.997 E.19074
G1 X61.312 Y82.534 E.18965
M204 S1000
; printing object Motor_Bracket_37,3mm_Mirrored_rev0 id:0 copy 0
;WIPE_START
G1 F8640
G1 X64.983 Y80.277 E-.99504
G1 X65.003 Y80.269 E-.00496
;WIPE_END
G1 Z.4 F720
G1 X149.983 Y98.388 F10800
G1 Z.2 F720
G1 E1 F1500
M204 S800
;TYPE:Perimeter
;WIDTH:0.649999
G1 F1200
G1 X152.959 Y98.379 E.15023
G1 X152.649 Y101.474 E.15701
G1 X152.645 Y101.972 E.02514
G1 X150.029 Y101.972 E.13205
G1 X150.029 Y98.704 E.16496
G1 X149.996 Y98.477 E.01158
M204 S1000
G1 X149.388 Y98.467 F10800
M204 S800
G1 F1200
G1 X149.337 Y98.109 E.01825
G1 X149.168 Y97.772 E.01903
G1 X153.69 Y97.772 E.22827
G1 X153.578 Y98.29 E.02675
G1 X153.325 Y100.818 E.12825
G1 X153.248 Y101.902 E.05486
G1 X153.305 Y102.681 E.03943
G1 X152.809 Y102.579 E.02556
G1 X149.422 Y102.579 E.17097
G1 X149.422 Y98.704 E.19561
G1 X149.4 Y98.556 E.00755
M204 S1000
G1 X148.792 Y98.546 F10800
M204 S800
G1 F1200
G1 X148.754 Y98.279 E.01361
G1 X148.511 Y97.794 E.02738
G1 X148.011 Y97.365 E.03326
;WIDTH:0.671682
G1 X147.297 Y97.176 E.03861
G1 X148.061 Y97.165 E.03995
;WIDTH:0.649999
G1 X153.759 Y97.165 E.28763
G1 X154.517 Y96.962 E.03961
G1 X154.561 Y96.915 E.00325
G1 X154.182 Y98.35 E.07492
G1 X153.929 Y100.879 E.1283
G1 X153.854 Y101.858 E.04956
G1 X153.994 Y103.777 E.09713
G1 X153.409 Y103.31 E.03779
G1 X152.809 Y103.186 E.03093
G1 X148.814 Y103.186 E.20166
G1 X148.805 Y98.635 E.22973
M204 S1000
;WIPE_START
G1 F8640
G1 X148.754 Y98.279 E-.08304
G1 X148.511 Y97.794 E-.12526
G1 X148.011 Y97.365 E-.15212
G1 X147.297 Y97.176 E-.17054
G1 X148.061 Y97.165 E-.17643
G1 X149.328 Y97.165 E-.29261
;WIPE_END
G1 Z.4 F720
G1 X155.541 Y112.786 F10800
G1 Z.2 F720
G1 E1 F1500
M204 S800
G1 F1200
G1 X157.282 Y115.374 E.15745
G1 X157.578 Y115.741 E.0238
G1 X159.838 Y118.093 E.16465
G1 X160.193 Y118.404 E.02382
G1 X162.824 Y120.332 E.16465
G1 X163.233 Y120.58 E.02414
G1 X166.196 Y122.039 E.16672
G1 X166.632 Y122.208 E.0236
G1 X169.443 Y123.035 E.14791
G1 X170.184 Y123.211 E.03845
G1 X170.784 Y123.279 E.03048
G1 X170.784 Y126.697 E.17254
G1 X155.541 Y126.697 E.76945
G1 X155.541 Y112.876 E.69767
M204 S1000
;WIPE_START
G1 F8640
G1 X157.282 Y115.374 E-.70306
G1 X157.578 Y115.741 E-.10887
G1 X158.142 Y116.328 E-.18807
;WIPE_END
G1 Z.4 F720
G1 X154.934 Y110.093 F10800
G1 Z.2 F720
G1 E1 F1500
M204 S800
G1 F1200
G1 X155.787 Y112.007 E.10578
G1 X155.965 Y112.329 E.01857
G1 X157.786 Y115.035 E.16465
G1 X158.016 Y115.321 E.01853
G1 X160.276 Y117.673 E.16465
G1 X160.552 Y117.915 E.01853
G1 X163.183 Y119.843 E.16465
G1 X163.501 Y120.035 E.01875
G1 X166.464 Y121.494 E.16672
G1 X166.803 Y121.626 E.01836
G1 X169.614 Y122.452 E.1479
G1 X170.253 Y122.608 E.0332
G1 X171.392 Y122.738 E.05787
G1 X171.392 Y127.304 E.23049
G1 X154.934 Y127.304 E.83078
G1 X154.934 Y110.183 E.86425
M204 S1000
;WIPE_START
G1 F8640
G1 X155.787 Y112.007 E-.46495
G1 X155.965 Y112.329 E-.08495
G1 X157.053 Y113.946 E-.4501
;WIPE_END
G1 Z.4 F720
G1 X154.327 Y106.14 F10800
G1 Z.2 F720
G1 E1 F1500
M204 S800
G1 F1200
G1 X154.928 Y108.533 E.12455
G1 X155.014 Y108.781 E.01325
G1 X156.342 Y111.76 E.16464
G1 X156.469 Y111.99 E.01326
G1 X158.289 Y114.696 E.16462
G1 X158.454 Y114.9 E.01324
G1 X160.714 Y117.252 E.16465
G1 X160.911 Y117.425 E.01323
G1 X163.542 Y119.353 E.16465
G1 X163.769 Y119.491 E.01341
G1 X166.732 Y120.949 E.1667
G1 X166.974 Y121.044 E.01312
G1 X169.785 Y121.87 E.1479
G1 X170.322 Y122.004 E.02794
G1 X171.999 Y122.196 E.08521
G1 X171.999 Y127.911 E.28849
G1 X154.327 Y127.911 E.89206
G1 X154.327 Y106.23 E1.09443
M204 S1000
;WIPE_START
G1 F8640
M73 P0 R105
G1 X154.928 Y108.533 E-.54958
G1 X155.014 Y108.781 E-.06061
G1 X155.701 Y110.323 E-.38981
;WIPE_END
G1 Z.4 F720
G1 X177.691 Y123.279 F10800
G1 Z.2 F720
G1 E1 F1500
M204 S800
G1 F1200
G1 X178.753 Y123.117 E.05423
G1 X181.884 Y122.196 E.16475
G1 X182.325 Y122.024 E.02389
G1 X185.248 Y120.578 E.16462
G1 X185.652 Y120.332 E.02388
G1 X188.282 Y118.404 E.16461
G1 X188.638 Y118.093 E.02386
G1 X190.897 Y115.741 E.16462
G1 X191.194 Y115.374 E.02383
G1 X192.934 Y112.786 E.15742
G1 X192.934 Y126.697 E.70221
G1 X177.691 Y126.697 E.76945
G1 X177.691 Y123.369 E.16799
M204 S1000
G1 X177.084 Y122.738 F10800
M204 S800
G1 F1200
G1 X178.223 Y122.607 E.05787
G1 X178.581 Y122.535 E.01843
G1 X181.713 Y121.614 E.16479
G1 X182.055 Y121.48 E.01854
G1 X184.979 Y120.033 E.16468
G1 X185.293 Y119.843 E.01853
G1 X187.924 Y117.915 E.16465
G1 X188.2 Y117.673 E.01853
G1 X190.459 Y115.321 E.16462
G1 X190.69 Y115.035 E.01856
G1 X192.511 Y112.329 E.16465
G1 X192.689 Y112.007 E.01857
G1 X193.542 Y110.093 E.10578
G1 X193.542 Y127.304 E.86879
G1 X177.084 Y127.304 E.83078
G1 X177.084 Y122.828 E.22594
M204 S1000
G1 X176.477 Y122.196 F10800
M204 S800
G1 F1200
G1 X178.154 Y122.004 E.08521
G1 X178.41 Y121.952 E.01319
G1 X181.542 Y121.031 E.16479
G1 X181.786 Y120.936 E.01322
G1 X184.71 Y119.489 E.16468
G1 X184.934 Y119.353 E.01323
G1 X187.565 Y117.425 E.16465
G1 X187.762 Y117.252 E.01323
G1 X190.022 Y114.9 E.16465
G1 X190.186 Y114.696 E.01321
G1 X192.007 Y111.99 E.16465
G1 X192.134 Y111.76 E.01326
G1 X193.462 Y108.781 E.16464
G1 X193.547 Y108.533 E.01323
G1 X194.149 Y106.14 E.12456
G1 X194.149 Y127.911 E1.09897
G1 X176.477 Y127.911 E.89206
G1 X176.477 Y122.286 E.28394
M204 S1000
;WIPE_START
G1 F8640
G1 X178.154 Y122.004 E-.39266
G1 X178.41 Y121.952 E-.06032
G1 X180.683 Y121.284 E-.54702
;WIPE_END
G1 Z.4 F720
G1 X115.028 Y97.744 F10800
G1 Z.2 F720
G1 E1 F1500
M204 S800
;WIDTH:0.593827
G1 F1200
G1 X114.846 Y98.099 E.01827
G1 X114.757 Y98.872 E.03564
G1 X114.106 Y97.744 E.05966
G1 X114.938 Y97.744 E.03811
M204 S1000
;WIPE_START
G1 F8640
G1 X114.846 Y98.099 E-.08468
G1 X114.757 Y98.872 E-.17967
G1 X114.106 Y97.744 E-.30072
G1 X114.938 Y97.744 E-.19211
;WIPE_END
G1 E-.24282 F2100
G1 Z.4 F720
G1 X116.588 Y97.187 F10800
G1 Z.2 F720
G1 E1 F1500
M204 S800
;WIDTH:0.694846
G1 F1200
G1 X116.144 Y97.358 E.02579
;WIDTH:0.657641
G1 X115.647 Y97.784 E.03346
;WIDTH:0.649999
G1 X115.401 Y98.266 E.02732
G1 X115.336 Y98.704 E.02235
G1 X115.336 Y101.033 E.11757
G1 X113.553 Y97.945 E.18
G1 X113.048 Y97.42 E.03677
;WIDTH:0.671682
G1 X112.239 Y97.176 E.04418
G1 X113.122 Y97.165 E.04617
;WIDTH:0.649999
G1 X115.34 Y97.165 E.11196
;WIDTH:0.694846
G1 X116.498 Y97.186 E.06278
M204 S1000
;WIPE_START
M73 Q0 S107
G1 F8640
G1 X116.144 Y97.358 E-.09088
G1 X115.647 Y97.784 E-.15115
G1 X115.401 Y98.266 E-.12495
G1 X115.336 Y98.704 E-.10224
G1 X115.336 Y101.003 E-.53078
;WIPE_END
G1 Z.4 F720
G1 X96.689 Y97.187 F10800
G1 Z.2 F720
G1 E1 F1500
M204 S800
G1 F1200
G1 X96.49 Y97.273 E.01175
;WIDTH:0.655685
G1 X96.29 Y97.358 E.01107
;WIDTH:0.616523
G1 X95.994 Y97.567 E.01728
;WIDTH:0.591237
G1 X95.7 Y97.956 E.02223
G1 X95.39 Y96.847 E.0525
G1 X95.883 Y97.092 E.0251
G1 X96.053 Y97.123 E.00788
;WIDTH:0.625774
G1 X96.265 Y97.145 E.01033
;WIDTH:0.66031
G1 X96.477 Y97.166 E.01094
;WIDTH:0.694846
G1 X96.599 Y97.178 E.00665
M204 S1000
;WIPE_START
G1 F8640
G1 X96.49 Y97.273 E-.03339
G1 X96.29 Y97.358 E-.05018
G1 X95.994 Y97.567 E-.08367
G1 X95.7 Y97.956 E-.11259
G1 X95.39 Y96.847 E-.26589
G1 X95.883 Y97.092 E-.12712
G1 X96.053 Y97.123 E-.0399
G1 X96.265 Y97.145 E-.04921
G1 X96.477 Y97.166 E-.04919
G1 X96.599 Y97.178 E-.02831
;WIPE_END
G1 E-.16055 F2100
G1 Z.4 F720
G1 X94.459 Y112.786 F10800
G1 Z.2 F720
G1 E1 F1500
M204 S800
;WIDTH:0.649999
G1 F1200
G1 X94.459 Y126.697 E.70221
G1 X79.216 Y126.697 E.76945
G1 X79.215 Y123.279 E.17254
G1 X80.277 Y123.117 E.05423
G1 X83.409 Y122.196 E.16479
G1 X83.849 Y122.024 E.02385
G1 X86.773 Y120.578 E.16466
G1 X87.176 Y120.332 E.02383
G1 X89.807 Y118.404 E.16465
G1 X90.162 Y118.093 E.02382
G1 X92.422 Y115.741 E.16465
G1 X92.718 Y115.374 E.0238
G1 X94.409 Y112.861 E.1529
M204 S1000
;WIPE_START
G1 F8640
G1 X94.425 Y117.192 E-1
;WIPE_END
G1 Z.4 F720
G1 X95.066 Y110.093 F10800
G1 Z.2 F720
G1 E1 F1500
M204 S800
G1 F1200
G1 X95.066 Y127.304 E.86879
G1 X78.608 Y127.304 E.83078
G1 X78.608 Y122.738 E.23049
G1 X79.747 Y122.608 E.05787
G1 X80.106 Y122.535 E.01849
G1 X83.237 Y121.614 E.16475
G1 X83.58 Y121.48 E.01859
G1 X86.503 Y120.033 E.16464
G1 X86.817 Y119.843 E.01853
G1 X89.448 Y117.915 E.16465
G1 X89.724 Y117.673 E.01853
G1 X91.984 Y115.321 E.16465
G1 X92.214 Y115.035 E.01853
G1 X94.035 Y112.329 E.16465
G1 X94.213 Y112.007 E.01857
G1 X95.029 Y110.175 E.10124
M204 S1000
;WIPE_START
G1 F8640
G1 X95.038 Y114.506 E-1
;WIPE_END
G1 Z.4 F720
G1 X95.673 Y106.14 F10800
G1 Z.2 F720
G1 E1 F1500
M204 S800
G1 F1200
G1 X95.673 Y127.911 E1.09897
G1 X78.001 Y127.911 E.89206
G1 X78.001 Y122.196 E.28849
G1 X79.678 Y122.004 E.08521
G1 X79.934 Y121.952 E.01319
G1 X83.066 Y121.031 E.16479
G1 X83.311 Y120.936 E.01326
G1 X86.234 Y119.489 E.16464
G1 X86.458 Y119.353 E.01323
G1 X89.089 Y117.425 E.16465
G1 X89.286 Y117.252 E.01323
G1 X91.546 Y114.9 E.16465
G1 X91.711 Y114.696 E.01324
G1 X93.531 Y111.99 E.16462
G1 X93.658 Y111.76 E.01326
G1 X94.986 Y108.781 E.16464
G1 X95.072 Y108.533 E.01325
M73 P1 R105
G1 X95.651 Y106.227 E.12002
M204 S1000
;WIPE_START
G1 F8640
G1 X95.655 Y110.558 E-1
;WIPE_END
G1 Z.4 F720
G1 X72.309 Y123.279 F10800
G1 Z.2 F720
M73 Q1 S107
G1 E1 F1500
M204 S800
G1 F1200
G1 X72.309 Y126.697 E.17254
G1 X57.066 Y126.697 E.76945
G1 X57.066 Y112.786 E.70221
G1 X58.806 Y115.374 E.15742
G1 X59.103 Y115.741 E.02383
G1 X61.362 Y118.093 E.16462
G1 X61.718 Y118.404 E.02386
G1 X64.348 Y120.332 E.16461
G1 X64.757 Y120.58 E.02414
G1 X67.721 Y122.039 E.16676
G1 X68.156 Y122.208 E.02356
G1 X70.967 Y123.035 E.14791
G1 X71.708 Y123.211 E.03845
G1 X72.219 Y123.269 E.02596
M204 S1000
G1 X72.916 Y122.738 F10800
M204 S800
G1 F1200
G1 X72.916 Y127.304 E.23049
G1 X56.458 Y127.304 E.83078
G1 X56.458 Y110.093 E.86879
G1 X57.311 Y112.007 E.10578
G1 X57.489 Y112.329 E.01857
G1 X59.31 Y115.035 E.16465
G1 X59.541 Y115.321 E.01856
G1 X61.8 Y117.673 E.16462
G1 X62.076 Y117.915 E.01853
G1 X64.707 Y119.843 E.16465
G1 X65.025 Y120.035 E.01875
G1 X67.989 Y121.494 E.16676
G1 X68.328 Y121.626 E.01836
G1 X71.138 Y122.452 E.14785
G1 X71.777 Y122.608 E.0332
G1 X72.827 Y122.727 E.05334
M204 S1000
G1 X73.523 Y122.196 F10800
M204 S800
G1 F1200
G1 X73.523 Y127.911 E.28849
G1 X55.851 Y127.911 E.89206
G1 X55.851 Y106.14 E1.09897
G1 X56.453 Y108.533 E.12456
G1 X56.538 Y108.781 E.01323
G1 X57.866 Y111.76 E.16464
G1 X57.993 Y111.99 E.01326
G1 X59.814 Y114.696 E.16465
G1 X59.978 Y114.9 E.01321
G1 X62.238 Y117.252 E.16465
G1 X62.435 Y117.425 E.01323
G1 X65.066 Y119.353 E.16465
G1 X65.293 Y119.491 E.01341
G1 X68.257 Y120.949 E.16674
G1 X68.499 Y121.044 E.01312
G1 X71.31 Y121.87 E.1479
G1 X71.846 Y122.004 E.02789
G1 X73.434 Y122.186 E.08069
M204 S1000
;WIPE_START
G1 F8640
G1 X73.501 Y126.516 E-1
;WIPE_END
G1 Z.4 F720
G1 X148.196 Y98.625 F10800
G1 Z.2 F720
G1 E1 F1500
M204 S800
G1 F1200
G1 X148.171 Y98.449 E.00897
G1 X148.025 Y98.158 E.01643
G1 X147.725 Y97.901 E.01994
G1 X147.297 Y97.794 E.02227
G1 X116.854 Y97.794 E1.53673
G1 X116.429 Y97.899 E.0221
G1 X116.13 Y98.152 E.01977
G1 X115.982 Y98.441 E.01639
G1 X115.943 Y98.704 E.01342
G1 X115.943 Y103.299 E.23195
G1 X113.028 Y98.249 E.29434
G1 X112.724 Y97.934 E.0221
G1 X112.239 Y97.794 E.02548
G1 X96.955 Y97.794 E.77152
G1 X96.798 Y97.807 E.00795
G1 X96.452 Y97.945 E.0188
G1 X96.126 Y98.328 E.02539
;WIDTH:0.696594
G1 X96.063 Y98.55 E.01254
;WIDTH:0.743189
G1 X96 Y98.772 E.01344
G1 X96.222 Y101.597 E.165
;WIDTH:0.724324
G1 X96.243 Y102.054 E.02592
;WIDTH:0.761489
G1 X96.224 Y103.07 E.06072
;WIDTH:0.798653
G1 X96.206 Y104.086 E.06385
;WIDTH:0.835817
G1 X96.187 Y105.102 E.067
G1 X96.2 Y105.346 E.01611
;WIDTH:0.811118
G1 X96.22 Y106.161 E.05207
;WIDTH:0.770839
G1 X96.24 Y106.977 E.0494
;WIDTH:0.730559
G1 X96.26 Y107.792 E.04661
;WIDTH:0.690279
G1 X96.28 Y108.607 E.04388
;WIDTH:0.649999
G1 X96.28 Y128.518 E1.00508
G1 X77.394 Y128.518 E.95334
G1 X77.394 Y121.654 E.34649
G1 X79.609 Y121.401 E.11254
G1 X79.763 Y121.37 E.00793
G1 X82.895 Y120.449 E.16479
G1 X83.041 Y120.391 E.00793
G1 X85.965 Y118.945 E.16466
G1 X86.099 Y118.863 E.00793
G1 X88.73 Y116.935 E.16465
G1 X88.849 Y116.832 E.00794
G1 X91.108 Y114.479 E.16465
G1 X91.207 Y114.357 E.00793
G1 X93.028 Y111.651 E.16465
G1 X93.104 Y111.513 E.00795
G1 X94.431 Y108.534 E.16462
G1 X94.483 Y108.385 E.00797
;WIDTH:0.690279
G1 X94.701 Y107.599 E.04391
;WIDTH:0.730559
G1 X94.919 Y106.813 E.04664
;WIDTH:0.770839
G1 X95.138 Y106.027 E.04939
;WIDTH:0.811118
G1 X95.356 Y105.241 E.0521
;WIDTH:0.835817
G1 X95.395 Y105.073 E.01137
G1 X95.451 Y104.058 E.06702
;WIDTH:0.798653
G1 X95.507 Y103.044 E.06382
;WIDTH:0.761489
G1 X95.562 Y102.029 E.06073
;WIDTH:0.724324
G1 X95.565 Y101.653 E.0213
;WIDTH:0.743189
G1 X95.303 Y98.832 E.16497
G1 X95.243 Y98.544 E.01713
;WIDTH:0.696594
G1 X95.184 Y98.256 E.01598
;WIDTH:0.649999
G1 X94.811 Y96.922 E.06992
;WIDTH:0.68531
G1 X94.766 Y96.695 E.01236
;WIDTH:0.720621
G1 X94.72 Y96.468 E.01305
;WIDTH:0.755932
G1 X94.675 Y96.242 E.01366
G1 X94.499 Y95.676 E.03514
;WIDTH:0.722054
G1 X94.323 Y95.11 E.03347
;WIDTH:0.688176
G1 X94.265 Y94.96 E.00863
;WIDTH:0.715032
G1 X93.841 Y94.038 E.05671
;WIDTH:0.744891
G1 X93.416 Y93.115 E.05931
G1 X93.137 Y92.566 E.03595
;WIDTH:0.714537
G1 X92.858 Y92.018 E.03434
;WIDTH:0.684182
G1 X92.776 Y91.88 E.00856
;WIDTH:0.714836
G1 X92.291 Y91.172 E.04795
;WIDTH:0.746794
G1 X91.806 Y90.464 E.05023
G1 X91.345 Y89.844 E.04522
;WIDTH:0.714731
G1 X90.883 Y89.224 E.04319
;WIDTH:0.683054
G1 X90.78 Y89.102 E.0085
;WIDTH:0.714646
G1 X90.292 Y88.598 E.03918
;WIDTH:0.746237
G1 X89.804 Y88.095 E.04098
G1 X89.131 Y87.453 E.05439
;WIDTH:0.71493
G1 X88.458 Y86.811 E.05197
;WIDTH:0.6857
G1 X88.335 Y86.708 E.00857
;WIDTH:0.714458
G1 X87.897 Y86.386 E.03036
;WIDTH:0.743215
G1 X87.458 Y86.065 E.03167
G1 X86.556 Y85.458 E.06331
;WIDTH:0.715124
G1 X85.654 Y84.85 E.0608
;WIDTH:0.690817
