; generated by PrusaSlicer 2.6.1+win64 on 2023-09-16 at 16:34:14 UTC


;
;
; 

; external perimeters extrusion width = 0.45mm
; perimeters extrusion width = 0.45mm
; infill extrusion width = 0.45mm
; solid infill extrusion width = 0.45mm
; top infill extrusion width = 0.40mm
; first layer extrusion width = 0.42mm

M73 P0 R36
M73 Q0 S37
M201 X1000 Y1000 Z200 E5000 ; sets maximum accelerations, mm/sec^2
M203 X200 Y200 Z12 E120 ; sets maximum feedrates, mm / sec
M204 S1250 T1250 ; sets acceleration (S) and retract acceleration (R), mm/sec^2
M205 X8.00 Y8.00 Z0.40 E4.50 ; sets the jerk limits, mm/sec
M205 S0 T0 ; sets the minimum extruding and travel feed rate, mm/sec
;TYPE:Custom
M862.3 P "MK3S" ; printer model check
M862.1 P0.4 ; nozzle diameter check
M115 U3.12.2 ; tell printer latest fw version
G90 ; use absolute coordinates
M83 ; extruder relative mode
M104 S240 ; set extruder temp
M140 S85 ; set bed temp
M190 S85 ; wait for bed temp
M109 S240 ; wait for extruder temp
G28 W ; home all without mesh bed level
G80 ; mesh bed leveling

G1 Z0.2 F720
G1 Y-3 F1000 ; go outside print area
G92 E0
G1 X60 E9 F1000 ; intro line
G1 X100 E12.5 F1000 ; intro line

G92 E0
M221 S95

; Don't change E values below. Excessive value can damage the printer.
M907 E430 ; set extruder motor current
G21 ; set units to millimeters
G90 ; use absolute coordinates
M83 ; use relative distances for extrusion
M900 K0.08 ; Filament gcode LA 1.5
M900 K45 ; Filament gcode LA 1.0
M107
;LAYER_CHANGE
;Z:0.2
;HEIGHT:0.2
;BEFORE_LAYER_CHANGE
G92 E0.0
;0.2


G1 E-1 F2100
G1 Z.2 F720
;AFTER_LAYER_CHANGE
;0.2
G1 Z.4
G1 X69.491 Y81.422 F10800
G1 Z.2 F720
G1 E1 F2100
M204 S800
;TYPE:Skirt/Brim
;WIDTH:0.42
G1 F1200
G1 X74.744 Y78.973 E.18172
G1 X76.597 Y78.907 E.05814
G1 X101.159 Y87.847 E.81955
G1 X102.5 Y89.076 E.05703
M73 Q0 S36
G1 X108.319 Y101.632 E.43391
G1 X108.499 Y102.342 E.02297
G1 X108.868 Y104.84 E.07917
G1 X108.84 Y109.885 E.15818
G1 X108.341 Y112.944 E.09718
G1 X107.332 Y116.126 E.10467
G1 X105.706 Y119.454 E.11614
G1 X103.586 Y122.493 E.11618
G1 X100.748 Y125.411 E.12763
G1 X98.08 Y127.418 E.10468
G1 X94.854 Y129.17 E.1151
G1 X91.335 Y130.432 E.11722
G1 X87.331 Y131.163 E.12762
G1 X83.993 Y131.249 E.1047
G1 X80.316 Y130.801 E.11614
G1 X76.751 Y129.792 E.11617
G1 X73.065 Y128.064 E.12764
G1 X70.297 Y126.198 E.10467
G1 X67.586 Y123.723 E.1151
G1 X65.243 Y120.81 E.11721
G1 X63.314 Y117.434 E.12191
G1 X59.422 Y109.088 E.28874
G1 X59.342 Y107.27 E.05706
G1 X68.262 Y82.764 E.81769
G1 X69.451 Y81.467 E.05517
M204 S1000
; printing object Motor_Bracket_37,3mm_rev0-3 id:0 copy 0
;WIPE_START
G1 F8640
G1 X73.369 Y79.621 E-1
;WIPE_END
G1 Z.4 F720
G1 X74.7 Y89.893 F10800
G1 Z.2 F720
G1 E1 F2100
M204 S800
;TYPE:Perimeter
;WIDTH:0.419999
G1 F1200
G1 X73.427 Y90.638 E.04625
G1 X73.186 Y90.809 E.00927
G1 X70.716 Y92.902 E.10151
G1 X70.508 Y93.112 E.00927
;WIDTH:0.458408
G1 X68.422 Y95.592 E.11196
;WIDTH:0.507827
G1 X68.344 Y95.662 E.00405
;WIDTH:0.557246
G1 X68.266 Y95.731 E.00445
;WIDTH:0.606664
G1 X68.187 Y95.801 E.00495
G1 X68.2 Y95.693 E.0051
;WIDTH:0.557246
G1 X68.213 Y95.586 E.00461
;WIDTH:0.507827
G1 X68.226 Y95.479 E.00417
;WIDTH:0.458408
G1 X69.316 Y92.428 E.11193
;WIDTH:0.419999
G1 X72.027 Y84.98 E.24852
G1 X72.341 Y84.833 E.01087
G1 X74.675 Y89.839 E.17318
M204 S1000
;WIPE_START
G1 F8640
G1 X73.427 Y90.638 E-.34217
G1 X73.186 Y90.809 E-.06823
G1 X71.238 Y92.46 E-.5896
;WIPE_END
G1 Z.4 F720
G1 X65.032 Y104.196 F10800
G1 Z.2 F720
G1 E1 F2100
M204 S800
G1 F1200
G1 X64.815 Y105.457 E.04012
G1 X64.79 Y105.751 E.00925
G1 X64.801 Y108.992 E.10162
G1 X64.828 Y109.286 E.00926
G1 X65.188 Y111.29 E.06384
G1 X63.65 Y107.993 E.11407
G1 X65.012 Y104.252 E.12483
M204 S1000
;WIPE_START
G1 F8640
G1 X64.815 Y105.457 E-.28193
G1 X64.79 Y105.751 E-.06813
G1 X64.8 Y108.566 E-.64994
;WIPE_END
G1 Z.4 F720
G1 X75.187 Y90.045 F10800
G1 Z.2 F720
G1 E1 F2100
M204 S800
G1 F1200
G1 X73.617 Y90.964 E.05704
G1 X73.43 Y91.096 E.00718
G1 X70.96 Y93.19 E.10153
G1 X70.798 Y93.353 E.00721
G1 X68.727 Y95.845 E.1016
G1 X68.596 Y96.034 E.00721
G1 X68.004 Y97.07 E.03741
;WIDTH:0.468717
G1 X67.917 Y97.173 E.00477
;WIDTH:0.517435
G1 X67.83 Y97.276 E.00532
;WIDTH:0.566153
G1 X67.743 Y97.379 E.00587
G1 X67.49 Y97.868 E.02395
;WIDTH:0.519273
G1 X67.238 Y98.357 E.02179
;WIDTH:0.472393
G1 X66.985 Y98.846 E.01966
;WIDTH:0.425513
G1 X66.896 Y99.052 E.00714
;WIDTH:0.421177
G1 X65.795 Y102.105 E.10208
;WIDTH:0.432383
G1 X65.731 Y102.327 E.00748
G1 X65.187 Y105.521 E.10492
;WIDTH:0.419999
G1 X65.167 Y105.75 E.00721
G1 X65.179 Y108.99 E.10159
G1 X65.199 Y109.219 E.00721
;WIDTH:0.451999
G1 X65.756 Y112.411 E.11022
G1 X65.828 Y112.632 E.00791
;WIDTH:0.429084
G1 X66.132 Y113.409 E.02679
;WIDTH:0.393853
G1 X66.436 Y114.186 E.02435
;WIDTH:0.405614
G1 X66.437 Y114.257 E.00214
;WIDTH:0.452606
G1 X66.438 Y114.327 E.00238
;WIDTH:0.499599
G1 X66.439 Y114.398 E.0027
;WIDTH:0.546591
G1 X66.44 Y114.469 E.00297
;WIDTH:0.593584
G1 X66.441 Y114.539 E.00321
;WIDTH:0.640576
G1 X66.442 Y114.61 E.00353
G1 X66.392 Y114.559 E.00355
;WIDTH:0.593584
G1 X66.343 Y114.509 E.00321
;WIDTH:0.546591
G1 X66.293 Y114.458 E.00299
;WIDTH:0.499599
G1 X66.244 Y114.408 E.00266
;WIDTH:0.452606
G1 X66.194 Y114.358 E.00241
;WIDTH:0.405614
G1 X66.145 Y114.307 E.00213
;WIDTH:0.393853
G1 X65.808 Y113.543 E.02437
;WIDTH:0.429084
G1 X65.472 Y112.78 E.02677
;WIDTH:0.451999
G1 X63.986 Y109.604 E.11927
;WIDTH:0.419999
G1 X63.243 Y108.01 E.05514
G1 X64.24 Y105.269 E.09145
;WIDTH:0.432383
G1 X65.439 Y101.977 E.11346
;WIDTH:0.421177
G1 X66.545 Y98.93 E.10195
;WIDTH:0.425513
G1 X66.64 Y98.686 E.00833
;WIDTH:0.472393
G1 X66.85 Y98.177 E.01966
;WIDTH:0.519273
G1 X67.06 Y97.669 E.02177
;WIDTH:0.566153
G1 X67.27 Y97.16 E.02396
G1 X67.292 Y97.027 E.00587
;WIDTH:0.517435
G1 X67.315 Y96.894 E.00533
;WIDTH:0.468717
G1 X67.337 Y96.761 E.00477
;WIDTH:0.419999
G1 X71.726 Y84.704 E.40231
G1 X72.524 Y84.334 E.02758
G1 X75.162 Y89.991 E.19571
M204 S1000
;WIPE_START
G1 F8640
M73 Q1 S36
G1 X73.617 Y90.964 E-.4216
G1 X73.43 Y91.096 E-.05285
G1 X71.694 Y92.568 E-.52555
;WIPE_END
G1 Z.4 F720
M73 P1 R36
G1 X68.187 Y95.801 F10800
G1 Z.2 F720
G1 E1 F2100
M204 S800
;WIDTH:0.606664
G1 F1200
G1 X68.087 Y96.018 E.0112
;WIDTH:0.565973
G1 X67.986 Y96.235 E.01041
;WIDTH:0.525281
G1 X67.885 Y96.452 E.0096
;WIDTH:0.48459
G1 X67.785 Y96.669 E.00877
;WIDTH:0.443898
G1 X67.684 Y96.887 E.00801
M204 S1000
;WIPE_START
G1 F8640
G1 X67.785 Y96.669 E-.05548
G1 X67.885 Y96.452 E-.05517
G1 X67.986 Y96.235 E-.05527
G1 X68.087 Y96.018 E-.05527
G1 X68.187 Y95.801 E-.05517
;WIPE_END
G1 E-.72364 F2100
G1 Z.4 F720
G1 X78.359 Y88.187 F10800
G1 Z.2 F720
G1 E1 F2100
M204 S800
;WIDTH:0.419999
G1 F1200
G1 X76.074 Y83.287 E.16952
G1 X86.435 Y87.059 E.34572
G1 X83.519 Y87.045 E.09143
G1 X83.225 Y87.07 E.00925
G1 X80.033 Y87.616 E.10154
G1 X79.751 Y87.69 E.00914
G1 X78.415 Y88.167 E.04448
M204 S1000
G1 X78.162 Y88.658 F10800
M204 S800
G1 F1200
G1 X75.499 Y82.946 E.1976
G1 X75.822 Y82.795 E.01118
G1 X83.824 Y85.707 E.26699
;WIDTH:0.449062
G1 X86.864 Y86.829 E.10943
;WIDTH:0.482568
G1 X86.988 Y86.892 E.00508
;WIDTH:0.516073
G1 X87.112 Y86.955 E.00547
G1 X87.66 Y87.128 E.02261
;WIDTH:0.467121
G1 X88.208 Y87.302 E.02028
;WIDTH:0.418169
G1 X88.756 Y87.475 E.01793
;WIDTH:0.412269
G1 X88.811 Y87.518 E.00214
;WIDTH:0.455321
G1 X88.866 Y87.561 E.00239
;WIDTH:0.498373
G1 X88.921 Y87.604 E.00264
;WIDTH:0.541426
G1 X88.976 Y87.647 E.00289
;WIDTH:0.584478
G1 X89.031 Y87.69 E.00314
;WIDTH:0.62753
G1 X89.086 Y87.733 E.00339
G1 X89.017 Y87.742 E.00338
;WIDTH:0.584478
G1 X88.948 Y87.752 E.00314
;WIDTH:0.541426
G1 X88.878 Y87.761 E.00293
;WIDTH:0.498373
G1 X88.809 Y87.77 E.00264
;WIDTH:0.455321
G1 X88.74 Y87.78 E.00239
;WIDTH:0.412269
G1 X88.671 Y87.789 E.00214
;WIDTH:0.418007
G1 X88.112 Y87.663 E.01787
;WIDTH:0.466797
G1 X87.554 Y87.537 E.02016
;WIDTH:0.515587
G1 X86.995 Y87.412 E.02251
G1 X86.876 Y87.417 E.00468
;WIDTH:0.482325
G1 X86.758 Y87.423 E.00432
;WIDTH:0.449062
G1 X83.517 Y87.422 E.10945
;WIDTH:0.419999
G1 X83.288 Y87.441 E.0072
G1 X80.097 Y87.988 E.10151
G1 X79.877 Y88.045 E.00713
G1 X78.219 Y88.638 E.05521
M204 S1000
;WIPE_START
G1 F8640
G1 X76.352 Y84.73 E-1
;WIPE_END
G1 Z.4 F720
G1 X97.393 Y91.127 F10800
G1 Z.2 F720
G1 E1 F2100
M204 S800
;WIDTH:0.57076
G1 F1200
G1 X98.888 Y91.672 E.06984
G1 X99.447 Y92.871 E.05806
G1 X97.439 Y91.166 E.11562
M204 S1000
;WIPE_START
G1 F8640
G1 X98.888 Y91.672 E-.35439
G1 X99.447 Y92.871 E-.30546
G1 X98.324 Y91.918 E-.34015
;WIPE_END
G1 Z.4 F720
G1 X93.653 Y89.301 F10800
G1 Z.2 F720
G1 E1 F2100
M204 S800
;WIDTH:0.450748
G1 F1200
G1 X96.703 Y90.395 E.10988
;WIDTH:0.419999
G1 X99.219 Y91.311 E.08395
G1 X101.293 Y95.759 E.15388
G1 X99.27 Y93.332 E.09907
G1 X99.108 Y93.169 E.00721
G1 X96.633 Y91.077 E.10161
G1 X96.445 Y90.945 E.0072
;WIDTH:0.450748
G1 X93.704 Y89.331 E.10787
M204 S1000
;WIPE_START
G1 F8640
G1 X96.703 Y90.395 E-.73477
G1 X97.782 Y90.788 E-.26523
;WIPE_END
G1 Z.4 F720
G1 X77.965 Y89.129 F10800
G1 Z.2 F720
G1 E1 F2100
M204 S800
;WIDTH:0.419999
G1 F1200
G1 X75.029 Y82.831 E.21787
G1 X75.28 Y82.632 E.01004
G1 X75.804 Y82.387 E.01814
G1 X99.495 Y91.01 E.79049
G1 X100.3 Y92.736 E.05971
;WIDTH:0.459939
G1 X100.738 Y93.723 E.03744
;WIDTH:0.499878
G1 X101.176 Y94.711 E.04106
;WIDTH:0.539817
G1 X101.615 Y95.698 E.04463
;WIDTH:0.578588
G1 X101.693 Y95.911 E.0101
G1 X102.17 Y96.88 E.04811
;WIDTH:0.532981
G1 X102.647 Y97.85 E.04405
;WIDTH:0.487374
G1 X103.124 Y98.819 E.03991
;WIDTH:0.44204
G1 X103.209 Y99.001 E.00667
;WIDTH:0.484429
G1 X103.588 Y99.865 E.03464
;WIDTH:0.526818
G1 X103.968 Y100.728 E.03794
;WIDTH:0.569206
G1 X104.347 Y101.592 E.04129
G1 X104.427 Y101.706 E.00609
;WIDTH:0.519471
G1 X104.508 Y101.82 E.00554
;WIDTH:0.469735
G1 X104.588 Y101.933 E.00491
;WIDTH:0.419999
G1 X104.915 Y102.635 E.02428
G1 X105.013 Y102.964 E.01076
G1 X105.327 Y104.968 E.0636
G1 X105.327 Y109.435 E.14006
G1 X104.939 Y111.958 E.08004
G1 X103.984 Y114.968 E.09901
G1 X102.576 Y117.795 E.09902
G1 X100.75 Y120.371 E.099
G1 X98.548 Y122.635 E.09902
G1 X96.024 Y124.533 E.09902
G1 X93.237 Y126.019 E.09903
G1 X90.255 Y127.058 E.09901
G1 X87.149 Y127.625 E.099
G1 X83.992 Y127.706 E.09902
G1 X80.86 Y127.301 E.09902
G1 X77.829 Y126.417 E.09899
G1 X74.969 Y125.077 E.09903
G1 X72.35 Y123.312 E.09902
G1 X70.035 Y121.165 E.099
G1 X68.078 Y118.686 E.09903
G1 X66.504 Y115.897 E.10041
G1 X62.835 Y108.028 E.27223
G1 X71.425 Y84.428 E.78745
G1 X72.341 Y84.001 E.03169
G1 X72.737 Y83.9 E.01281
G1 X75.674 Y90.197 E.21786
G1 X73.807 Y91.289 E.06782
G1 X73.674 Y91.384 E.00512
G1 X71.203 Y93.478 E.10155
G1 X71.088 Y93.594 E.00512
G1 X69.017 Y96.086 E.1016
G1 X68.923 Y96.221 E.00516
G1 X67.315 Y99.035 E.10162
G1 X67.248 Y99.18 E.00501
G1 X66.151 Y102.233 E.10172
G1 X66.11 Y102.387 E.005
G1 X65.558 Y105.585 E.10175
G1 X65.544 Y105.748 E.00513
G1 X65.556 Y108.989 E.10162
G1 X65.57 Y109.152 E.00513
G1 X66.143 Y112.342 E.10162
G1 X66.186 Y112.5 E.00513
G1 X67.303 Y115.542 E.10161
G1 X67.373 Y115.69 E.00513
G1 X69.095 Y118.627 E.10675
G1 X70.723 Y120.558 E.07919
G1 X71.3 Y121.22 E.02753
G1 X73.786 Y123.298 E.10159
G1 X73.921 Y123.392 E.00516
G1 X76.729 Y125.008 E.10158
G1 X76.878 Y125.077 E.00515
G1 X79.925 Y126.181 E.10161
G1 X80.083 Y126.223 E.00513
G1 X83.275 Y126.783 E.10161
G1 X83.439 Y126.797 E.00516
G1 X86.679 Y126.794 E.10159
G1 X86.845 Y126.779 E.00523
G1 X90.066 Y126.201 E.10261
G1 X90.238 Y126.156 E.00557
G1 X93.386 Y124.995 E.1052
G1 X96.327 Y123.281 E.10673
G1 X98.81 Y121.2 E.10158
G1 X98.926 Y121.084 E.00514
G1 X101.011 Y118.603 E.10161
G1 X101.105 Y118.469 E.00513
G1 X102.728 Y115.664 E.10161
G1 X102.798 Y115.515 E.00516
G1 X103.91 Y112.472 E.10158
G1 X103.953 Y112.313 E.00516
G1 X104.484 Y109.328 E.09506
G1 X104.535 Y108.96 E.01165
G1 X104.542 Y105.719 E.10162
G1 X104.528 Y105.556 E.00513
G1 X103.972 Y102.363 E.10162
;WIDTH:0.469735
G1 X103.935 Y102.173 E.00687
;WIDTH:0.519471
G1 X103.898 Y101.983 E.00767
;WIDTH:0.569206
G1 X103.861 Y101.793 E.00847
G1 X103.521 Y100.913 E.04128
;WIDTH:0.526818
G1 X103.18 Y100.033 E.03797
;WIDTH:0.484429
G1 X102.84 Y99.153 E.03463
;WIDTH:0.44204
G1 X102.77 Y99.003 E.00549
;WIDTH:0.487374
G1 X102.253 Y98.054 E.03994
;WIDTH:0.532981
G1 X101.735 Y97.106 E.04402
;WIDTH:0.578588
G1 X101.218 Y96.158 E.0481
G1 X101.101 Y96.024 E.00792
;WIDTH:0.539817
G1 X100.394 Y95.207 E.04464
;WIDTH:0.499878
G1 X99.687 Y94.39 E.04105
;WIDTH:0.459939
G1 X98.98 Y93.573 E.03746
;WIDTH:0.419999
G1 X98.864 Y93.457 E.00514
G1 X96.389 Y91.365 E.10161
G1 X96.255 Y91.271 E.00513
G1 X93.455 Y89.64 E.1016
G1 X93.307 Y89.57 E.00513
G1 X90.266 Y88.449 E.10162
G1 X90.108 Y88.406 E.00513
G1 X86.919 Y87.83 E.10161
G1 X86.756 Y87.815 E.00513
G1 X83.515 Y87.799 E.10162
G1 X83.352 Y87.813 E.00513
G1 X80.16 Y88.359 E.10154
G1 X80.004 Y88.4 E.00506
G1 X78.022 Y89.109 E.066
M204 S1000
G1 X77.769 Y89.6 F10800
M204 S800
G1 F1200
G1 X74.61 Y82.824 E.23441
G1 X74.744 Y82.582 E.00867
G1 X75.1 Y82.3 E.01424
G1 X75.786 Y81.979 E.02375
G1 X99.77 Y90.709 E.80027
G1 X105.257 Y102.475 E.40706
G1 X105.382 Y102.884 E.01341
M73 P2 R36
M73 Q2 S36
G1 X105.704 Y104.968 E.06612
G1 X105.704 Y109.464 E.14097
G1 X105.307 Y112.045 E.08188
G1 X104.334 Y115.11 E.10083
G1 X102.9 Y117.989 E.10085
G1 X101.04 Y120.613 E.10085
G1 X98.798 Y122.919 E.10084
G1 X96.227 Y124.852 E.10085
G1 X93.389 Y126.365 E.10084
G1 X90.352 Y127.424 E.10085
G1 X87.188 Y128.001 E.10084
G1 X83.973 Y128.084 E.10084
G1 X80.783 Y127.671 E.10085
G1 X77.695 Y126.771 E.10085
G1 X74.783 Y125.406 E.10084
G1 X72.115 Y123.608 E.10088
G1 X69.757 Y121.421 E.10084
G1 X67.764 Y118.897 E.10084
G1 X66.168 Y116.069 E.10182
G1 X62.427 Y108.046 E.27756
G1 X71.124 Y84.152 E.79726
G1 X72.419 Y83.571 E.0445
G1 X72.806 Y83.513 E.01227
G1 X73.003 Y83.577 E.00649
G1 X76.161 Y90.35 E.23431
G1 X73.918 Y91.671 E.08162
G1 X71.447 Y93.765 E.10155
G1 X69.251 Y96.408 E.10774
G1 X67.602 Y99.309 E.10463
G1 X66.505 Y102.361 E.10169
G1 X65.93 Y105.649 E.10466
G1 X65.942 Y109.086 E.10777
G1 X66.54 Y112.37 E.10466
G1 X67.699 Y115.501 E.10468
G1 X69.383 Y118.384 E.10469
G1 X71.541 Y120.931 E.10467
G1 X74.028 Y123.009 E.10162
G1 X77.007 Y124.722 E.10775
G1 X80.148 Y125.852 E.10466
G1 X83.34 Y126.411 E.10161
G1 X86.679 Y126.417 E.10469
G1 X90.109 Y125.802 E.10926
G1 X93.197 Y124.669 E.10313
G1 X96.084 Y122.992 E.10468
G1 X98.637 Y120.841 E.10467
G1 X100.722 Y118.36 E.10161
G1 X102.402 Y115.475 E.10468
G1 X103.556 Y112.342 E.10468
G1 X104.158 Y108.959 E.10774
G1 X104.165 Y105.719 E.10159
G1 X103.576 Y102.333 E.10776
G1 X102.434 Y99.196 E.10467
G1 X100.766 Y96.304 E.10468
G1 X98.621 Y93.745 E.10469
M73 P2 R35
G1 X96.066 Y91.597 E.10466
G1 X93.265 Y89.966 E.10163
G1 X90.136 Y88.803 E.10467
G1 X86.852 Y88.201 E.10468
G1 X83.514 Y88.176 E.10466
G1 X80.224 Y88.731 E.10461
G1 X77.825 Y89.58 E.07979
M204 S1000
G1 X77.572 Y90.07 F10800
M204 S800
;TYPE:External perimeter
G1 F1200
G1 X74.268 Y82.984 E.24514
G1 X74.227 Y82.793 E.00613
G1 X74.392 Y82.397 E.01345
G1 X74.621 Y82.178 E.00993
G1 X74.921 Y81.968 E.01148
G1 X75.768 Y81.571 E.02933
G1 X100.046 Y90.408 E.81008
G1 X105.599 Y102.316 E.41197
G1 X105.751 Y102.804 E.01603
G1 X106.066 Y104.778 E.06268
G1 X106.081 Y104.968 E.00598
G1 X106.081 Y109.493 E.14188
G1 X105.675 Y112.131 E.08369
G1 X104.685 Y115.252 E.10266
G1 X103.225 Y118.184 E.1027
G1 X101.331 Y120.855 E.10267
G1 X99.048 Y123.203 E.10268
G1 X96.43 Y125.171 E.10269
G1 X93.541 Y126.712 E.10266
G1 X90.448 Y127.789 E.10269
G1 X87.227 Y128.377 E.10266
G1 X83.953 Y128.462 E.10269
G1 X80.705 Y128.041 E.10269
G1 X77.561 Y127.125 E.10268
G1 X74.596 Y125.735 E.10267
G1 X71.881 Y123.905 E.10266
G1 X69.479 Y121.678 E.1027
G1 X67.45 Y119.108 E.10267
G1 X65.833 Y116.242 E.10318
G1 X62.019 Y108.064 E.28293
G1 X70.823 Y83.877 E.80704
G1 X71.481 Y83.57 E.02277
G1 X72.398 Y83.178 E.03127
G1 X72.914 Y83.149 E.0162
G1 X73.16 Y83.231 E.00813
G1 X73.33 Y83.386 E.00721
G1 X76.648 Y90.502 E.24618
G1 X74.161 Y91.959 E.09037
G1 X71.691 Y94.053 E.10153
G1 X69.578 Y96.595 E.10364
G1 X67.957 Y99.438 E.10261
G1 X66.86 Y102.488 E.10163
G1 X66.301 Y105.713 E.10263
G1 X66.31 Y108.986 E.10262
G1 X66.886 Y112.208 E.10262
