; generated by PrusaSlicer 2.6.1+win64 on 2023-09-16 at 14:15:16 UTC


;
;
; 

; external perimeters extrusion width = 0.45mm
; perimeters extrusion width = 0.45mm
; infill extrusion width = 0.45mm
; solid infill extrusion width = 0.45mm
; top infill extrusion width = 0.40mm
; first layer extrusion width = 0.42mm

M73 P0 R32
M73 Q0 S33
M201 X1000 Y1000 Z200 E5000 ; sets maximum accelerations, mm/sec^2
M203 X200 Y200 Z12 E120 ; sets maximum feedrates, mm / sec
M204 S1250 T1250 ; sets acceleration (S) and retract acceleration (R), mm/sec^2
M205 X8.00 Y8.00 Z0.40 E4.50 ; sets the jerk limits, mm/sec
M205 S0 T0 ; sets the minimum extruding and travel feed rate, mm/sec
;TYPE:Custom
M862.3 P "MK3S" ; printer model check
M862.1 P0.4 ; nozzle diameter check
M115 U3.12.2 ; tell printer latest fw version
G90 ; use absolute coordinates
M83 ; extruder relative mode
M104 S240 ; set extruder temp
M140 S85 ; set bed temp
M190 S85 ; wait for bed temp
M109 S240 ; wait for extruder temp
G28 W ; home all without mesh bed level
G80 ; mesh bed leveling

G1 Z0.2 F720
G1 Y-3 F1000 ; go outside print area
G92 E0
G1 X60 E9 F1000 ; intro line
G1 X100 E12.5 F1000 ; intro line

G92 E0
M221 S95

; Don't change E values below. Excessive value can damage the printer.
M907 E430 ; set extruder motor current
G21 ; set units to millimeters
G90 ; use absolute coordinates
M83 ; use relative distances for extrusion
M900 K0.08 ; Filament gcode LA 1.5
M900 K45 ; Filament gcode LA 1.0
M107
;LAYER_CHANGE
;Z:0.2
;HEIGHT:0.2
;BEFORE_LAYER_CHANGE
G92 E0.0
;0.2


G1 E-1 F2100
G1 Z.2 F720
;AFTER_LAYER_CHANGE
;0.2
G1 Z.4
G1 X106.269 Y87.017 F10800
G1 Z.2 F720
G1 E1 F2100
M204 S800
;TYPE:Skirt/Brim
;WIDTH:0.42
M73 Q0 S32
G1 F1200
G1 X108.798 Y84.309 E.11618
G1 X111.714 Y82.024 E.11616
G1 X114.615 Y80.371 E.10469
G1 X118.068 Y79.029 E.11616
G1 X121.687 Y78.235 E.11617
G1 X125.752 Y78.017 E.12764
G1 X129.073 Y78.354 E.10466
G1 X132.632 Y79.255 E.11511
G1 X136.072 Y80.716 E.11718
G1 X139.51 Y82.897 E.12766
G1 X142.02 Y85.098 E.10467
G1 X144.418 Y87.922 E.11616
G1 X146.516 Y91.41 E.12762
G1 X147.775 Y94.502 E.10468
G1 X148.655 Y98.101 E.11617
G1 X148.976 Y101.976 E.12191
G1 X148.976 Y108.389 E.20108
G1 X148.451 Y109.88 E.04956
G1 X131.351 Y131.117 E.8549
G1 X130.226 Y131.889 E.04278
G1 X129.5 Y132.003 E.02304
G1 X118.47 Y132.003 E.34584
G1 X117.163 Y131.612 E.04277
G1 X116.522 Y130.989 E.02803
G1 X101.454 Y109.469 E.8237
G1 X101.024 Y108.106 E.04481
G1 X101.024 Y101.949 E.19305
G1 X101.189 Y99.184 E.08685
G1 X101.637 Y96.868 E.07396
G1 X104.639 Y89.494 E.24963
G1 X106.236 Y87.067 E.09109
M204 S1000
; printing object Motor_Bracket_37,3mm_rev0-3 id:0 copy 0
;WIPE_START
G1 F8640
G1 X108.798 Y84.309 E-.8692
G1 X109.244 Y83.96 E-.1308
;WIPE_END
G1 Z.4 F720
G1 X106.373 Y108.848 F10800
G1 Z.2 F720
G1 E1 F2100
M204 S800
;TYPE:Perimeter
;WIDTH:0.591887
G1 F1200
G1 X105.405 Y107.474 E.07672
G1 X105.405 Y107.387 E.00397
;WIDTH:0.610968
G1 X105.415 Y105.523 E.08804
;WIDTH:0.622938
G1 X105.421 Y105.37 E.00738
G1 X105.459 Y105.517 E.00732
;WIDTH:0.610968
G1 X105.945 Y107.317 E.08806
;WIDTH:0.591887
G1 X106.272 Y108.555 E.05845
G1 X106.354 Y108.792 E.01145
M204 S1000
;WIPE_START
G1 F8640
G1 X105.405 Y107.474 E-.37501
G1 X105.405 Y107.387 E-.02009
G1 X105.415 Y105.523 E-.43041
G1 X105.421 Y105.37 E-.03536
G1 X105.459 Y105.517 E-.03506
G1 X105.576 Y105.952 E-.10407
;WIPE_END
G1 Z.4 F720
G1 X122.981 Y121.574 F10800
G1 Z.2 F720
G1 E1 F2100
M204 S800
;WIDTH:0.419999
G1 F1200
G1 X122.981 Y127.706 E.19226
G1 X119.468 Y127.707 E.11015
G1 X113.991 Y119.886 E.29937
;WIDTH:0.452929
G1 X112.201 Y117.3 E.10722
;WIDTH:0.489576
G1 X112.158 Y117.206 E.00384
;WIDTH:0.526222
G1 X112.114 Y117.113 E.00413
;WIDTH:0.562868
G1 X112.071 Y117.019 E.00447
G1 X112.158 Y117.069 E.00434
;WIDTH:0.526222
G1 X112.246 Y117.119 E.00407
;WIDTH:0.489576
G1 X112.333 Y117.168 E.00371
;WIDTH:0.452929
G1 X114.911 Y118.97 E.10723
;WIDTH:0.419999
G1 X115.166 Y119.119 E.00926
G1 X118.009 Y120.462 E.09859
G1 X118.286 Y120.564 E.00926
G1 X120.946 Y121.292 E.08647
G1 X121.61 Y121.446 E.02137
G1 X122.921 Y121.568 E.04128
M204 S1000
;WIPE_START
G1 F8640
G1 X122.963 Y125.899 E-1
;WIPE_END
G1 Z.4 F720
G1 X127.018 Y121.574 F10800
G1 Z.2 F720
G1 E1 F2100
M204 S800
G1 F1200
G1 X128.389 Y121.446 E.04317
G1 X128.679 Y121.394 E.00924
G1 X131.712 Y120.564 E.09859
G1 X131.989 Y120.462 E.00926
G1 X134.833 Y119.119 E.09861
G1 X135.088 Y118.97 E.00926
G1 X136.315 Y118.103 E.04711
G1 X128.582 Y127.707 E.38661
G1 X127.018 Y127.706 E.04904
M73 P1 R32
M73 Q1 S32
G1 X127.018 Y121.634 E.19038
M204 S1000
G1 X126.64 Y121.23 F10800
M204 S800
G1 F1200
G1 X128.354 Y121.071 E.05397
G1 X128.58 Y121.03 E.0072
G1 X131.613 Y120.2 E.09859
G1 X131.828 Y120.121 E.00718
G1 X134.672 Y118.778 E.09861
G1 X134.87 Y118.662 E.0072
;WIDTH:0.464959
G1 X136.167 Y117.773 E.05518
;WIDTH:0.509919
G1 X137.464 Y116.884 E.06106
;WIDTH:0.549212
G1 X137.523 Y116.859 E.0027
;WIDTH:0.588504
G1 X137.583 Y116.835 E.00293
;WIDTH:0.627796
G1 X137.642 Y116.81 E.00312
;WIDTH:0.667088
G1 X137.701 Y116.786 E.00331
G1 X137.677 Y116.847 E.0034
;WIDTH:0.627796
G1 X137.652 Y116.909 E.00325
;WIDTH:0.588504
G1 X137.628 Y116.971 E.00302
;WIDTH:0.549212
G1 X137.603 Y117.032 E.00278
;WIDTH:0.509919
G1 X136.635 Y118.271 E.06105
;WIDTH:0.464959
G1 X135.666 Y119.51 E.0552
;WIDTH:0.419999
G1 X128.762 Y128.084 E.34515
G1 X126.641 Y128.083 E.0665
G1 X126.64 Y121.29 E.21299
M204 S1000
;WIPE_START
G1 F8640
G1 X128.354 Y121.071 E-.39898
G1 X128.58 Y121.03 E-.05304
G1 X130.869 Y120.404 E-.54798
;WIPE_END
G1 Z.4 F720
G1 X143.201 Y109.55 F10800
G1 Z.2 F720
G1 E1 F2100
M204 S800
G1 F1200
G1 X143.643 Y108.533 E.03477
G1 X143.922 Y107.478 E.03422
;WIDTH:0.461861
G1 X144.117 Y106.822 E.02384
;WIDTH:0.503723
G1 X144.313 Y106.165 E.02627
;WIDTH:0.545584
G1 X144.508 Y105.509 E.0286
;WIDTH:0.58501
G1 X144.543 Y105.439 E.00353
;WIDTH:0.624436
G1 X144.579 Y105.37 E.00376
G1 X144.598 Y105.446 E.00379
;WIDTH:0.58501
G1 X144.618 Y105.523 E.00359
;WIDTH:0.545584
G1 X144.639 Y106.208 E.02864
;WIDTH:0.503723
G1 X144.66 Y106.892 E.02622
;WIDTH:0.461861
G1 X144.681 Y107.577 E.02387
;WIDTH:0.419999
G1 X144.681 Y107.713 E.00426
G1 X143.239 Y109.504 E.07209
M204 S1000
;WIPE_START
G1 F8640
G1 X143.643 Y108.533 E-.24284
G1 X143.922 Y107.478 E-.25198
G1 X144.117 Y106.822 E-.15802
G1 X144.313 Y106.165 E-.15831
G1 X144.508 Y105.509 E-.15802
G1 X144.543 Y105.439 E-.01807
G1 X144.569 Y105.39 E-.01276
;WIPE_END
G1 Z.4 F720
G1 X123.358 Y121.23 F10800
G1 Z.2 F720
G1 E1 F2100
M204 S800
G1 F1200
G1 X123.358 Y128.083 E.21487
G1 X119.272 Y128.085 E.12811
G1 X111.167 Y116.51 E.44305
;WIDTH:0.468715
G1 X111.111 Y116.388 E.00475
;WIDTH:0.517431
G1 X111.055 Y116.265 E.00533
;WIDTH:0.566146
G1 X110.999 Y116.142 E.00588
G1 X110.722 Y115.781 E.0198
;WIDTH:0.52736
G1 X110.446 Y115.42 E.0183
;WIDTH:0.488574
G1 X110.169 Y115.059 E.01686
;WIDTH:0.449788
G1 X109.893 Y114.698 E.01537
;WIDTH:0.411002
G1 X109.743 Y114.493 E.00777
;WIDTH:0.406279
G1 X107.938 Y111.91 E.09521
;WIDTH:0.418188
G1 X107.793 Y111.693 E.00814
;WIDTH:0.419999
G1 X104.942 Y107.62 E.15588
G1 X104.942 Y102.474 E.16135
;WIDTH:0.469821
G1 X104.967 Y102.34 E.00484
;WIDTH:0.519643
G1 X104.992 Y102.207 E.00536
;WIDTH:0.569465
G1 X105.017 Y102.074 E.00593
G1 X105.027 Y101.739 E.01467
;WIDTH:0.595354
G1 X105.153 Y99.775 E.0904
G1 X105.326 Y98.604 E.05437
;WIDTH:0.556814
G1 X105.407 Y98.181 E.0184
G1 X105.673 Y97.465 E.03264
;WIDTH:0.509978
G1 X105.939 Y96.748 E.0297
;WIDTH:0.463142
G1 X106.206 Y96.032 E.0267
;WIDTH:0.416306
G1 X106.472 Y95.316 E.02371
;WIDTH:0.36947
G1 X106.565 Y95.08 E.00689
;WIDTH:0.405664
G1 X107.177 Y93.632 E.04742
;WIDTH:0.446346
G1 X107.789 Y92.183 E.05276
;WIDTH:0.465063
G1 X107.899 Y91.938 E.00943
;WIDTH:0.51299
G1 X108.092 Y91.533 E.01754
;WIDTH:0.560917
G1 X108.286 Y91.127 E.01938
;WIDTH:0.571726
G1 X108.798 Y90.37 E.04018
G1 X108.838 Y90.277 E.00445
;WIDTH:0.533795
G1 X108.878 Y90.183 E.00417
;WIDTH:0.495863
G1 X108.918 Y90.089 E.00385
;WIDTH:0.457931
G1 X108.957 Y89.996 E.00348
;WIDTH:0.419999
G1 X109.234 Y89.581 E.01564
G1 X111.332 Y87.3 E.09717
G1 X113.757 Y85.369 E.0972
G1 X116.45 Y83.835 E.09717
G1 X119.348 Y82.735 E.09719
G1 X122.38 Y82.094 E.09717
G1 X125.475 Y81.928 E.09718
G1 X128.559 Y82.24 E.09719
G1 X131.557 Y83.024 E.09716
G1 X134.399 Y84.261 E.09718
G1 X137.017 Y85.921 E.0972
G1 X139.329 Y87.949 E.09643
G1 X141.335 Y90.344 E.09795
G1 X142.932 Y92.999 E.09714
G1 X144.101 Y95.87 E.09719
G1 X144.814 Y98.886 E.09717
G1 X145.058 Y102.049 E.09947
G1 X145.058 Y107.846 E.18176
G1 X144.006 Y109.152 E.05258
;WIDTH:0.459631
G1 X143.333 Y109.956 E.03633
;WIDTH:0.499263
G1 X142.661 Y110.76 E.03976
;WIDTH:0.538895
G1 X141.988 Y111.564 E.04324
;WIDTH:0.579032
G1 X141.909 Y111.63 E.00459
G1 X141.936 Y111.532 E.00453
;WIDTH:0.538895
G1 X142.358 Y110.572 E.04325
;WIDTH:0.499263
G1 X142.779 Y109.612 E.03978
;WIDTH:0.459631
G1 X143.201 Y108.652 E.03634
;WIDTH:0.419999
G1 X143.279 Y108.436 E.0072
G1 X144.083 Y105.396 E.09859
G1 X144.122 Y105.17 E.00719
G1 X144.387 Y102.037 E.09858
G1 X144.386 Y101.807 E.00721
G1 X144.13 Y98.97 E.08931
G1 X144.063 Y98.449 E.01647
G1 X143.42 Y96.07 E.07727
G1 X143.163 Y95.198 E.0285
G1 X141.828 Y92.35 E.09862
G1 X141.713 Y92.152 E.00718
G1 X139.905 Y89.579 E.0986
G1 X139.757 Y89.403 E.00721
G1 X137.531 Y87.183 E.09857
G1 X137.355 Y87.035 E.00721
G1 X134.777 Y85.235 E.09858
G1 X134.578 Y85.12 E.00721
G1 X131.727 Y83.793 E.0986
G1 X131.511 Y83.715 E.0072
G1 X128.496 Y82.909 E.09785
G1 X128.272 Y82.869 E.00713
G1 X125.436 Y82.618 E.08927
G1 X124.884 Y82.589 E.01733
G1 X122.458 Y82.801 E.07636
G1 X121.526 Y82.902 E.02939
G1 X118.488 Y83.715 E.09861
G1 X118.272 Y83.793 E.0072
G1 X115.421 Y85.12 E.0986
G1 X115.222 Y85.235 E.00721
G1 X112.644 Y87.035 E.09858
G1 X112.468 Y87.183 E.00721
G1 X110.241 Y89.403 E.09859
G1 X110.093 Y89.579 E.00721
G1 X109.526 Y90.386 E.03092
;WIDTH:0.457931
G1 X109.453 Y90.457 E.00351
;WIDTH:0.495863
G1 X109.38 Y90.527 E.00381
;WIDTH:0.533795
G1 X109.307 Y90.598 E.00416
;WIDTH:0.571726
G1 X109.234 Y90.669 E.00448
G1 X108.713 Y91.42 E.04019
;WIDTH:0.560917
G1 X108.528 Y91.728 E.01548
;WIDTH:0.522727
G1 X108.343 Y92.037 E.01437
;WIDTH:0.484537
G1 X108.158 Y92.345 E.01319
;WIDTH:0.446346
G1 X107.509 Y93.777 E.05274
;WIDTH:0.405664
G1 X106.86 Y95.209 E.04742
;WIDTH:0.36947
G1 X106.781 Y95.42 E.00612
;WIDTH:0.416306
G1 X106.559 Y96.151 E.02372
;WIDTH:0.463142
G1 X106.337 Y96.882 E.02669
;WIDTH:0.509978
G1 X106.115 Y97.614 E.02971
;WIDTH:0.556814
G1 X105.893 Y98.345 E.03264
G1 X105.83 Y98.669 E.0141
;WIDTH:0.595354
G1 X105.704 Y99.815 E.05296
G1 X105.544 Y101.777 E.09042
;WIDTH:0.566655
G1 X105.539 Y101.985 E.00906
G1 X105.576 Y102.138 E.00686
;WIDTH:0.51777
G1 X105.613 Y102.291 E.00622
;WIDTH:0.468885
G1 X105.65 Y102.444 E.00558
;WIDTH:0.419999
G1 X105.877 Y105.168 E.08571
G1 X105.916 Y105.396 E.00725
G1 X106.72 Y108.436 E.09859
G1 X106.798 Y108.652 E.0072
G1 X108.117 Y111.507 E.09861
;WIDTH:0.418188
G1 X108.236 Y111.703 E.00715
;WIDTH:0.406279
G1 X110.032 Y114.284 E.095
;WIDTH:0.411002
G1 X110.174 Y114.463 E.00699
;WIDTH:0.449788
G1 X110.48 Y114.799 E.01537
;WIDTH:0.488574
G1 X110.786 Y115.135 E.01684
;WIDTH:0.52736
G1 X111.093 Y115.471 E.01833
;WIDTH:0.566146
G1 X111.399 Y115.808 E.0198
G1 X111.51 Y115.885 E.00588
;WIDTH:0.517431
G1 X111.62 Y115.962 E.0053
;WIDTH:0.468715
G1 X111.731 Y116.039 E.00478
;WIDTH:0.419999
G1 X112.561 Y116.847 E.03632
G1 X115.128 Y118.662 E.09857
G1 X115.327 Y118.778 E.00722
G1 X118.17 Y120.121 E.09859
G1 X118.386 Y120.2 E.00721
G1 X121.045 Y120.928 E.08644
G1 X121.645 Y121.071 E.01934
G1 X123.298 Y121.225 E.05205
M204 S1000
;WIPE_START
G1 F8640
G1 X123.336 Y125.556 E-1
;WIPE_END
G1 Z.4 F720
G1 X126.263 Y120.887 F10800
G1 Z.2 F720
G1 E1 F2100
M204 S800
G1 F1200
G1 X128.319 Y120.696 E.06474
G1 X128.48 Y120.666 E.00513
G1 X131.513 Y119.837 E.09859
G1 X131.667 Y119.78 E.00515
G1 X134.511 Y118.437 E.09861
G1 X134.653 Y118.355 E.00514
G1 X137.22 Y116.539 E.09859
G1 X137.346 Y116.433 E.00516
G1 X139.56 Y114.2 E.09859
G1 X139.665 Y114.074 E.00514
G1 X141.458 Y111.491 E.09859
G1 X141.54 Y111.349 E.00514
G1 X142.858 Y108.494 E.09859
G1 X142.914 Y108.34 E.00514
G1 X143.718 Y105.3 E.09859
G1 X143.746 Y105.138 E.00515
G1 X144.011 Y102.005 E.09858
G1 X144.01 Y101.841 E.00514
G1 X143.699 Y98.547 E.10374
G1 X142.822 Y95.358 E.1037
G1 X141.487 Y92.511 E.09859
G1 X141.405 Y92.369 E.00514
G1 X139.597 Y89.796 E.0986
G1 X139.491 Y89.67 E.00516
G1 X137.264 Y87.45 E.09859
G1 X137.139 Y87.345 E.00512
G1 X134.561 Y85.544 E.0986
G1 X134.419 Y85.462 E.00514
G1 X131.567 Y84.135 E.09863
G1 X131.413 Y84.079 E.00514
G1 X128.399 Y83.273 E.09782
G1 X128.238 Y83.245 E.00512
G1 X125.403 Y82.993 E.08924
G1 X124.917 Y82.965 E.01526
G1 X121.623 Y83.267 E.10371
G1 X118.585 Y84.079 E.0986
G1 X118.431 Y84.135 E.00514
G1 X115.58 Y85.462 E.0986
G1 X115.438 Y85.544 E.00514
G1 X112.86 Y87.345 E.0986
G1 X112.734 Y87.45 E.00514
G1 X110.508 Y89.67 E.09857
G1 X110.402 Y89.796 E.00516
G1 X108.512 Y92.511 E.10372
G1 X107.177 Y95.358 E.09859
G1 X107.12 Y95.512 E.00515
G1 X106.323 Y98.461 E.09578
G1 X106.27 Y98.709 E.00795
G1 X105.99 Y101.817 E.09784
G1 X105.99 Y101.98 E.00511
M73 Q2 S32
G1 X106.252 Y105.137 E.09933
G1 X106.28 Y105.3 E.00519
G1 X107.084 Y108.34 E.09859
G1 X107.14 Y108.494 E.00514
M73 P2 R32
G1 X108.459 Y111.349 E.09861
G1 X108.54 Y111.491 E.00513
G1 X110.334 Y114.074 E.09861
G1 X110.439 Y114.2 E.00514
G1 X112.778 Y116.539 E.10371
G1 X115.346 Y118.355 E.09862
G1 X115.488 Y118.437 E.00514
G1 X118.331 Y119.78 E.09859
G1 X118.485 Y119.837 E.00515
G1 X121.68 Y120.696 E.10373
G1 X123.735 Y120.887 E.06471
G1 X123.735 Y128.386 E.23513
G1 X123.425 Y128.46 E.00999
G1 X119.076 Y128.462 E.13636
G1 X104.565 Y107.738 E.79324
G1 X104.565 Y101.981 E.18051
G1 X104.691 Y99.708 E.07138
G1 X104.965 Y98.085 E.05161
G1 X107.874 Y90.938 E.24194
G1 X108.937 Y89.347 E.05999
G1 X111.075 Y87.023 E.09901
G1 X113.545 Y85.056 E.099
G1 X116.289 Y83.493 E.09901
G1 X119.241 Y82.372 E.09901
G1 X122.331 Y81.719 E.09902
G1 X125.484 Y81.549 E.099
G1 X128.626 Y81.868 E.09902
G1 X131.681 Y82.667 E.09901
G1 X134.576 Y83.927 E.099
G1 X137.243 Y85.619 E.09903
G1 X139.599 Y87.685 E.09825
G1 X141.643 Y90.124 E.09978
G1 X143.27 Y92.83 E.099
G1 X144.461 Y95.754 E.09899
G1 X145.188 Y98.828 E.09904
G1 X145.435 Y102.049 E.10129
G1 X145.435 Y107.979 E.18593
G1 X128.943 Y128.462 E.82453
G1 X126.641 Y128.46 E.07218
G1 X126.263 Y128.39 E.01205
G1 X126.263 Y120.947 E.23337
M204 S1000
G1 X125.886 Y120.543 F10800
M204 S800
G1 F1200
G1 X128.381 Y120.303 E.07859
G1 X131.506 Y119.439 E.10166
G1 X134.435 Y118.047 E.10168
G1 X137.078 Y116.168 E.10168
G1 X139.292 Y113.935 E.09859
G1 X141.149 Y111.276 E.10169
G1 X142.516 Y108.336 E.10166
G1 X143.353 Y105.203 E.10168
G1 X143.635 Y101.875 E.10472
G1 X143.335 Y98.646 E.10168
G1 X142.48 Y95.518 E.10167
G1 X141.096 Y92.585 E.10169
G1 X139.288 Y90.013 E.09857
G1 X136.998 Y87.717 E.10168
G1 X134.345 Y85.853 E.10166
G1 X131.316 Y84.443 E.10476
G1 X128.301 Y83.637 E.09785
G1 X125.37 Y83.369 E.09228
G1 X124.95 Y83.34 E.0132
G1 X121.72 Y83.631 E.10168
G1 X118.59 Y84.477 E.10166
G1 X115.654 Y85.853 E.10166
G1 X113.076 Y87.654 E.0986
G1 X110.774 Y89.937 E.10165
G1 X108.853 Y92.671 E.10477
G1 X107.518 Y95.518 E.09859
G1 X106.687 Y98.559 E.09884
G1 X106.646 Y98.743 E.00591
G1 X106.366 Y101.851 E.09784
G1 X106.628 Y105.106 E.10239
G1 X107.449 Y108.244 E.1017
G1 X108.85 Y111.276 E.10472
G1 X110.707 Y113.935 E.10169
G1 X112.996 Y116.231 E.10165
G1 X115.564 Y118.047 E.09862
G1 X118.584 Y119.473 E.10472
G1 X121.715 Y120.32 E.1017
G1 X124.112 Y120.543 E.07548
G1 X124.112 Y128.569 E.25165
G1 X123.888 Y128.733 E.0087
G1 X123.446 Y128.837 E.01424
G1 X118.879 Y128.839 E.14319
G1 X104.188 Y107.857 E.8031
G1 X104.188 Y101.971 E.18455
G1 X104.316 Y99.666 E.07238
G1 X104.6 Y97.981 E.05358
G1 X107.539 Y90.761 E.24441
G1 X108.64 Y89.114 E.06212
G1 X110.817 Y86.746 E.10086
G1 X113.333 Y84.743 E.10083
G1 X116.128 Y83.151 E.10085
G1 X119.134 Y82.009 E.10082
G1 X122.281 Y81.344 E.10085
G1 X125.493 Y81.171 E.10086
G1 X128.693 Y81.496 E.10085
