; generated by PrusaSlicer 2.6.1+win64 on 2023-09-20 at 18:23:38 UTC


;
;
; 

; external perimeters extrusion width = 0.45mm
; perimeters extrusion width = 0.45mm
; infill extrusion width = 0.45mm
; solid infill extrusion width = 0.45mm
; top infill extrusion width = 0.40mm
; first layer extrusion width = 0.42mm

M73 P0 R107
M73 Q0 S108
M201 X1000 Y1000 Z200 E5000 ; sets maximum accelerations, mm/sec^2
M203 X200 Y200 Z12 E120 ; sets maximum feedrates, mm / sec
M204 S1250 T1250 ; sets acceleration (S) and retract acceleration (R), mm/sec^2
M205 X8.00 Y8.00 Z0.40 E4.50 ; sets the jerk limits, mm/sec
M205 S0 T0 ; sets the minimum extruding and travel feed rate, mm/sec
;TYPE:Custom
M862.3 P "MK3S" ; printer model check
M862.1 P0.4 ; nozzle diameter check
M115 U3.12.2 ; tell printer latest fw version
G90 ; use absolute coordinates
M83 ; extruder relative mode
M104 S240 ; set extruder temp
M140 S85 ; set bed temp
M190 S85 ; wait for bed temp
M109 S240 ; wait for extruder temp
G28 W ; home all without mesh bed level
G80 ; mesh bed leveling

G1 Z0.2 F720
G1 Y-3 F1000 ; go outside print area
G92 E0
G1 X60 E9 F1000 ; intro line
G1 X100 E12.5 F1000 ; intro line

G92 E0
M221 S95

; Don't change E values below. Excessive value can damage the printer.
M907 E430 ; set extruder motor current
G21 ; set units to millimeters
G90 ; use absolute coordinates
M83 ; use relative distances for extrusion
M900 K0.08 ; Filament gcode LA 1.5
M900 K45 ; Filament gcode LA 1.0
M107
;LAYER_CHANGE
;Z:0.2
;HEIGHT:0.2
;BEFORE_LAYER_CHANGE
G92 E0.0
;0.2


G1 E-1 F2100
G1 Z.2 F720
;AFTER_LAYER_CHANGE
;0.2
G1 Z.4
G1 X91.827 Y75.02 F10800
G1 Z.2 F720
G1 E1 F2100
M204 S800
;TYPE:Skirt/Brim
;WIDTH:0.42
G1 F1200
G1 X92.947 Y74.241 E.04278
G1 X93.687 Y74.123 E.0235
G1 X138.687 Y74.123 E1.41094
G1 X139.994 Y74.515 E.04278
G1 X140.833 Y75.478 E.04005
G1 X162.551 Y121.196 E1.58698
G1 X162.85 Y122.313 E.03626
G1 X162.977 Y123.65 E.04211
G1 X162.977 Y129.65 E.18813
G1 X162.585 Y130.957 E.04278
G1 X161.54 Y131.834 E.04277
G1 X160.6 Y132.027 E.03009
G1 X89.4 Y132.027 E2.23243
G1 X88.093 Y131.636 E.04277
G1 X87.217 Y130.59 E.04278
G1 X87.023 Y129.65 E.03009
G1 X87.03 Y123.964 E.17828
G1 X91.319 Y76.287 E1.50092
G1 X91.804 Y75.076 E.0409
M204 S1000
; printing object Rear_Left_Wheel_Mount_Tool_rev0-3 id:0 copy 0
;WIPE_START
G1 F8640
G1 X92.947 Y74.241 E-.32685
G1 X93.687 Y74.123 E-.17303
G1 X95.853 Y74.123 E-.50012
;WIPE_END
G1 Z.4 F720
G1 X147.573 Y126.707 F10800
G1 Z.2 F720
G1 E1 F2100
M204 S800
;TYPE:Perimeter
;WIDTH:0.419999
G1 F1200
G1 X147.583 Y126.639 E.00216
G1 X147.45 Y126.237 E.01328
G1 X147.322 Y126.033 E.00755
G1 X147.146 Y125.911 E.00671
G1 X146.918 Y125.863 E.00731
G1 X100.082 Y125.863 E1.46851
G1 X100.003 Y125.869 E.00248
G1 X99.781 Y125.95 E.00741
G1 X99.588 Y126.152 E.00876
G1 X99.417 Y126.639 E.01618
G1 X99.467 Y126.969 E.01046
G1 X99.616 Y127.157 E.00752
G1 X101.251 Y128.51 E.06654
G1 X101.775 Y128.903 E.02054
G1 X101.183 Y128.865 E.0186
G1 X90.187 Y128.863 E.34477
G1 X90.187 Y124.181 E.1468
G1 X90.273 Y123.622 E.01773
M73 Q0 S107
G1 X90.516 Y123.145 E.01678
G1 X90.895 Y122.766 E.01681
G1 X91.371 Y122.523 E.01676
G1 X91.931 Y122.437 E.01776
G1 X94.006 Y122.429 E.06506
G1 X94.248 Y122.324 E.00827
G1 X94.425 Y122.102 E.0089
G1 X94.474 Y121.872 E.00737
G1 X94.474 Y77.287 E1.39793
G1 X137.9 Y77.287 E1.36159
G1 X137.9 Y118.872 E1.30387
G1 X137.917 Y119.011 E.00439
G1 X138.046 Y119.251 E.00854
G1 X138.226 Y119.384 E.00702
G1 X138.465 Y119.437 E.00768
G1 X155.569 Y119.437 E.53628
G1 X156.259 Y119.492 E.0217
G1 X156.901 Y119.646 E.0207
G1 X157.512 Y119.899 E.02073
G1 X158.075 Y120.244 E.0207
G1 X158.577 Y120.673 E.0207
G1 X159.006 Y121.175 E.0207
G1 X159.352 Y121.739 E.02075
G1 X159.604 Y122.349 E.02069
G1 X159.759 Y122.992 E.02074
G1 X159.813 Y123.855 E.02711
G1 X159.813 Y128.863 E.15702
G1 X145.877 Y128.865 E.43695
G1 X145.225 Y128.903 E.02048
G1 X145.749 Y128.51 E.02054
G1 X147.384 Y127.157 E.06654
G1 X147.533 Y126.969 E.00752
G1 X147.564 Y126.766 E.00644
M204 S1000
G1 X147.21 Y126.694 F10800
M204 S800
;TYPE:External perimeter
G1 F1200
G1 X147.053 Y126.297 E.01339
G1 X146.918 Y126.24 E.00459
G1 X100.082 Y126.24 E1.46851
G1 X99.921 Y126.33 E.00578
G1 X99.789 Y126.743 E.01359
G1 X99.856 Y126.867 E.00442
G1 X101.912 Y128.547 E.08325
G1 X102.349 Y128.797 E.01579
G1 X102.81 Y129.001 E.01581
G1 X103.457 Y129.435 E.02443
G1 X102.7 Y129.411 E.02375
G1 X102.206 Y129.311 E.0158
G1 X101.183 Y129.242 E.03215
G1 X89.81 Y129.24 E.35659
G1 X89.81 Y124.253 E.15636
M73 P0 R106
G1 X89.837 Y123.824 E.01348
G1 X89.976 Y123.353 E.0154
G1 X90.21 Y122.923 E.01535
G1 X90.548 Y122.567 E.01539
G1 X90.952 Y122.289 E.01538
G1 X91.414 Y122.125 E.01537
G1 X91.916 Y122.06 E.01587
G1 X93.908 Y122.06 E.06246
G1 X94.045 Y122.002 E.00466
G1 X94.097 Y121.872 E.00439
G1 X94.097 Y76.91 E1.40975
G1 X138.277 Y76.91 E1.38523
G1 X138.277 Y118.872 E1.31569
G1 X138.325 Y118.998 E.00423
G1 X138.465 Y119.06 E.0048
G1 X155.584 Y119.06 E.53675
G1 X156.318 Y119.118 E.02309
G1 X157.018 Y119.286 E.02257
G1 X157.683 Y119.562 E.02258
G1 X158.297 Y119.938 E.02257
G1 X158.845 Y120.405 E.02257
G1 X159.312 Y120.953 E.02257
G1 X159.689 Y121.567 E.02259
G1 X159.964 Y122.232 E.02256
G1 X160.132 Y122.932 E.02257
G1 X160.19 Y123.855 E.029
G1 X160.19 Y129.24 E.16884
G1 X145.877 Y129.242 E.44877
G1 X144.817 Y129.307 E.0333
G1 X144.323 Y129.409 E.01582
G1 X143.543 Y129.434 E.02447
G1 X144.209 Y128.993 E.02504
G1 X144.669 Y128.786 E.01582
G1 X145.111 Y128.531 E.016
G1 X147.144 Y126.867 E.08237
G1 X147.193 Y126.804 E.0025
G1 X147.201 Y126.753 E.00162
M204 S1000
G1 X147.528 Y126.451 F10800
;WIPE_START
G1 F8640
G1 X147.053 Y126.297 E-.1107
G1 X146.918 Y126.24 E-.03384
G1 X143.213 Y126.24 E-.85546
;WIPE_END
G1 Z.4 F720
G1 X119.578 Y102.231 F10800
G1 Z.2 F720
G1 E1 F2100
M204 S800
;TYPE:Perimeter
G1 F1200
G1 X119.347 Y101.676 E.01885
G1 X119.201 Y101.04 E.02046
G1 X119.163 Y100.54 E.01572
G1 X119.26 Y99.64 E.02838
G1 X119.441 Y99.057 E.01914
G1 X119.712 Y98.516 E.01897
G1 X120.094 Y97.985 E.02051
G1 X120.562 Y97.526 E.02055
G1 X121.1 Y97.153 E.02053
G1 X121.688 Y96.878 E.02035
G1 X122.325 Y96.703 E.02071
G1 X122.952 Y96.641 E.01975
G1 X123.625 Y96.686 E.02115
G1 X124.265 Y96.844 E.02067
G1 X124.865 Y97.106 E.02053
G1 X125.412 Y97.466 E.02053
G1 X125.891 Y97.913 E.02054
G1 X126.287 Y98.435 E.02054
G1 X126.578 Y98.994 E.01976
G1 X126.787 Y99.636 E.02117
G1 X126.88 Y100.288 E.02065
G1 X126.86 Y100.943 E.02055
G1 X126.73 Y101.585 E.02054
G1 X126.493 Y102.195 E.02052
G1 X126.157 Y102.757 E.02053
G1 X125.73 Y103.254 E.02054
G1 X125.245 Y103.656 E.01975
G1 X124.662 Y103.996 E.02116
G1 X124.044 Y104.224 E.02065
G1 X123.4 Y104.343 E.02053
G1 X122.745 Y104.351 E.02054
G1 X122.098 Y104.248 E.02054
G1 X121.478 Y104.038 E.02052
G1 X120.902 Y103.725 E.02055
G1 X120.388 Y103.32 E.02052
G1 X119.971 Y102.859 E.01949
G1 X119.602 Y102.286 E.02137
M204 S1000
G1 X119.929 Y102.098 F10800
M204 S800
;TYPE:External perimeter
G1 F1200
G1 X119.697 Y101.536 E.01906
G1 X119.57 Y100.961 E.01846
G1 X119.54 Y100.484 E.01499
G1 X119.614 Y99.786 E.02201
G1 X119.79 Y99.199 E.01921
G1 X120.048 Y98.686 E.018
G1 X120.398 Y98.209 E.01855
G1 X120.823 Y97.798 E.01854
G1 X121.311 Y97.465 E.01852
G1 X121.843 Y97.221 E.01835
G1 X122.42 Y97.068 E.01872
G1 X122.984 Y97.017 E.01776
G1 X123.596 Y97.062 E.01924
G1 X124.17 Y97.208 E.01857
G1 X124.71 Y97.449 E.01854
G1 X125.201 Y97.778 E.01853
G1 X125.63 Y98.185 E.01854
G1 X125.984 Y98.659 E.01855
G1 X126.241 Y99.164 E.01777
G1 X126.427 Y99.749 E.01925
G1 X126.506 Y100.336 E.01857
G1 X126.483 Y100.927 E.01854
G1 X126.361 Y101.505 E.01852
G1 X126.144 Y102.055 E.01854
G1 X125.836 Y102.559 E.01852
G1 X125.447 Y103.005 E.01856
G1 X125.008 Y103.363 E.01776
G1 X124.476 Y103.668 E.01923
G1 X123.918 Y103.868 E.01859
G1 X123.336 Y103.971 E.01853
G1 X122.745 Y103.974 E.01853
G1 X122.162 Y103.876 E.01854
G1 X121.603 Y103.682 E.01855
G1 X121.086 Y103.396 E.01853
G1 X120.624 Y103.027 E.01854
G1 X120.254 Y102.61 E.01748
G1 X119.961 Y102.148 E.01715
M204 S1000
G1 X119.529 Y102.078 F10800
;WIPE_START
G1 F8640
G1 X119.697 Y101.536 E-.1539
G1 X119.57 Y100.961 E-.13597
G1 X119.54 Y100.484 E-.11036
G1 X119.614 Y99.786 E-.16207
G1 X119.79 Y99.199 E-.1415
G1 X120.048 Y98.686 E-.13259
G1 X120.398 Y98.209 E-.13661
G1 X120.482 Y98.128 E-.027
;WIPE_END
G1 Z.4 F720
G1 X120.131 Y91.039 F10800
G1 Z.2 F720
G1 E1 F2100
M204 S800
;TYPE:Perimeter
G1 F1200
G1 X120.007 Y91.61 E.01832
G1 X119.77 Y92.203 E.02002
G1 X119.436 Y92.747 E.02002
G1 X119.019 Y93.223 E.01984
G1 X117.386 Y94.532 E.06562
G1 X116.454 Y95.577 E.0439
G1 X115.713 Y96.766 E.04393
G1 X115.184 Y98.063 E.04392
G1 X114.884 Y99.432 E.04394
G1 X114.821 Y100.831 E.04391
G1 X114.997 Y102.221 E.04393
G1 X115.406 Y103.561 E.04393
G1 X116.305 Y105.339 E.06247
G1 X116.501 Y105.946 E.02
G1 X116.592 Y106.578 E.02002
G1 X116.576 Y107.216 E.02001
G1 X116.453 Y107.843 E.02003
G1 X116.226 Y108.439 E.02
G1 X115.902 Y108.989 E.02001
G1 X115.491 Y109.477 E.02
G1 X115.003 Y109.889 E.02002
G1 X114.453 Y110.214 E.02003
G1 X113.857 Y110.441 E.02
G1 X113.231 Y110.565 E.02001
G1 X112.592 Y110.581 E.02004
G1 X111.961 Y110.491 E.01998
G1 X111.264 Y110.257 E.02305
G1 X109.489 Y109.3 E.06323
G1 X107.822 Y107.999 E.0663
G1 X106.403 Y106.431 E.06631
G1 X105.274 Y104.644 E.06628
G1 X104.468 Y102.689 E.0663
G1 X104.009 Y100.625 E.0663
G1 X103.911 Y98.513 E.06629
G1 X104.176 Y96.416 E.06627
G1 X104.834 Y94.305 E.06933
G1 X105.807 Y92.428 E.06629
G1 X107.022 Y90.818 E.06324
G1 X108.561 Y89.368 E.0663
G1 X110.411 Y88.157 E.06933
G1 X112.263 Y87.358 E.06324
G1 X114.318 Y86.857 E.06632
G1 X116.395 Y86.719 E.06527
G1 X117.058 Y86.777 E.02087
G1 X117.68 Y86.944 E.02019
G1 X118.259 Y87.212 E.02
G1 X118.786 Y87.573 E.02003
G1 X119.244 Y88.018 E.02002
G1 X119.62 Y88.533 E.01999
G1 X119.905 Y89.104 E.02001
G1 X120.09 Y89.715 E.02002
G1 X120.156 Y90.222 E.01603
G1 X120.142 Y90.98 E.02377
M204 S1000
G1 X119.766 Y90.95 F10800
M204 S800
;TYPE:External perimeter
G1 F1200
G1 X119.64 Y91.526 E.01849
G1 X119.422 Y92.058 E.01803
G1 X119.117 Y92.546 E.01804
G1 X118.739 Y92.971 E.01783
G1 X117.127 Y94.257 E.06466
G1 X116.151 Y95.35 E.04594
G1 X115.376 Y96.594 E.04595
G1 X114.823 Y97.951 E.04595
G1 X114.509 Y99.382 E.04594
G1 X114.443 Y100.846 E.04595
G1 X114.627 Y102.3 E.04595
G1 X115.055 Y103.702 E.04596
G1 X115.968 Y105.509 E.06348
G1 X116.14 Y106.058 E.01804
G1 X116.218 Y106.627 E.01801
G1 X116.199 Y107.202 E.01804
G1 X116.084 Y107.765 E.01802
G1 X115.875 Y108.301 E.01804
G1 X115.58 Y108.794 E.01801
G1 X115.206 Y109.231 E.01803
G1 X114.764 Y109.598 E.01801
G1 X114.266 Y109.886 E.01804
G1 X113.727 Y110.087 E.01804
G1 X113.162 Y110.194 E.01803
G1 X112.587 Y110.204 E.01803
G1 X112.019 Y110.118 E.01801
G1 X111.443 Y109.925 E.01905
G1 X109.668 Y108.968 E.06323
G1 X108.055 Y107.703 E.06427
G1 X106.684 Y106.18 E.06425
G1 X105.594 Y104.444 E.06427
G1 X104.817 Y102.547 E.06427
G1 X104.377 Y100.545 E.06427
G1 X104.287 Y98.497 E.06428
G1 X104.55 Y96.465 E.06424
G1 X105.169 Y94.477 E.06528
G1 X106.108 Y92.655 E.06427
G1 X107.323 Y91.045 E.06324
G1 X108.818 Y89.643 E.06426
G1 X110.532 Y88.518 E.06428
G1 X112.444 Y87.694 E.06528
G1 X114.438 Y87.219 E.06427
G1 X116.418 Y87.095 E.0622
G1 X117.021 Y87.152 E.01899
G1 X117.577 Y87.307 E.0181
G1 X118.097 Y87.552 E.01802
G1 X118.568 Y87.881 E.01801
G1 X118.978 Y88.285 E.01805
G1 X119.313 Y88.752 E.01802
G1 X119.566 Y89.268 E.01802
G1 X119.728 Y89.82 E.01804
G1 X119.795 Y90.391 E.01803
G1 X119.769 Y90.89 E.01567
M204 S1000
G1 X120.083 Y91.194 F10800
;WIPE_START
G1 F8640
G1 X119.64 Y91.526 E-.14984
G1 X119.422 Y92.058 E-.13275
G1 X119.117 Y92.546 E-.13288
G1 X118.739 Y92.971 E-.13133
G1 X117.205 Y94.195 E-.4532
;WIPE_END
G1 Z.4 F720
G1 X159.396 Y122.29 F10800
G1 Z.2 F720
G1 E1 F2100
M204 S800
;TYPE:Solid infill
;WIDTH:0.420115
G1 F1200
G1 X157.274 Y120.168 E.09412
G1 X156.796 Y119.97 E.01623
G1 X156.462 Y119.89 E.01077
G1 X159.361 Y122.788 E.12856
G1 X159.422 Y123.045 E.00828
G1 X159.451 Y123.412 E.01155
G1 X155.838 Y119.799 E.16026
G1 X155.283 Y119.777 E.01742
G1 X159.474 Y123.967 E.18587
G1 X159.474 Y124.501 E.01675
G1 X154.749 Y119.777 E.20956
G1 X154.216 Y119.777 E.01672
G1 X159.474 Y125.034 E.2332
G1 X159.474 Y125.568 E.01675
G1 X153.682 Y119.777 E.25688
G1 X153.149 Y119.777 E.01672
G1 X159.474 Y126.101 E.28052
G1 X159.474 Y126.635 E.01675
G1 X152.616 Y119.777 E.30419
G1 X152.082 Y119.777 E.01675
G1 X159.474 Y127.168 E.32785
G1 X159.474 Y127.702 E.01675
G1 X151.549 Y119.777 E.35152
G1 X151.015 Y119.777 E.01675
G1 X159.474 Y128.235 E.37518
G1 X159.474 Y128.524 E.00906
G1 X159.229 Y128.524 E.00768
G1 X150.482 Y119.777 E.38798
G1 X149.948 Y119.777 E.01675
G1 X158.695 Y128.524 E.38798
G1 X158.162 Y128.524 E.01672
G1 X149.415 Y119.777 E.38798
G1 X148.882 Y119.777 E.01672
G1 X157.628 Y128.523 E.38793
G1 X157.095 Y128.523 E.01672
G1 X148.348 Y119.777 E.38795
G1 X147.815 Y119.777 E.01672
M73 P1 R106
M73 Q1 S107
G1 X156.561 Y128.523 E.38793
G1 X156.028 Y128.523 E.01672
G1 X147.281 Y119.777 E.38795
G1 X146.748 Y119.777 E.01672
G1 X155.494 Y128.523 E.38793
G1 X154.96 Y128.523 E.01675
G1 X146.214 Y119.777 E.38793
G1 X145.681 Y119.777 E.01672
G1 X154.427 Y128.523 E.38793
G1 X153.893 Y128.523 E.01675
G1 X145.148 Y119.777 E.38791
G1 X144.614 Y119.777 E.01675
G1 X153.36 Y128.522 E.38791
G1 X152.826 Y128.522 E.01675
G1 X144.081 Y119.777 E.38789
G1 X143.547 Y119.777 E.01675
G1 X152.293 Y128.522 E.38791
G1 X151.759 Y128.522 E.01675
G1 X143.014 Y119.777 E.38789
G1 X142.48 Y119.777 E.01675
G1 X151.226 Y128.522 E.38791
G1 X150.692 Y128.522 E.01675
G1 X141.947 Y119.777 E.38789
G1 X141.413 Y119.777 E.01675
G1 X150.158 Y128.522 E.38789
G1 X149.625 Y128.522 E.01672
G1 X147.924 Y126.821 E.07545
G1 X147.839 Y127.121 E.00978
G1 X147.774 Y127.204 E.00331
G1 X149.091 Y128.521 E.05842
G1 X148.558 Y128.521 E.01672
G1 X147.521 Y127.485 E.04597
G1 X147.23 Y127.727 E.01187
G1 X148.024 Y128.521 E.03522
G1 X147.491 Y128.521 E.01672
G1 X146.939 Y127.969 E.02448
G1 X146.647 Y128.211 E.01189
G1 X146.957 Y128.521 E.01375
G1 X146.423 Y128.521 E.01675
G1 X146.235 Y128.333 E.00834
M204 S1000
;WIPE_START
G1 F8640
G1 X146.423 Y128.521 E-.06139
G1 X146.957 Y128.521 E-.1233
G1 X146.647 Y128.211 E-.10123
G1 X146.939 Y127.969 E-.08757
G1 X147.491 Y128.521 E-.18025
G1 X148.024 Y128.521 E-.12307
G1 X147.23 Y127.727 E-.25928
G1 X147.443 Y127.55 E-.06391
;WIPE_END
G1 Z.4 F720
G1 X146.797 Y125.694 F10800
G1 Z.2 F720
G1 E1 F2100
M204 S800
G1 F1200
G1 X140.88 Y119.777 E.26245
G1 X140.347 Y119.777 E.01672
G1 X146.094 Y125.524 E.25491
G1 X145.56 Y125.524 E.01675
G1 X139.813 Y119.777 E.25491
G1 X139.28 Y119.777 E.01672
G1 X145.027 Y125.524 E.25491
G1 X144.493 Y125.524 E.01675
G1 X138.577 Y119.607 E.26243
M204 S1000
;WIPE_START
G1 F8640
G1 X141.639 Y122.67 E-1
;WIPE_END
G1 Z.4 F720
G1 X137.73 Y78.22 F10800
G1 Z.2 F720
G1 E1 F2100
M204 S800
G1 F1200
G1 X137.137 Y77.627 E.0263
G1 X136.604 Y77.627 E.01672
G1 X137.56 Y78.583 E.0424
G1 X137.56 Y79.117 E.01675
G1 X136.07 Y77.627 E.06609
G1 X135.537 Y77.627 E.01672
G1 X137.56 Y79.65 E.08973
G1 X137.56 Y80.184 E.01675
G1 X135.004 Y77.627 E.11339
G1 X134.47 Y77.627 E.01675
G1 X137.56 Y80.717 E.13706
G1 X137.56 Y81.25 E.01672
G1 X133.937 Y77.627 E.1607
G1 X133.403 Y77.627 E.01675
G1 X137.56 Y81.784 E.18438
G1 X137.56 Y82.317 E.01672
G1 X132.87 Y77.627 E.20803
G1 X132.336 Y77.627 E.01675
G1 X137.56 Y82.851 E.23171
G1 X137.56 Y83.384 E.01672
G1 X131.803 Y77.627 E.25535
G1 X131.27 Y77.627 E.01672
G1 X137.56 Y83.918 E.27902
G1 X137.56 Y84.451 E.01672
G1 X130.736 Y77.627 E.30268
G1 X130.203 Y77.627 E.01672
G1 X137.56 Y84.984 E.32632
G1 X137.56 Y85.518 E.01675
G1 X129.669 Y77.627 E.35001
G1 X129.136 Y77.627 E.01672
G1 X137.56 Y86.051 E.37365
G1 X137.56 Y86.585 E.01675
G1 X128.602 Y77.627 E.39733
M73 Q1 S106
G1 X128.069 Y77.627 E.01672
G1 X137.56 Y87.118 E.42098
G1 X137.56 Y87.652 E.01675
G1 X127.535 Y77.627 E.44466
G1 X127.002 Y77.627 E.01672
G1 X137.56 Y88.185 E.4683
G1 X137.56 Y88.719 E.01675
G1 X126.469 Y77.627 E.49197
G1 X125.935 Y77.627 E.01675
G1 X137.56 Y89.252 E.51563
G1 X137.56 Y89.785 E.01672
