; generated by PrusaSlicer 2.6.1+win64 on 2023-09-12 at 12:31:55 UTC


;
;
; 

; external perimeters extrusion width = 0.45mm
; perimeters extrusion width = 0.45mm
; infill extrusion width = 0.45mm
; solid infill extrusion width = 0.45mm
; top infill extrusion width = 0.40mm
; first layer extrusion width = 0.42mm

M73 P0 R55
M73 Q0 S56
M201 X1000 Y1000 Z200 E5000 ; sets maximum accelerations, mm/sec^2
M203 X200 Y200 Z12 E120 ; sets maximum feedrates, mm / sec
M204 S1250 T1250 ; sets acceleration (S) and retract acceleration (R), mm/sec^2
M205 X8.00 Y8.00 Z0.40 E4.50 ; sets the jerk limits, mm/sec
M205 S0 T0 ; sets the minimum extruding and travel feed rate, mm/sec
;TYPE:Custom
M862.3 P "MK3S" ; printer model check
M862.1 P0.4 ; nozzle diameter check
M115 U3.12.2 ; tell printer latest fw version
G90 ; use absolute coordinates
M83 ; extruder relative mode
M104 S240 ; set extruder temp
M140 S85 ; set bed temp
M190 S85 ; wait for bed temp
M109 S240 ; wait for extruder temp
G28 W ; home all without mesh bed level
G80 ; mesh bed leveling

G1 Z0.2 F720
G1 Y-3 F1000 ; go outside print area
G92 E0
G1 X60 E9 F1000 ; intro line
G1 X100 E12.5 F1000 ; intro line

G92 E0
M221 S95

; Don't change E values below. Excessive value can damage the printer.
M907 E430 ; set extruder motor current
G21 ; set units to millimeters
G90 ; use absolute coordinates
M83 ; use relative distances for extrusion
M900 K0.08 ; Filament gcode LA 1.5
M900 K45 ; Filament gcode LA 1.0
M107
;LAYER_CHANGE
;Z:0.2
;HEIGHT:0.2
;BEFORE_LAYER_CHANGE
G92 E0.0
;0.2


G1 E-1 F2100
G1 Z.2 F720
;AFTER_LAYER_CHANGE
;0.2
G1 Z.4
G1 X100.819 Y97.636 F10800
G1 Z.2 F720
G1 E1 F2100
M204 S800
;TYPE:Skirt/Brim
;WIDTH:0.42
G1 F1200
G1 X116.592 Y81.864 E.69938
G1 X118.273 Y81.167 E.05706
G1 X131.314 Y81.167 E.40889
G1 X132.995 Y81.864 E.05706
G1 X149.181 Y98.05 E.71771
G1 X149.877 Y99.73 E.05702
G1 X149.877 Y112.323 E.39484
G1 X149.181 Y114.004 E.05705
G1 X135.048 Y128.136 E.62666
G1 X133.367 Y128.833 E.05706
G1 X115.914 Y128.833 E.54723
G1 X114.233 Y128.136 E.05706
G1 X100.819 Y114.722 E.5948
G1 X100.123 Y113.042 E.05702
G1 X100.123 Y99.317 E.43034
G1 X100.796 Y97.692 E.05515
M204 S1000
; printing object Rear_Left_Wheel_Mount_Tool_rev0-1 id:0 copy 0
;WIPE_START
G1 F8640
G1 X103.855 Y94.627 E-1
;WIPE_END
G1 Z.4 F720
G1 X118.755 Y84.709 F10800
G1 Z.2 F720
G1 E1 F2100
M204 S800
;TYPE:Perimeter
;WIDTH:0.419999
G1 F1200
G1 X130.832 Y84.709 E.37867
G1 X146.336 Y100.213 E.68747
G1 X146.336 Y111.841 E.36459
G1 X132.885 Y125.291 E.59642
G1 X116.396 Y125.291 E.517
G1 X103.664 Y112.559 E.56456
M73 Q0 S55
G1 X103.664 Y99.8 E.40005
G1 X118.713 Y84.751 E.6673
M204 S1000
G1 X118.599 Y84.331 F10800
M204 S800
G1 F1200
G1 X130.988 Y84.331 E.38845
G1 X146.713 Y100.056 E.69727
G1 X146.713 Y111.997 E.3744
G1 X133.041 Y125.669 E.60624
G1 X116.24 Y125.669 E.52678
G1 X103.287 Y112.715 E.57438
G1 X103.287 Y99.643 E.40986
G1 X118.557 Y84.374 E.67707
M204 S1000
G1 X118.443 Y83.954 F10800
M204 S800
;TYPE:External perimeter
G1 F1200
G1 X131.144 Y83.954 E.39823
G1 X147.09 Y99.9 E.70707
G1 X147.09 Y112.153 E.38418
G1 X133.197 Y126.046 E.61604
G1 X116.084 Y126.046 E.53657
G1 X102.91 Y112.872 E.58416
G1 X102.91 Y99.487 E.41968
M73 P1 R55
M73 Q1 S55
G1 X118.4 Y83.997 E.68685
M204 S1000
G1 X118.752 Y84.208 F10800
;WIPE_START
G1 F8640
G1 X122.731 Y83.982 E-1
;WIPE_END
G1 Z.4 F720
G1 X124.669 Y109.108 F10800
G1 Z.2 F720
G1 E1 F2100
M204 S800
;TYPE:Perimeter
G1 F1200
G1 X124.512 Y107.942 E.03689
G1 X124.516 Y107.24 E.02201
G1 X124.552 Y106.669 E.01794
G1 X124.799 Y105.472 E.03832
G1 X125.25 Y104.312 E.03902
G1 X125.891 Y103.246 E.039
G1 X126.703 Y102.303 E.03902
G1 X127.663 Y101.51 E.03904
G1 X127.795 Y101.421 E.00499
G1 X128.855 Y100.844 E.03784
G1 X129.907 Y100.466 E.03505
G1 X130.066 Y100.424 E.00516
G1 X131.295 Y100.227 E.03903
G1 X132.539 Y100.241 E.03901
G1 X133.609 Y100.424 E.03404
G1 X134.787 Y100.826 E.03903
G1 X135.88 Y101.421 E.03902
G1 X136.012 Y101.51 E.00499
G1 X136.943 Y102.278 E.03784
G1 X137.685 Y103.114 E.03505
G1 X137.784 Y103.246 E.00517
G1 X138.424 Y104.312 E.03898
G1 X138.876 Y105.472 E.03903
G1 X139.104 Y106.533 E.03403
G1 X139.171 Y107.775 E.039
G1 X139.026 Y109.011 E.03902
G1 X138.675 Y110.205 E.03902
G1 X138.615 Y110.354 E.00504
G1 X138.061 Y111.425 E.03781
G1 X137.401 Y112.327 E.03504
G1 X137.292 Y112.451 E.00518
G1 X136.384 Y113.302 E.03902
G1 X135.346 Y113.988 E.03901
G1 X134.357 Y114.435 E.03403
G1 X133.156 Y114.761 E.03902
G1 X131.917 Y114.88 E.03903
G1 X131.159 Y114.83 E.02382
G1 X130.519 Y114.761 E.02018
G1 X129.318 Y114.435 E.03902
G1 X128.19 Y113.91 E.03901
G1 X127.291 Y113.302 E.03403
G1 X126.383 Y112.451 E.03902
G1 X125.632 Y111.459 E.03901
G1 X125.06 Y110.354 E.03901
G1 X124.682 Y109.166 E.03909
M204 S1000
G1 X125.037 Y109.027 F10800
M204 S800
G1 F1200
G1 X124.886 Y107.894 E.03584
G1 X124.893 Y107.248 E.02026
G1 X124.928 Y106.693 E.01744
G1 X125.168 Y105.552 E.03656
G1 X125.6 Y104.453 E.03702
G1 X126.212 Y103.443 E.03703
G1 X126.986 Y102.552 E.03701
G1 X127.9 Y101.804 E.03703
G1 X128.982 Y101.198 E.03888
G1 X130.13 Y100.796 E.03814
G1 X131.295 Y100.604 E.03702
G1 X132.38 Y100.604 E.03402
G1 X133.545 Y100.796 E.03702
G1 X134.661 Y101.181 E.03702
G1 X135.696 Y101.75 E.03703
G1 X136.661 Y102.529 E.03889
G1 X137.462 Y103.443 E.03811
G1 X138.075 Y104.453 E.03704
G1 X138.507 Y105.551 E.037
G1 X138.748 Y106.707 E.03702
G1 X138.79 Y107.887 E.03702
G1 X138.627 Y109.074 E.03757
G1 X138.314 Y110.095 E.03348
G1 X137.805 Y111.123 E.03597
G1 X137.096 Y112.104 E.03795
G1 X136.248 Y112.93 E.03712
G1 X135.274 Y113.597 E.03701
G1 X134.111 Y114.123 E.04002
G1 X132.967 Y114.413 E.037
G1 X131.885 Y114.505 E.03405
G1 X131.191 Y114.454 E.02182
G1 X130.614 Y114.397 E.01818
G1 X129.564 Y114.123 E.03402
G1 X128.485 Y113.644 E.03702
G1 X127.427 Y112.93 E.04002
G1 X126.58 Y112.107 E.03703
G1 X125.885 Y111.153 E.03701
G1 X125.396 Y110.184 E.03403
G1 X125.052 Y109.085 E.03611
M204 S1000
G1 X125.411 Y108.972 F10800
M204 S800
;TYPE:External perimeter
G1 F1200
G1 X125.26 Y107.846 E.03562
G1 X125.27 Y107.256 E.0185
G1 X125.304 Y106.717 E.01693
G1 X125.546 Y105.6 E.03584
G1 X125.965 Y104.565 E.03501
G1 X126.534 Y103.641 E.03402
G1 X127.269 Y102.801 E.035
G1 X128.137 Y102.097 E.03504
G1 X129.11 Y101.553 E.03495
G1 X130.194 Y101.167 E.03608
G1 X131.295 Y100.981 E.03501
G1 X132.412 Y100.984 E.03502
G1 X133.481 Y101.167 E.03401
G1 X134.535 Y101.537 E.03502
G1 X135.512 Y102.079 E.03503
G1 X136.379 Y102.779 E.03494
G1 X137.141 Y103.641 E.03607
G1 X137.712 Y104.567 E.03411
G1 X138.139 Y105.631 E.03595
G1 X138.371 Y106.723 E.035
G1 X138.416 Y107.839 E.03502
G1 X138.266 Y108.964 E.03559
G1 X137.954 Y109.984 E.03344
G1 X137.468 Y110.953 E.03399
G1 X136.792 Y111.882 E.03602
G1 X135.987 Y112.657 E.03504
G1 X135.035 Y113.301 E.03604
G1 X134.016 Y113.758 E.03502
G1 X132.935 Y114.037 E.035
G1 X131.853 Y114.129 E.03405
G1 X131.223 Y114.078 E.01982
G1 X130.709 Y114.032 E.01618
G1 X129.659 Y113.758 E.03402
G1 X128.64 Y113.301 E.03502
G1 X127.688 Y112.657 E.03604
G1 X126.884 Y111.883 E.03499
G1 X126.222 Y110.983 E.03503
G1 X125.733 Y110.014 E.03403
G1 X125.429 Y109.029 E.03232
M204 S1000
G1 X125.03 Y108.851 F10800
;WIPE_START
G1 F8640
G1 X125.26 Y107.846 E-.27593
G1 X125.27 Y107.256 E-.13625
G1 X125.304 Y106.717 E-.1247
G1 X125.546 Y105.6 E-.2639
G1 X125.87 Y104.8 E-.19922
;WIPE_END
G1 Z.4 F720
G1 X146.166 Y100.524 F10800
G1 Z.2 F720
G1 E1 F2100
M204 S800
;TYPE:Solid infill
;WIDTH:0.421373
G1 F1200
G1 X130.69 Y85.048 E.68873
G1 X130.155 Y85.048 E.01684
G1 X145.996 Y100.889 E.70497
G1 X145.996 Y101.425 E.01687
G1 X129.62 Y85.048 E.72881
G1 X129.085 Y85.048 E.01684
G1 X145.996 Y101.96 E.75262
G1 X145.996 Y102.495 E.01684
G1 X128.549 Y85.048 E.77645
G1 X128.014 Y85.048 E.01684
G1 X145.996 Y103.03 E.80026
G1 X145.996 Y103.565 E.01684
G1 X127.479 Y85.048 E.82407
G1 X126.944 Y85.048 E.01684
G1 X145.996 Y104.101 E.8479
G1 X145.996 Y104.636 E.01684
G1 X126.408 Y85.048 E.87173
G1 X125.873 Y85.048 E.01684
G1 X145.996 Y105.171 E.89554
G1 X145.996 Y105.706 E.01684
G1 X125.338 Y85.048 E.91935
G1 X124.803 Y85.048 E.01684
G1 X145.996 Y106.242 E.94318
G1 X145.996 Y106.777 E.01684
M73 P1 R54
G1 X124.268 Y85.048 E.96699
G1 X123.732 Y85.048 E.01687
G1 X145.996 Y107.312 E.99082
G1 X145.996 Y107.847 E.01684
G1 X123.197 Y85.048 E1.01463
G1 X122.662 Y85.048 E.01684
G1 X145.996 Y108.382 E1.03844
G1 X145.996 Y108.918 E.01687
G1 X122.127 Y85.048 E1.06227
G1 X121.592 Y85.048 E.01684
M73 P2 R54
M73 Q2 S55
G1 X145.996 Y109.453 E1.08608
G1 X145.996 Y109.988 E.01684
G1 X121.056 Y85.048 E1.10991
G1 X120.521 Y85.048 E.01684
G1 X145.996 Y110.523 E1.13372
G1 X145.996 Y111.058 E.01684
G1 X119.986 Y85.048 E1.15753
G1 X119.451 Y85.048 E.01684
G1 X134.915 Y100.512 E.6882
G1 X134.086 Y100.218 E.02768
G1 X118.915 Y85.048 E.67514
G1 X118.896 Y85.048 E.0006
G1 X118.638 Y85.306 E.01148
G1 X133.371 Y100.039 E.65567
G1 X132.725 Y99.928 E.02063
G1 X118.37 Y85.573 E.63884
G1 X118.103 Y85.841 E.0119
M73 Q2 S54
G1 X132.15 Y99.888 E.62514
G1 X131.614 Y99.888 E.01687
G1 X117.835 Y86.108 E.61323
G1 X117.568 Y86.376 E.0119
G1 X131.096 Y99.904 E.60204
G1 X130.641 Y99.985 E.01454
G1 X117.3 Y86.644 E.59372
G1 X117.032 Y86.911 E.0119
G1 X130.188 Y100.067 E.58548
G1 X129.843 Y100.129 E.01103
G1 X129.749 Y100.163 E.00315
G1 X116.765 Y87.179 E.57783
G1 X116.497 Y87.446 E.0119
G1 X129.356 Y100.305 E.57227
G1 X128.963 Y100.447 E.01315
G1 X116.23 Y87.714 E.56666
G1 X115.962 Y87.982 E.01193
G1 X128.579 Y100.599 E.5615
G1 X128.236 Y100.791 E.01237
G1 X115.694 Y88.249 E.55816
G1 X115.427 Y88.517 E.0119
G1 X127.892 Y100.983 E.55475
G1 X127.549 Y101.175 E.01237
G1 X115.159 Y88.785 E.55139
G1 X114.892 Y89.052 E.01188
G1 X127.25 Y101.411 E.54999
G1 X126.953 Y101.649 E.01198
G1 X114.624 Y89.32 E.54868
G1 X114.356 Y89.587 E.0119
G1 X126.656 Y101.887 E.54739
G1 X126.385 Y102.151 E.01191
G1 X114.089 Y89.855 E.54721
G1 X113.821 Y90.123 E.01193
G1 X126.135 Y102.437 E.54801
G1 X125.886 Y102.722 E.01191
G1 X113.553 Y90.39 E.54884
G1 X113.286 Y90.658 E.0119
G1 X125.641 Y103.013 E.54984
G1 X125.436 Y103.343 E.01223
G1 X113.018 Y90.925 E.55264
G1 X112.751 Y91.193 E.0119
G1 X125.231 Y103.673 E.5554
G1 X125.027 Y104.004 E.01224
G1 X112.483 Y91.461 E.55823
G1 X112.215 Y91.728 E.0119
G1 X124.86 Y104.373 E.56274
G1 X124.707 Y104.755 E.01295
M73 P3 R54
M73 Q3 S54
G1 X111.948 Y91.996 E.56782
G1 X111.68 Y92.263 E.0119
G1 X124.554 Y105.137 E.57293
G1 X124.435 Y105.553 E.01362
G1 X111.413 Y92.531 E.57952
G1 X111.145 Y92.799 E.01193
G1 X124.341 Y105.995 E.58726
G1 X124.247 Y106.436 E.01419
G1 X110.877 Y93.066 E.59501
G1 X110.61 Y93.334 E.0119
G1 X124.197 Y106.921 E.60466
G1 X124.174 Y107.433 E.01613
G1 X110.342 Y93.601 E.61557
G1 X110.075 Y93.869 E.0119
G1 X124.178 Y107.973 E.62765
G1 X124.256 Y108.586 E.01945
G1 X109.807 Y94.137 E.64303
G1 X109.539 Y94.404 E.0119
G1 X124.344 Y109.209 E.65887
G1 X124.576 Y109.977 E.02525
G1 X109.272 Y94.672 E.6811
G1 X109.004 Y94.939 E.0119
G1 X125.336 Y111.272 E.72685
M204 S1000
;WIPE_START
G1 F8640
G1 X122.274 Y108.21 E-1
;WIPE_END
G1 Z.4 F720
G1 X138.513 Y104.111 F10800
G1 Z.2 F720
G1 E1 F2100
M204 S800
G1 F1200
G1 X145.996 Y111.594 E.33302
G1 X145.996 Y111.7 E.00334
G1 X145.782 Y111.914 E.00952
G1 X139.182 Y105.314 E.29372
G1 X139.338 Y106.006 E.02232
G1 X145.514 Y112.182 E.27485
G1 X145.247 Y112.45 E.0119
G1 X139.463 Y106.666 E.25741
G1 X139.487 Y107.225 E.01761
G1 X144.979 Y112.717 E.24441
G1 X144.712 Y112.985 E.0119
G1 X139.51 Y107.783 E.23151
G1 X139.463 Y108.271 E.01543
G1 X144.444 Y113.253 E.22169
G1 X144.176 Y113.52 E.0119
G1 X139.402 Y108.745 E.21248
G1 X139.327 Y109.206 E.0147
G1 X143.909 Y113.788 E.20391
G1 X143.641 Y114.055 E.0119
G1 X139.204 Y109.618 E.19746
G1 X139.081 Y110.031 E.01356
G1 X143.374 Y114.323 E.19103
G1 X143.106 Y114.591 E.01193
G1 X138.948 Y110.433 E.18504
G1 X138.771 Y110.791 E.01257
G1 X142.838 Y114.858 E.18099
G1 X142.571 Y115.126 E.0119
G1 X138.589 Y111.144 E.17721
G1 X138.407 Y111.497 E.0125
M73 P3 R53
G1 X142.303 Y115.393 E.17338
G1 X142.036 Y115.661 E.0119
G1 X138.191 Y111.817 E.17109
G1 X137.962 Y112.123 E.01203
G1 X141.768 Y115.929 E.16938
G1 X141.5 Y116.196 E.0119
G1 X137.733 Y112.429 E.16764
G1 X137.495 Y112.726 E.01198
G1 X141.233 Y116.464 E.16635
G1 X140.965 Y116.731 E.0119
G1 X137.222 Y112.988 E.16658
G1 X136.949 Y113.25 E.01191
G1 X140.698 Y116.999 E.16684
G1 X140.43 Y117.267 E.01193
G1 X136.67 Y113.507 E.16733
G1 X136.358 Y113.73 E.01207
G1 X140.162 Y117.534 E.16929
G1 X139.895 Y117.802 E.0119
G1 X136.038 Y113.946 E.17163
G1 X135.719 Y114.161 E.01211
G1 X139.627 Y118.069 E.17392
G1 X139.36 Y118.337 E.0119
G1 X135.371 Y114.349 E.1775
G1 X135.003 Y114.515 E.0127
G1 X139.092 Y118.605 E.182
G1 X138.824 Y118.872 E.0119
G1 X134.634 Y114.682 E.18647
G1 X134.245 Y114.829 E.01309
G1 X138.557 Y119.14 E.19188
G1 X138.289 Y119.407 E.0119
G1 X133.821 Y114.939 E.19884
G1 X133.396 Y115.05 E.01382
G1 X138.021 Y119.675 E.20583
G1 X137.754 Y119.943 E.0119
G1 X132.945 Y115.134 E.21402
G1 X132.452 Y115.176 E.01557
G1 X137.486 Y120.21 E.22403
G1 X137.219 Y120.478 E.0119
G1 X131.958 Y115.218 E.23411
G1 X131.396 Y115.19 E.01771
G1 X136.951 Y120.746 E.24724
G1 X136.683 Y121.013 E.0119
G1 X130.811 Y115.141 E.26132
G1 X130.44 Y115.091 E.01178
G1 X130.152 Y115.017 E.00936
G1 X136.416 Y121.281 E.27877
G1 X136.148 Y121.548 E.0119
G1 X129.428 Y114.828 E.29906
G1 X129.184 Y114.747 E.00809
G1 X128.504 Y114.439 E.02349
G1 X135.881 Y121.816 E.3283
G1 X135.613 Y122.084 E.01193
G1 X108.737 Y95.207 E1.19609
G1 X108.469 Y95.475 E.01193
G1 X135.345 Y122.351 E1.19607
G1 X135.078 Y122.619 E.0119
G1 X108.201 Y95.742 E1.19611
G1 X107.934 Y96.01 E.0119
G1 X134.81 Y122.886 E1.19607
G1 X134.543 Y123.154 E.0119
M73 P4 R53
M73 Q4 S54
G1 X107.666 Y96.278 E1.19609
G1 X107.399 Y96.545 E.01188
G1 X134.275 Y123.422 E1.19609
G1 X134.007 Y123.689 E.0119
M73 Q4 S53
G1 X107.131 Y96.813 E1.19607
G1 X106.863 Y97.08 E.0119
G1 X133.74 Y123.957 E1.19611
G1 X133.472 Y124.224 E.0119
G1 X106.596 Y97.348 E1.19607
G1 X106.328 Y97.616 E.01193
G1 X133.205 Y124.492 E1.19609
G1 X132.937 Y124.76 E.01193
G1 X106.06 Y97.883 E1.19611
G1 X105.793 Y98.151 E.0119
G1 X132.594 Y124.952 E1.19273
G1 X132.059 Y124.952 E.01684
G1 X105.525 Y98.418 E1.18085
G1 X105.258 Y98.686 E.0119
G1 X131.524 Y124.952 E1.16892
G1 X130.989 Y124.952 E.01684
G1 X104.99 Y98.954 E1.15702
G1 X104.722 Y99.221 E.0119
G1 X130.453 Y124.952 E1.14511
G1 X129.918 Y124.952 E.01684
G1 X104.455 Y99.489 E1.13318
G1 X104.187 Y99.756 E.0119
G1 X129.383 Y124.952 E1.1213
G1 X128.848 Y124.952 E.01684
G1 X104.004 Y100.108 E1.10564
G1 X104.004 Y100.643 E.01684
G1 X128.313 Y124.952 E1.08183
G1 X127.777 Y124.952 E.01687
G1 X104.004 Y101.178 E1.058
G1 X104.004 Y101.714 E.01687
G1 X127.242 Y124.952 E1.03416
G1 X126.707 Y124.952 E.01684
M73 P5 R53
M73 Q5 S53
G1 X104.004 Y102.249 E1.01036
G1 X104.004 Y102.784 E.01684
G1 X126.172 Y124.952 E.98655
G1 X125.636 Y124.952 E.01687
G1 X104.004 Y103.319 E.96271
G1 X104.004 Y103.854 E.01684
G1 X125.101 Y124.952 E.93891
G1 X124.566 Y124.952 E.01684
G1 X104.004 Y104.39 E.91507
G1 X104.004 Y104.925 E.01684
G1 X124.031 Y124.952 E.89126
G1 X123.496 Y124.952 E.01684
G1 X104.004 Y105.46 E.86746
G1 X104.004 Y105.995 E.01684
M73 P5 R52
G1 X122.96 Y124.952 E.84362
G1 X122.425 Y124.952 E.01684
G1 X104.004 Y106.53 E.81982
G1 X104.004 Y107.066 E.01687
G1 X121.89 Y124.952 E.79598
G1 X121.355 Y124.952 E.01684
G1 X104.004 Y107.601 E.77217
G1 X104.004 Y108.136 E.01684
G1 X120.82 Y124.952 E.74837
G1 X120.284 Y124.952 E.01687
G1 X104.004 Y108.671 E.72453
G1 X104.004 Y109.207 E.01687
G1 X119.749 Y124.952 E.7007
G1 X119.214 Y124.952 E.01684
G1 X104.004 Y109.742 E.67689
G1 X104.004 Y110.277 E.01684
G1 X118.679 Y124.952 E.65308
G1 X118.143 Y124.952 E.01687
G1 X104.004 Y110.812 E.62925
G1 X104.004 Y111.347 E.01684
G1 X117.608 Y124.952 E.60544
G1 X117.073 Y124.952 E.01684
G1 X104.004 Y111.883 E.58161
G1 X104.004 Y112.418 E.01684
G1 X116.708 Y125.122 E.56537
M204 S1000
; stop printing object Rear_Left_Wheel_Mount_Tool_rev0-1 id:0 copy 0
;LAYER_CHANGE
;Z:0.3
;HEIGHT:0.1
;BEFORE_LAYER_CHANGE
G92 E0.0
;0.3


;WIPE_START
G1 F8640
