; generated by PrusaSlicer 2.6.1+win64 on 2023-09-18 at 20:52:39 UTC


;
;
; 

; external perimeters extrusion width = 0.45mm
; perimeters extrusion width = 0.45mm
; infill extrusion width = 0.45mm
; solid infill extrusion width = 0.45mm
; top infill extrusion width = 0.40mm
; first layer extrusion width = 0.42mm

; external perimeters extrusion width = 0.45mm
; perimeters extrusion width = 0.45mm
; infill extrusion width = 0.45mm
; solid infill extrusion width = 0.45mm
; top infill extrusion width = 0.40mm
; first layer extrusion width = 0.42mm

M73 P0 R76
M73 Q0 S76
M201 X1000 Y1000 Z200 E5000 ; sets maximum accelerations, mm/sec^2
M203 X200 Y200 Z12 E120 ; sets maximum feedrates, mm / sec
M204 S1250 T1250 ; sets acceleration (S) and retract acceleration (R), mm/sec^2
M205 X8.00 Y8.00 Z0.40 E4.50 ; sets the jerk limits, mm/sec
M205 S0 T0 ; sets the minimum extruding and travel feed rate, mm/sec
;TYPE:Custom
M862.3 P "MK3S" ; printer model check
M862.1 P0.4 ; nozzle diameter check
M115 U3.12.2 ; tell printer latest fw version
G90 ; use absolute coordinates
M83 ; extruder relative mode
M104 S240 ; set extruder temp
M140 S85 ; set bed temp
M190 S85 ; wait for bed temp
M109 S240 ; wait for extruder temp
G28 W ; home all without mesh bed level
G80 ; mesh bed leveling

G1 Z0.2 F720
G1 Y-3 F1000 ; go outside print area
G92 E0
G1 X60 E9 F1000 ; intro line
G1 X100 E12.5 F1000 ; intro line

G92 E0
M221 S95

; Don't change E values below. Excessive value can damage the printer.
M907 E430 ; set extruder motor current
G21 ; set units to millimeters
G90 ; use absolute coordinates
M83 ; use relative distances for extrusion
M900 K0.08 ; Filament gcode LA 1.5
M900 K45 ; Filament gcode LA 1.0
M107
;LAYER_CHANGE
;Z:0.2
;HEIGHT:0.2
;BEFORE_LAYER_CHANGE
G92 E0.0
;0.2


G1 E-1 F2100
M73 P0 R75
G1 Z.2 F720
;AFTER_LAYER_CHANGE
;0.2
G1 Z.4
G1 X85.734 Y77.349 F10800
G1 Z.2 F720
G1 E1 F2100
M204 S800
;TYPE:Skirt/Brim
;WIDTH:0.42
G1 F1200
G1 X98.067 Y65.017 E.54684
G1 X99.748 Y64.32 E.05706
G1 X118.681 Y64.32 E.59363
G1 X120.211 Y64.877 E.05105
G1 X164.114 Y101.763 E1.7979
G1 X164.962 Y103.583 E.06296
G1 X164.962 Y128.762 E.78947
G1 X164.406 Y130.29 E.05098
G1 X152.234 Y144.796 E.59373
G1 X151.094 Y145.545 E.04277
G1 X150.354 Y145.644 E.02341
G1 X138.26 Y145.312 E.37934
G1 X134.976 Y144.713 E.10467
G1 X131.468 Y143.522 E.11616
G1 X127.876 Y141.607 E.12763
G1 X124.94 Y139.367 E.11579
G1 X85.72 Y99.473 E1.75409
G1 X85.038 Y97.806 E.05647
G1 X85.038 Y79.03 E.58871
G1 X85.711 Y77.405 E.05515
M204 S1000
; printing object Rear_Left_Wheel_Mount_Tool_rev0 id:0 copy 0
;WIPE_START
G1 F8640
G1 X88.769 Y74.339 E-1
;WIPE_END
G1 Z.4 F720
G1 X127.043 Y94.316 F10800
G1 Z.2 F720
G1 E1 F2100
M204 S800
;TYPE:Perimeter
;WIDTH:0.419999
G1 F1200
G1 X114.863 Y106.497 E.5401
G1 X97.219 Y106.497 E.55321
G1 X88.202 Y97.48 E.39983
G1 X88.202 Y79.356 E.56826
G1 X100.074 Y67.485 E.5264
G1 X118.355 Y67.485 E.57319
G1 X127.043 Y76.173 E.38524
G1 X127.043 Y94.256 E.56698
M204 S1000
G1 X127.421 Y94.472 F10800
M204 S800
;TYPE:External perimeter
G1 F1200
G1 X115.019 Y106.874 E.54992
G1 X97.063 Y106.874 E.563
G1 X87.825 Y97.636 E.40963
G1 X87.825 Y79.2 E.57805
G1 X99.918 Y67.107 E.53622
G1 X118.512 Y67.107 E.583
G1 X127.421 Y76.016 E.39504
G1 X127.421 Y94.412 E.57679
M204 S1000
G1 X127.023 Y94.514 F10800
;WIPE_START
G1 F8640
G1 X124.366 Y97.482 E-1
;WIPE_END
G1 Z.4 F720
G1 X100.538 Y82.167 F10800
G1 Z.2 F720
G1 E1 F2100
M204 S800
;TYPE:Perimeter
G1 F1200
G1 X100.113 Y81.725 E.01923
G1 X99.508 Y80.928 E.03137
G1 X99.175 Y80.37 E.02037
G1 X98.765 Y79.457 E.03138
G1 X98.506 Y78.603 E.02798
G1 X98.343 Y77.605 E.03171
G1 X98.315 Y76.712 E.02801
G1 X98.396 Y75.828 E.02783
G1 X98.619 Y74.841 E.03173
G1 X98.927 Y74.003 E.02799
G1 X99.334 Y73.213 E.02786
G1 X99.833 Y72.478 E.02785
G1 X100.419 Y71.81 E.02786
G1 X101.115 Y71.193 E.02916
G1 X101.918 Y70.648 E.03043
G1 X102.827 Y70.199 E.03179
G1 X103.673 Y69.911 E.02802
G1 X104.542 Y69.73 E.02783
G1 X105.47 Y69.655 E.02919
G1 X106.317 Y69.69 E.02658
G1 X107.074 Y69.807 E.02402
G1 X107.926 Y70.039 E.02769
G1 X108.638 Y70.323 E.02403
G1 X109.417 Y70.742 E.02773
G1 X110.047 Y71.178 E.02402
G1 X110.711 Y71.761 E.02771
G1 X111.029 Y72.11 E.0148
G1 X111.542 Y72.031 E.01627
G1 X112.012 Y71.988 E.0148
G1 X112.714 Y71.988 E.02201
G1 X113.352 Y72.047 E.02009
G1 X113.976 Y72.161 E.01989
G1 X114.589 Y72.328 E.01992
G1 X115.217 Y72.563 E.02102
G1 X115.867 Y72.879 E.02266
G1 X116.412 Y73.21 E.01999
G1 X116.857 Y73.533 E.01724
G1 X117.358 Y73.966 E.02076
G1 X118.07 Y74.743 E.03304
G1 X118.453 Y75.273 E.0205
G1 X118.76 Y75.79 E.01885
G1 X118.936 Y76.146 E.01245
G1 X119.445 Y76.294 E.01662
G1 X120.096 Y76.557 E.02201
G1 X120.77 Y76.912 E.02388
G1 X121.403 Y77.335 E.02387
G1 X122.078 Y77.906 E.02772
G1 X122.603 Y78.464 E.02402
G1 X123.064 Y79.071 E.0239
G1 X123.493 Y79.788 E.0262
G1 X123.913 Y80.754 E.03303
G1 X124.183 Y81.738 E.03199
G1 X124.312 Y82.745 E.03183
G1 X124.292 Y83.844 E.03446
G1 X124.118 Y84.887 E.03315
G1 X123.809 Y85.855 E.03186
G1 X123.466 Y86.571 E.02489
G1 X122.994 Y87.332 E.02808
G1 X123.26 Y87.802 E.01693
G1 X123.486 Y88.266 E.01618
G1 X123.713 Y88.864 E.02006
G1 X123.911 Y89.594 E.02372
G1 X124.019 Y90.225 E.02007
G1 X124.075 Y90.98 E.02374
G1 X124.051 Y91.741 E.02387
G1 X123.97 Y92.376 E.02007
G1 X123.768 Y93.231 E.02755
G1 X123.51 Y93.953 E.02404
G1 X123.178 Y94.639 E.0239
G1 X122.707 Y95.386 E.02769
G1 X122.145 Y96.074 E.02785
G1 X121.596 Y96.61 E.02406
G1 X120.827 Y97.196 E.03031
G1 X119.803 Y97.764 E.03672
G1 X118.725 Y98.154 E.03594
G1 X117.725 Y98.355 E.03198
G1 X117.077 Y98.409 E.02039
G1 X115.994 Y98.369 E.03398
G1 X114.958 Y98.177 E.03304
G1 X114.476 Y98.017 E.01592
G1 X113.992 Y97.851 E.01604
G1 X113.084 Y97.395 E.03186
G1 X112.155 Y96.739 E.03566
G1 X111.67 Y96.3 E.02051
G1 X111.239 Y95.834 E.0199
G1 X110.851 Y95.331 E.01992
G1 X110.487 Y94.76 E.02123
G1 X110.162 Y94.122 E.02245
G1 X109.961 Y93.619 E.01698
G1 X109.743 Y92.921 E.02293
G1 X109.614 Y92.299 E.01992
G1 X109.544 Y91.656 E.02028
G1 X109.529 Y90.865 E.02481
G1 X109.601 Y90.077 E.02481
G1 X109.759 Y89.292 E.02511
G1 X109.929 Y88.756 E.01763
G1 X110.301 Y87.859 E.03045
G1 X110.607 Y87.323 E.01935
G1 X110.846 Y86.96 E.01363
M73 Q0 S75
G1 X110.48 Y86.284 E.0241
G1 X109.668 Y86.018 E.02679
G1 X109.081 Y85.754 E.02018
G1 X108.527 Y85.443 E.01992
G1 X108.003 Y85.085 E.0199
G1 X107.601 Y84.757 E.01627
G1 X106.933 Y84.077 E.02989
G1 X106.235 Y84.175 E.0221
G1 X105.37 Y84.206 E.02714
G1 X104.727 Y84.158 E.02022
G1 X104.1 Y84.056 E.01992
G1 X103.571 Y83.921 E.01712
G1 X102.886 Y83.689 E.02268
G1 X102.403 Y83.471 E.01662
G1 X101.739 Y83.091 E.02399
G1 X101.178 Y82.701 E.02142
G1 X100.581 Y82.209 E.02426
M204 S1000
G1 X100.829 Y81.924 F10800
M204 S800
;TYPE:External perimeter
G1 F1200
G1 X100.386 Y81.466 E.01998
G1 X99.809 Y80.701 E.03004
G1 X99.5 Y80.179 E.01902
G1 X99.109 Y79.304 E.03005
G1 X98.868 Y78.495 E.02647
G1 X98.716 Y77.546 E.03013
G1 X98.692 Y76.702 E.02647
G1 X98.771 Y75.864 E.02639
G1 X98.986 Y74.926 E.03017
G1 X99.28 Y74.135 E.02646
G1 X99.668 Y73.387 E.02642
G1 X100.144 Y72.692 E.02641
G1 X100.701 Y72.06 E.02641
G1 X101.364 Y71.476 E.0277
G1 X102.128 Y70.961 E.02889
G1 X102.992 Y70.538 E.03016
G1 X103.792 Y70.269 E.02646
G1 X104.617 Y70.099 E.02641
G1 X105.498 Y70.031 E.02771
G1 X106.3 Y70.067 E.02517
G1 X107.015 Y70.179 E.02269
G1 X107.825 Y70.403 E.02635
G1 X108.497 Y70.673 E.02271
G1 X109.237 Y71.073 E.02637
G1 X109.831 Y71.487 E.0227
G1 X110.461 Y72.044 E.02637
G1 X110.89 Y72.52 E.02009
G1 X111.394 Y72.425 E.01608
G1 X111.994 Y72.366 E.0189
G1 X112.714 Y72.365 E.02258
G1 X113.315 Y72.422 E.01893
G1 X113.907 Y72.531 E.01887
G1 X114.488 Y72.692 E.0189
G1 X115.084 Y72.916 E.01996
G1 X115.701 Y73.217 E.02152
G1 X116.215 Y73.532 E.0189
G1 X116.634 Y73.837 E.01625
G1 X117.08 Y74.221 E.01845
G1 X117.792 Y74.998 E.03304
G1 X118.147 Y75.492 E.01907
G1 X118.435 Y75.981 E.01779
G1 X118.669 Y76.462 E.01677
G1 X119.284 Y76.637 E.02005
G1 X119.955 Y76.906 E.02267
G1 X120.593 Y77.245 E.02265
G1 X121.193 Y77.648 E.02266
G1 X121.833 Y78.193 E.02636
G1 X122.327 Y78.722 E.02269
G1 X122.763 Y79.298 E.02265
G1 X123.147 Y79.938 E.0234
G1 X123.567 Y80.905 E.03306
G1 X123.819 Y81.835 E.03021
G1 X123.938 Y82.791 E.03021
G1 X123.92 Y83.781 E.03105
G1 X123.746 Y84.822 E.03309
G1 X123.451 Y85.738 E.03017
G1 X123.127 Y86.406 E.02328
G1 X122.848 Y86.876 E.01714
G1 X122.544 Y87.324 E.01698
G1 X122.83 Y87.782 E.01693
G1 X123.127 Y88.389 E.02119
G1 X123.36 Y88.996 E.02039
G1 X123.547 Y89.692 E.0226
G1 X123.648 Y90.287 E.01892
G1 X123.699 Y91.006 E.0226
G1 X123.675 Y91.728 E.02265
G1 X123.597 Y92.327 E.01894
G1 X123.402 Y93.143 E.02631
G1 X123.155 Y93.824 E.02271
G1 X122.839 Y94.474 E.02266
G1 X122.389 Y95.184 E.02636
G1 X121.854 Y95.835 E.02642
G1 X121.334 Y96.338 E.02268
G1 X120.644 Y96.867 E.02726
G1 X119.62 Y97.434 E.0367
G1 X118.599 Y97.798 E.03399
G1 X117.653 Y97.984 E.03023
G1 X117.048 Y98.033 E.01903
G1 X116.063 Y97.998 E.0309
G1 X115.027 Y97.806 E.03304
G1 X114.114 Y97.494 E.03025
G1 X113.256 Y97.059 E.03016
G1 X112.374 Y96.432 E.03393
G1 X111.925 Y96.022 E.01906
G1 X111.517 Y95.579 E.01888
G1 X111.15 Y95.102 E.01887
G1 X110.806 Y94.559 E.02015
G1 X110.498 Y93.952 E.02134
G1 X110.311 Y93.481 E.01589
G1 X110.104 Y92.814 E.0219
G1 X109.984 Y92.224 E.01888
G1 X109.919 Y91.617 E.01914
G1 X109.906 Y90.865 E.02358
G1 X109.976 Y90.116 E.02359
G1 X110.128 Y89.371 E.02384
G1 X110.287 Y88.872 E.01642
G1 X110.645 Y88.012 E.02921
G1 X110.933 Y87.511 E.01812
G1 X111.3 Y86.975 E.02037
G1 X111.016 Y86.519 E.01684
G1 X110.743 Y85.963 E.01942
G1 X109.794 Y85.663 E.03121
G1 X109.237 Y85.411 E.01917
G1 X108.713 Y85.115 E.01887
G1 X108.216 Y84.774 E.0189
G1 X107.751 Y84.392 E.01887
G1 X107.066 Y83.668 E.03125
G1 X106.559 Y83.764 E.01618
G1 X105.959 Y83.823 E.0189
G1 X105.366 Y83.829 E.01859
G1 X104.757 Y83.782 E.01915
G1 X104.163 Y83.684 E.01888
G1 X103.665 Y83.556 E.01612
G1 X103.012 Y83.333 E.02164
G1 X102.464 Y83.084 E.01887
G1 X101.934 Y82.767 E.01936
G1 X101.418 Y82.41 E.01967
G1 X100.875 Y81.962 E.02207
M204 S1000
G1 X100.446 Y82.04 F10800
;WIPE_START
G1 F8640
G1 X100.386 Y81.466 E-.16083
G1 X99.809 Y80.701 E-.22125
G1 X99.5 Y80.179 E-.14007
G1 X99.109 Y79.304 E-.22129
G1 X98.868 Y78.495 E-.19491
G1 X98.826 Y78.231 E-.06165
;WIPE_END
G1 Z.4 F720
G1 X104.362 Y88.419 F10800
G1 Z.2 F720
G1 E1 F2100
M204 S800
;TYPE:Perimeter
G1 F1200
G1 X104.731 Y88.885 E.01864
G1 X105.045 Y89.459 E.02051
G1 X105.258 Y90.078 E.02053
G1 X105.363 Y90.725 E.02055
G1 X105.357 Y91.38 E.02054
G1 X105.241 Y92.024 E.02052
G1 X105.07 Y92.499 E.01583
G1 X104.742 Y93.126 E.02219
G1 X104.277 Y93.715 E.02353
G1 X103.782 Y94.143 E.02052
G1 X103.221 Y94.481 E.02054
G1 X102.611 Y94.72 E.02054
G1 X101.97 Y94.853 E.02053
G1 X101.315 Y94.875 E.02055
G1 X100.666 Y94.786 E.02054
G1 X100.042 Y94.588 E.02053
G1 X99.46 Y94.288 E.02053
G1 X98.937 Y93.894 E.02053
G1 X98.488 Y93.418 E.02052
G1 X98.126 Y92.872 E.02054
G1 X97.831 Y92.182 E.02353
G1 X97.702 Y91.637 E.01756
G1 X97.652 Y90.985 E.0205
G1 X97.713 Y90.333 E.02053
G1 X97.884 Y89.7 E.02056
G1 X98.159 Y89.106 E.02052
G1 X98.53 Y88.567 E.02052
G1 X98.988 Y88.098 E.02055
G1 X99.518 Y87.713 E.02054
G1 X100.105 Y87.423 E.02053
G1 X100.733 Y87.237 E.02054
G1 X101.383 Y87.16 E.02052
G1 X101.958 Y87.188 E.01805
G1 X102.634 Y87.327 E.02164
G1 X103.282 Y87.586 E.02188
G1 X103.834 Y87.933 E.02044
G1 X104.324 Y88.373 E.02065
M204 S1000
G1 X104.089 Y88.675 F10800
M204 S800
;TYPE:External perimeter
G1 F1200
G1 X104.433 Y89.115 E.01751
G1 X104.712 Y89.636 E.01853
G1 X104.9 Y90.197 E.01855
G1 X104.99 Y90.781 E.01853
G1 X104.98 Y91.372 E.01853
G1 X104.871 Y91.953 E.01853
G1 X104.664 Y92.507 E.01854
G1 X104.368 Y93.018 E.01852
G1 X103.989 Y93.472 E.01854
G1 X103.539 Y93.855 E.01853
G1 X103.03 Y94.156 E.01854
G1 X102.478 Y94.367 E.01853
G1 X101.898 Y94.482 E.01854
G1 X101.307 Y94.498 E.01854
G1 X100.722 Y94.413 E.01853
G1 X100.16 Y94.23 E.01853
G1 X99.637 Y93.955 E.01853
G1 X99.167 Y93.596 E.01854
G1 X98.765 Y93.163 E.01853
G1 X98.443 Y92.667 E.01854
M73 Q1 S75
G1 X98.208 Y92.125 E.01852
M73 P1 R75
G1 X98.069 Y91.55 E.01855
G1 X98.028 Y90.961 E.01851
G1 X98.088 Y90.372 E.01856
G1 X98.247 Y89.803 E.01852
G1 X98.499 Y89.268 E.01854
G1 X98.838 Y88.784 E.01853
G1 X99.254 Y88.364 E.01854
G1 X99.735 Y88.021 E.01852
G1 X100.268 Y87.763 E.01857
G1 X100.836 Y87.6 E.01853
G1 X101.423 Y87.535 E.01852
G1 X101.934 Y87.564 E.01605
G1 X102.547 Y87.694 E.01965
G1 X103.134 Y87.933 E.01987
G1 X103.63 Y88.25 E.01846
G1 X104.048 Y88.632 E.01775
M204 S1000
G1 X104.48 Y88.587 F10800
;WIPE_START
G1 F8640
G1 X104.433 Y89.115 E-.14262
G1 X104.712 Y89.636 E-.13646
G1 X104.9 Y90.197 E-.13662
G1 X104.99 Y90.781 E-.13644
G1 X104.98 Y91.372 E-.13648
G1 X104.871 Y91.953 E-.13649
G1 X104.664 Y92.507 E-.13656
G1 X104.581 Y92.651 E-.03833
;WIPE_END
G1 Z.4 F720
G1 X126.874 Y76.485 F10800
G1 Z.2 F720
G1 E1 F2100
M204 S800
;TYPE:Solid infill
;WIDTH:0.423371
G1 F1200
G1 X118.212 Y67.824 E.3875
G1 X117.674 Y67.824 E.01702
G1 X126.704 Y76.854 E.40399
G1 X126.704 Y77.392 E.01702
G1 X117.136 Y67.824 E.42805
G1 X116.598 Y67.824 E.01702
G1 X126.704 Y77.93 E.45212
G1 X126.704 Y78.468 E.01702
G1 X116.06 Y67.824 E.47619
G1 X115.522 Y67.824 E.01702
G1 X126.704 Y79.006 E.50026
G1 X126.704 Y79.544 E.01702
G1 X114.984 Y67.824 E.52433
G1 X114.446 Y67.824 E.01702
G1 X126.704 Y80.082 E.5484
G1 X126.704 Y80.62 E.01702
G1 X113.908 Y67.824 E.57247
G1 X113.37 Y67.824 E.01702
G1 X126.704 Y81.158 E.59654
G1 X126.704 Y81.696 E.01702
G1 X112.832 Y67.824 E.62061
G1 X112.294 Y67.824 E.01702
G1 X126.704 Y82.234 E.64468
G1 X126.704 Y82.772 E.01702
G1 X123.973 Y80.041 E.12218
G1 X124.229 Y80.629 E.02029
G1 X124.307 Y80.913 E.00932
G1 X126.704 Y83.31 E.10724
G1 X126.704 Y83.848 E.01702
G1 X124.513 Y81.657 E.09802
G1 X124.59 Y82.272 E.01961
G1 X126.704 Y84.386 E.09458
G1 X126.704 Y84.924 E.01702
G1 X124.655 Y82.875 E.09167
G1 X124.646 Y83.404 E.01674
G1 X126.704 Y85.462 E.09207
G1 X126.704 Y86 E.01702
G1 X124.617 Y83.913 E.09337
G1 X124.543 Y84.377 E.01486
G1 X126.704 Y86.538 E.09668
G1 X126.704 Y87.076 E.01702
G1 X124.469 Y84.841 E.09999
G1 X124.451 Y84.954 E.00362
G1 X124.353 Y85.263 E.01025
G1 X126.704 Y87.614 E.10518
G1 X126.704 Y88.152 E.01702
G1 X124.223 Y85.672 E.11097
G1 X124.082 Y86.068 E.0133
G1 X126.704 Y88.69 E.1173
G1 X126.704 Y89.228 E.01702
G1 X123.907 Y86.432 E.12511
G1 X123.733 Y86.795 E.01273
G1 X126.704 Y89.767 E.13294
G1 X126.704 Y90.305 E.01702
G1 X123.533 Y87.134 E.14186
G1 X123.397 Y87.341 E.00784
G1 X123.611 Y87.749 E.01457
G1 X126.704 Y90.843 E.1384
G1 X126.704 Y91.381 E.01702
G1 X124.004 Y88.68 E.12082
G1 X124.216 Y89.43 E.02466
G1 X126.704 Y91.919 E.11133
G1 X126.704 Y92.457 E.01702
G1 X124.338 Y90.091 E.10585
G1 X124.393 Y90.684 E.01884
G1 X126.704 Y92.995 E.10339
G1 X126.704 Y93.533 E.01702
G1 X124.408 Y91.237 E.10272
G1 X124.39 Y91.757 E.01646
G1 X126.704 Y94.071 E.10352
G1 X126.704 Y94.176 E.00332
G1 X126.488 Y94.392 E.00966
G1 X124.33 Y92.235 E.09652
G1 X124.246 Y92.689 E.01461
G1 X126.218 Y94.661 E.08822
G1 X125.949 Y94.93 E.01203
G1 X124.143 Y93.124 E.0808
G1 X124.018 Y93.536 E.01362
G1 X125.68 Y95.199 E.07438
G1 X125.411 Y95.468 E.01203
G1 X123.874 Y93.931 E.06876
G1 X123.715 Y94.31 E.013
G1 X125.142 Y95.737 E.06384
G1 X124.873 Y96.006 E.01203
G1 X123.537 Y94.67 E.05977
G1 X123.344 Y95.015 E.01251
G1 X124.604 Y96.275 E.05637
G1 X124.335 Y96.544 E.01203
G1 X123.133 Y95.342 E.05378
G1 X122.92 Y95.667 E.01229
G1 X124.066 Y96.813 E.05127
G1 X123.797 Y97.082 E.01203
G1 X122.676 Y95.961 E.05015
G1 X122.432 Y96.255 E.01209
G1 X123.528 Y97.351 E.04903
G1 X123.259 Y97.62 E.01203
G1 X122.167 Y96.528 E.04885
G1 X121.891 Y96.791 E.01206
G1 X122.99 Y97.89 E.04917
G1 X122.721 Y98.159 E.01203
G1 X121.6 Y97.037 E.05017
G1 X121.293 Y97.268 E.01215
G1 X122.452 Y98.428 E.05187
G1 X122.183 Y98.697 E.01203
G1 X120.984 Y97.497 E.05366
G1 X120.638 Y97.689 E.01252
G1 X121.914 Y98.966 E.05711
G1 X121.645 Y99.235 E.01203
G1 X120.292 Y97.881 E.06055
G1 X119.944 Y98.071 E.01254
M73 P1 R74
G1 X121.376 Y99.504 E.06409
