; generated by PrusaSlicer 2.6.1+win64 on 2023-09-17 at 15:41:08 UTC


;
;
; 

; external perimeters extrusion width = 0.45mm
; perimeters extrusion width = 0.45mm
; infill extrusion width = 0.45mm
; solid infill extrusion width = 0.45mm
; top infill extrusion width = 0.40mm
; first layer extrusion width = 0.42mm

M73 P0 R42
M73 Q0 S42
M201 X1000 Y1000 Z200 E5000 ; sets maximum accelerations, mm/sec^2
M203 X200 Y200 Z12 E120 ; sets maximum feedrates, mm / sec
M204 S1250 T1250 ; sets acceleration (S) and retract acceleration (R), mm/sec^2
M205 X8.00 Y8.00 Z0.40 E4.50 ; sets the jerk limits, mm/sec
M205 S0 T0 ; sets the minimum extruding and travel feed rate, mm/sec
;TYPE:Custom
M862.3 P "MK3S" ; printer model check
M862.1 P0.4 ; nozzle diameter check
M115 U3.12.2 ; tell printer latest fw version
G90 ; use absolute coordinates
M83 ; extruder relative mode
M104 S240 ; set extruder temp
M140 S85 ; set bed temp
M190 S85 ; wait for bed temp
M109 S240 ; wait for extruder temp
G28 W ; home all without mesh bed level
G80 ; mesh bed leveling

G1 Z0.2 F720
G1 Y-3 F1000 ; go outside print area
G92 E0
G1 X60 E9 F1000 ; intro line
G1 X100 E12.5 F1000 ; intro line

G92 E0
M221 S95

; Don't change E values below. Excessive value can damage the printer.
M907 E430 ; set extruder motor current
G21 ; set units to millimeters
G90 ; use absolute coordinates
M83 ; use relative distances for extrusion
M900 K0.08 ; Filament gcode LA 1.5
M900 K45 ; Filament gcode LA 1.0
M107
;LAYER_CHANGE
;Z:0.2
;HEIGHT:0.2
;BEFORE_LAYER_CHANGE
G92 E0.0
;0.2


G1 E-1 F2100
G1 Z.2 F720
;AFTER_LAYER_CHANGE
;0.2
G1 Z.4
G1 X103.111 Y95.359 F10800
G1 Z.2 F720
G1 E1 F2100
M204 S800
;TYPE:Skirt/Brim
;WIDTH:0.42
G1 F1200
G1 X115.444 Y83.026 E.54687
G1 X117.125 Y82.33 E.05705
G1 X136.059 Y82.33 E.59366
G1 X137.74 Y83.026 E.05705
G1 X146.889 Y92.175 E.40568
G1 X147.585 Y93.856 E.05705
G1 X147.585 Y112.651 E.5893
G1 X146.889 Y114.332 E.05705
G1 X134.247 Y126.974 E.56057
G1 X132.566 Y127.67 E.05705
G1 X114.27 Y127.67 E.57366
G1 X112.589 Y126.974 E.05705
G1 X103.111 Y117.496 E.42027
G1 X102.415 Y115.815 E.05705
G1 X102.415 Y97.039 E.58871
M73 P0 R41
G1 X103.088 Y95.414 E.05515
M204 S1000
; printing object Rear_Left_Wheel_Mount_Tool_rev0 id:0 copy 0
;WIPE_START
G1 F8640
G1 X106.146 Y92.348 E-1
;WIPE_END
G1 Z.4 F720
G1 X144.421 Y112.325 F10800
G1 Z.2 F720
G1 E1 F2100
M204 S800
;TYPE:Perimeter
;WIDTH:0.419999
G1 F1200
G1 X132.24 Y124.506 E.54013
G1 X114.596 Y124.506 E.55321
G1 X105.579 Y115.489 E.39983
G1 X105.579 Y97.365 E.56826
G1 X117.451 Y85.494 E.5264
G1 X135.733 Y85.494 E.57322
G1 X144.421 Y94.182 E.38524
G1 X144.421 Y112.265 E.56698
M204 S1000
G1 X144.798 Y112.482 F10800
M204 S800
;TYPE:External perimeter
G1 F1200
G1 X132.396 Y124.883 E.5499
G1 X114.44 Y124.883 E.563
G1 X105.202 Y115.645 E.40963
G1 X105.202 Y97.209 E.57805
G1 X117.295 Y85.117 E.5362
M73 P1 R41
M73 Q1 S42
G1 X135.889 Y85.117 E.583
M73 Q1 S41
G1 X144.798 Y94.026 E.39504
G1 X144.798 Y112.422 E.57679
M204 S1000
G1 X144.4 Y112.523 F10800
;WIPE_START
G1 F8640
G1 X141.743 Y115.492 E-1
;WIPE_END
G1 Z.4 F720
G1 X141.689 Y100.798 F10800
G1 Z.2 F720
G1 E1 F2100
M204 S800
;TYPE:Perimeter
G1 F1200
G1 X141.677 Y101.769 E.03045
G1 X141.609 Y102.336 E.01791
G1 X141.492 Y102.913 E.01846
G1 X141.186 Y103.864 E.03132
G1 X140.843 Y104.581 E.02492
G1 X140.371 Y105.342 E.02808
G1 X140.637 Y105.811 E.01691
G1 X140.864 Y106.275 E.0162
G1 X141.127 Y106.989 E.02386
G1 X141.29 Y107.608 E.02007
G1 X141.397 Y108.234 E.01991
G1 X141.452 Y108.989 E.02374
G1 X141.429 Y109.75 E.02387
G1 X141.348 Y110.385 E.02007
G1 X141.146 Y111.24 E.02755
G1 X140.887 Y111.962 E.02405
G1 X140.496 Y112.754 E.02769
G1 X140.081 Y113.4 E.02407
G1 X139.522 Y114.084 E.0277
G1 X138.973 Y114.619 E.02404
G1 X138.274 Y115.16 E.02771
G1 X137.181 Y115.773 E.03929
G1 X136.22 Y116.13 E.03214
G1 X135.107 Y116.363 E.03565
G1 X134.455 Y116.418 E.02052
G1 X133.454 Y116.387 E.0314
G1 X132.812 Y116.295 E.02034
G1 X131.844 Y116.039 E.03139
G1 X130.907 Y115.648 E.03183
G1 X130.034 Y115.129 E.03184
G1 X129.517 Y114.737 E.02034
G1 X128.961 Y114.223 E.02374
G1 X128.598 Y113.816 E.0171
G1 X128.156 Y113.236 E.02286
G1 X127.822 Y112.696 E.01991
G1 X127.537 Y112.128 E.01993
G1 X127.338 Y111.628 E.01687
G1 X127.12 Y110.93 E.02293
G1 X126.991 Y110.308 E.01992
G1 X126.921 Y109.666 E.02025
G1 X126.907 Y108.874 E.02484
G1 X126.978 Y108.086 E.02481
G1 X127.136 Y107.302 E.02508
G1 X127.306 Y106.765 E.01766
G1 X127.678 Y105.868 E.03045
G1 X127.984 Y105.332 E.01935
G1 X128.223 Y104.969 E.01363
G1 X127.857 Y104.293 E.0241
G1 X127.045 Y104.027 E.02679
G1 X126.458 Y103.763 E.02018
G1 X125.905 Y103.452 E.01989
G1 X125.38 Y103.094 E.01992
G1 X124.978 Y102.766 E.01627
G1 X124.311 Y102.086 E.02987
G1 X123.613 Y102.184 E.0221
G1 X122.747 Y102.215 E.02717
G1 X122.104 Y102.168 E.02021
G1 X121.478 Y102.065 E.01989
G1 X120.948 Y101.93 E.01715
G1 X120.263 Y101.698 E.02268
G1 X119.781 Y101.48 E.01659
G1 X118.669 Y100.814 E.04064
G1 X118.211 Y100.45 E.01834
G1 X117.5 Y99.745 E.03139
G1 X117.093 Y99.239 E.02036
G1 X116.56 Y98.392 E.03138
G1 X116.142 Y97.467 E.03183
G1 X115.884 Y96.612 E.028
G1 X115.721 Y95.614 E.03171
G1 X115.692 Y94.721 E.02801
G1 X115.773 Y93.837 E.02783
G1 X115.996 Y92.851 E.0317
G1 X116.304 Y92.012 E.02802
G1 X116.711 Y91.222 E.02786
G1 X117.287 Y90.392 E.03168
G1 X117.886 Y89.73 E.02799
G1 X118.559 Y89.149 E.02788
G1 X119.298 Y88.656 E.02785
G1 X120.204 Y88.208 E.03169
G1 X121.05 Y87.92 E.02802
G1 X121.919 Y87.739 E.02783
G1 X122.847 Y87.664 E.02919
G1 X123.695 Y87.7 E.02661
G1 X124.451 Y87.816 E.02398
G1 X125.227 Y88.023 E.02518
G1 X126.012 Y88.331 E.02644
G1 X126.725 Y88.709 E.0253
G1 X127.421 Y89.186 E.02646
G1 X128.088 Y89.77 E.0278
G1 X128.406 Y90.119 E.0148
G1 X128.919 Y90.04 E.01627
G1 X129.389 Y89.998 E.0148
G1 X130.092 Y89.998 E.02204
G1 X130.729 Y90.056 E.02006
G1 X131.354 Y90.17 E.01992
G1 X132.082 Y90.376 E.02372
G1 X132.678 Y90.608 E.02005
G1 X133.247 Y90.889 E.0199
G1 X133.718 Y91.172 E.01723
G1 X134.203 Y91.517 E.01866
G1 X134.686 Y91.927 E.01986
G1 X135.178 Y92.431 E.02208
G1 X135.819 Y93.267 E.03303
G1 X136.138 Y93.799 E.01945
G1 X136.313 Y94.155 E.01244
G1 X136.822 Y94.303 E.01662
G1 X137.473 Y94.566 E.02201
G1 X138.147 Y94.921 E.02388
G1 X138.781 Y95.344 E.0239
G1 X139.455 Y95.915 E.0277
G1 X139.981 Y96.474 E.02407
G1 X140.441 Y97.08 E.02385
G1 X140.836 Y97.731 E.02388
G1 X141.249 Y98.648 E.03153
G1 X141.559 Y99.742 E.03565
G1 X141.687 Y100.738 E.03149
M204 S1000
G1 X141.223 Y100.062 F10800
M204 S800
;TYPE:External perimeter
G1 F1200
G1 X141.315 Y100.8 E.02332
G1 X141.3 Y101.763 E.0302
G1 X141.235 Y102.288 E.01659
G1 X141.123 Y102.836 E.01754
G1 X140.828 Y103.747 E.03002
G1 X140.504 Y104.415 E.02328
G1 X140.225 Y104.885 E.01714
G1 X139.922 Y105.333 E.01696
G1 X140.207 Y105.792 E.01694
G1 X140.504 Y106.398 E.02116
G1 X140.773 Y107.118 E.0241
G1 X140.925 Y107.703 E.01895
G1 X141.025 Y108.297 E.01889
G1 X141.076 Y109.015 E.02257
G1 X141.052 Y109.737 E.02265
G1 X140.974 Y110.336 E.01894
G1 X140.779 Y111.152 E.02631
G1 X140.532 Y111.833 E.02271
G1 X140.158 Y112.586 E.02636
G1 X139.765 Y113.194 E.0227
G1 X139.231 Y113.844 E.02638
G1 X138.711 Y114.348 E.02271
G1 X138.021 Y114.876 E.02724
G1 X136.998 Y115.443 E.03667
G1 X136.064 Y115.783 E.03116
G1 X135.032 Y115.993 E.03302
G1 X134.425 Y116.042 E.01909
G1 X133.468 Y116.01 E.03002
G1 X132.867 Y115.922 E.01904
G1 X131.942 Y115.675 E.03002
G1 X131.055 Y115.3 E.03019
G1 X130.228 Y114.806 E.0302
G1 X129.746 Y114.438 E.01901
G1 X129.219 Y113.947 E.02258
G1 X128.881 Y113.566 E.01597
G1 X128.459 Y113.012 E.02184
G1 X128.144 Y112.499 E.01887
G1 X127.875 Y111.96 E.01889
G1 X127.689 Y111.49 E.01585
G1 X127.482 Y110.823 E.0219
G1 X127.361 Y110.233 E.01888
G1 X127.296 Y109.626 E.01914
G1 X127.284 Y108.874 E.02358
G1 X127.353 Y108.126 E.02355
G1 X127.505 Y107.38 E.02387
G1 X127.665 Y106.881 E.01643
G1 X128.022 Y106.021 E.0292
G1 X128.311 Y105.52 E.01813
G1 X128.677 Y104.984 E.02035
G1 X128.393 Y104.528 E.01684
G1 X128.121 Y103.972 E.01941
G1 X127.171 Y103.672 E.03124
G1 X126.615 Y103.42 E.01914
G1 X126.09 Y103.124 E.0189
G1 X125.594 Y102.784 E.01885
G1 X125.129 Y102.401 E.01889
G1 X124.443 Y101.678 E.03125
G1 X123.936 Y101.774 E.01618
G1 X123.336 Y101.832 E.0189
G1 X122.744 Y101.838 E.01856
G1 X122.134 Y101.792 E.01918
G1 X121.54 Y101.693 E.01888
G1 X121.043 Y101.565 E.01609
G1 X120.389 Y101.343 E.02165
G1 X119.841 Y101.094 E.01887
G1 X118.903 Y100.519 E.0345
G1 X118.445 Y100.155 E.01834
G1 X117.767 Y99.478 E.03004
G1 X117.388 Y99.004 E.01903
G1 X116.88 Y98.192 E.03003
G1 X116.486 Y97.313 E.0302
G1 X116.245 Y96.505 E.02644
G1 X116.093 Y95.555 E.03017
G1 X116.069 Y94.711 E.02647
G1 X116.149 Y93.873 E.02639
G1 X116.363 Y92.935 E.03017
G1 X116.658 Y92.144 E.02647
G1 X117.045 Y91.397 E.02638
G1 X117.595 Y90.608 E.03016
G1 X118.164 Y89.985 E.02645
G1 X118.804 Y89.436 E.02644
G1 X119.506 Y88.97 E.02642
G1 X120.37 Y88.547 E.03016
G1 X121.169 Y88.278 E.02643
G1 X121.995 Y88.108 E.02644
G1 X122.875 Y88.041 E.02767
G1 X123.677 Y88.076 E.02517
G1 X124.392 Y88.188 E.02269
G1 X125.128 Y88.387 E.02391
G1 X125.873 Y88.682 E.02512
G1 X126.547 Y89.041 E.02394
G1 X127.207 Y89.496 E.02513
G1 X127.838 Y90.053 E.02639
G1 X128.267 Y90.53 E.02011
G1 X128.771 Y90.434 E.01609
G1 X129.371 Y90.375 E.0189
G1 X130.092 Y90.375 E.02261
G1 X130.693 Y90.432 E.01893
G1 X131.285 Y90.541 E.01887
G1 X131.978 Y90.738 E.02259
G1 X132.54 Y90.959 E.01893
G1 X133.079 Y91.227 E.01887
G1 X133.523 Y91.495 E.01626
G1 X133.983 Y91.824 E.01773
G1 X134.441 Y92.214 E.01886
G1 X134.879 Y92.66 E.0196
G1 X135.52 Y93.496 E.03303
G1 X135.813 Y93.991 E.01804
G1 X136.046 Y94.471 E.01673
G1 X136.661 Y94.646 E.02005
G1 X137.332 Y94.916 E.02268
G1 X137.97 Y95.254 E.02264
G1 X138.57 Y95.657 E.02266
G1 X139.21 Y96.202 E.02636
G1 X139.705 Y96.731 E.02272
G1 X140.14 Y97.307 E.02263
G1 X140.513 Y97.926 E.02266
G1 X140.914 Y98.828 E.03095
G1 X141.196 Y99.843 E.03303
G1 X141.216 Y100.003 E.00506
M204 S1000
G1 X141.598 Y100.203 F10800
;WIPE_START
G1 F8640
G1 X141.315 Y100.8 E-.18544
G1 X141.3 Y101.763 E-.22239
G1 X141.235 Y102.288 E-.12215
G1 X141.123 Y102.836 E-.12915
G1 X140.828 Y103.747 E-.22111
G1 X140.602 Y104.214 E-.11976
;WIPE_END
G1 Z.4 F720
G1 X121.739 Y106.429 F10800
G1 Z.2 F720
G1 E1 F2100
M204 S800
;TYPE:Perimeter
G1 F1200
G1 X122.108 Y106.894 E.01861
G1 X122.423 Y107.468 E.02053
G1 X122.635 Y108.088 E.02054
G1 X122.74 Y108.734 E.02052
G1 X122.735 Y109.389 E.02054
G1 X122.618 Y110.033 E.02052
G1 X122.448 Y110.508 E.01582
G1 X122.119 Y111.135 E.0222
G1 X121.654 Y111.724 E.02353
G1 X121.242 Y112.082 E.01711
G1 X120.611 Y112.483 E.02344
G1 X119.988 Y112.729 E.021
G1 X119.347 Y112.862 E.02053
G1 X118.693 Y112.884 E.02052
G1 X118.044 Y112.795 E.02054
G1 X117.419 Y112.598 E.02055
G1 X116.837 Y112.298 E.02053
G1 X116.314 Y111.904 E.02053
G1 X115.865 Y111.427 E.02054
G1 X115.503 Y110.881 E.02054
G1 X115.239 Y110.282 E.02052
G1 X115.079 Y109.647 E.02053
G1 X115.029 Y108.994 E.02053
G1 X115.091 Y108.342 E.02054
G1 X115.261 Y107.709 E.02055
G1 X115.536 Y107.115 E.02052
G1 X115.908 Y106.576 E.02053
G1 X116.365 Y106.107 E.02053
G1 X116.895 Y105.722 E.02054
G1 X117.482 Y105.432 E.02053
G1 X118.11 Y105.246 E.02054
G1 X118.761 Y105.169 E.02055
G1 X119.336 Y105.197 E.01805
G1 X120.012 Y105.336 E.02164
G1 X120.659 Y105.595 E.02185
G1 X121.212 Y105.943 E.02049
G1 X121.701 Y106.382 E.0206
M204 S1000
G1 X121.467 Y106.684 F10800
M204 S800
;TYPE:External perimeter
G1 F1200
G1 X121.81 Y107.124 E.01749
G1 X122.09 Y107.645 E.01855
G1 X122.277 Y108.206 E.01854
G1 X122.367 Y108.79 E.01853
G1 X122.358 Y109.381 E.01853
G1 X122.248 Y109.962 E.01854
G1 X122.042 Y110.516 E.01853
G1 X121.745 Y111.027 E.01853
G1 X121.366 Y111.481 E.01854
G1 X120.916 Y111.864 E.01853
G1 X120.42 Y112.158 E.01808
G1 X119.855 Y112.377 E.019
G1 X119.275 Y112.491 E.01853
G1 X118.685 Y112.507 E.01851
G1 X118.099 Y112.422 E.01857
G1 X117.537 Y112.239 E.01853
G1 X117.014 Y111.965 E.01851
G1 X116.545 Y111.605 E.01854
G1 X116.143 Y111.172 E.01853
G1 X115.82 Y110.676 E.01856
G1 X115.585 Y110.134 E.01852
G1 X115.446 Y109.559 E.01855
G1 X115.406 Y108.97 E.01851
G1 X115.466 Y108.382 E.01853
G1 X115.624 Y107.812 E.01855
G1 X115.876 Y107.278 E.01851
G1 X116.216 Y106.793 E.01857
G1 X116.632 Y106.373 E.01854
G1 X117.113 Y106.03 E.01852
G1 X117.645 Y105.773 E.01852
G1 X118.213 Y105.609 E.01854
G1 X118.8 Y105.544 E.01852
G1 X119.312 Y105.574 E.01608
G1 X119.924 Y105.703 E.01961
G1 X120.511 Y105.942 E.01987
G1 X121.007 Y106.259 E.01846
G1 X121.426 Y106.641 E.01778
M204 S1000
G1 X121.857 Y106.596 F10800
;WIPE_START
G1 F8640
G1 X121.81 Y107.124 E-.14248
G1 X122.09 Y107.645 E-.13657
G1 X122.277 Y108.206 E-.13654
G1 X122.367 Y108.79 E-.13644
G1 X122.358 Y109.381 E-.13648
G1 X122.248 Y109.962 E-.13654
G1 X122.042 Y110.516 E-.13648
G1 X121.958 Y110.66 E-.03847
;WIPE_END
G1 Z.4 F720
G1 X144.251 Y94.494 F10800
G1 Z.2 F720
G1 E1 F2100
M204 S800
;TYPE:Solid infill
;WIDTH:0.423371
G1 F1200
G1 X135.59 Y85.833 E.38748
G1 X135.052 Y85.833 E.01702
G1 X144.081 Y94.863 E.40396
G1 X144.081 Y95.401 E.01702
G1 X134.514 Y85.833 E.42803
G1 X133.976 Y85.833 E.01702
G1 X144.081 Y95.939 E.4521
G1 X144.081 Y96.477 E.01702
G1 X133.438 Y85.833 E.47617
G1 X132.9 Y85.833 E.01702
G1 X144.081 Y97.015 E.50024
G1 X144.081 Y97.553 E.01702
G1 X132.361 Y85.833 E.52433
G1 X131.823 Y85.833 E.01702
G1 X144.081 Y98.091 E.5484
G1 X144.081 Y98.629 E.01702
G1 X131.285 Y85.833 E.57247
G1 X130.747 Y85.833 E.01702
G1 X144.081 Y99.167 E.59654
G1 X144.081 Y99.705 E.01702
G1 X130.209 Y85.833 E.62061
G1 X129.671 Y85.833 E.01702
M73 P2 R41
M73 Q2 S41
G1 X144.081 Y100.243 E.64468
G1 X144.081 Y100.781 E.01702
G1 X141.351 Y98.051 E.12214
G1 X141.602 Y98.626 E.01985
G1 X141.684 Y98.921 E.00969
G1 X144.081 Y101.319 E.10726
G1 X144.081 Y101.857 E.01702
G1 X141.889 Y99.665 E.09807
G1 X141.966 Y100.28 E.01961
G1 X144.081 Y102.395 E.09462
G1 X144.081 Y102.933 E.01702
G1 X142.032 Y100.884 E.09167
G1 X142.023 Y101.413 E.01674
G1 X144.081 Y103.471 E.09207
G1 X144.081 Y104.009 E.01702
G1 X141.999 Y101.927 E.09314
G1 X141.941 Y102.407 E.0153
G1 X144.081 Y104.547 E.09574
G1 X144.081 Y105.086 E.01705
G1 X141.85 Y102.854 E.09983
G1 X141.732 Y103.274 E.0138
G1 X144.081 Y105.624 E.10511
G1 X144.081 Y106.162 E.01702
G1 X141.601 Y103.681 E.11097
G1 X141.459 Y104.077 E.01331
G1 X144.081 Y106.7 E.11733
G1 X144.081 Y107.238 E.01702
G1 X141.285 Y104.441 E.12511
G1 X141.11 Y104.805 E.01278
G1 X144.081 Y107.776 E.13292
G1 X144.081 Y108.314 E.01702
G1 X140.911 Y105.143 E.14184
G1 X140.774 Y105.35 E.00785
G1 X140.987 Y105.758 E.01456
G1 X144.081 Y108.852 E.13842
G1 X144.081 Y109.39 E.01702
G1 X141.374 Y106.683 E.12111
G1 X141.47 Y106.95 E.00898
G1 X141.595 Y107.441 E.01603
G1 X144.081 Y109.928 E.11124
G1 X144.081 Y110.466 E.01702
G1 X141.716 Y108.1 E.10583
G1 X141.771 Y108.693 E.01884
G1 X144.081 Y111.004 E.10337
G1 X144.081 Y111.542 E.01702
G1 X141.786 Y109.246 E.1027
G1 X141.768 Y109.766 E.01646
G1 X144.081 Y112.08 E.1035
G1 X144.081 Y112.185 E.00332
G1 X143.865 Y112.401 E.00966
G1 X141.707 Y110.244 E.09652
G1 X141.624 Y110.698 E.0146
G1 X143.596 Y112.67 E.08822
G1 X143.327 Y112.939 E.01203
G1 X141.52 Y111.133 E.08082
G1 X141.396 Y111.547 E.01367
G1 X143.058 Y113.208 E.07433
G1 X142.789 Y113.478 E.01206
G1 X141.254 Y111.943 E.06867
G1 X141.09 Y112.316 E.01289
G1 X142.52 Y113.747 E.064
G1 X142.251 Y114.016 E.01203
G1 X140.912 Y112.677 E.0599
G1 X140.723 Y113.026 E.01256
G1 X141.982 Y114.285 E.05633
G1 X141.713 Y114.554 E.01203
G1 X140.511 Y113.352 E.05378
G1 X140.297 Y113.676 E.01228
G1 X141.444 Y114.823 E.05131
G1 X141.175 Y115.092 E.01203
G1 X140.053 Y113.97 E.0502
G1 X139.809 Y114.264 E.01209
G1 X140.906 Y115.361 E.04908
G1 X140.637 Y115.63 E.01203
G1 X139.544 Y114.537 E.0489
G1 X139.269 Y114.8 E.01204
G1 X140.368 Y115.899 E.04917
G1 X140.099 Y116.168 E.01203
G1 X138.977 Y115.046 E.0502
G1 X138.67 Y115.277 E.01215
G1 X139.829 Y116.437 E.05187
G1 X139.56 Y116.706 E.01203
G1 X138.361 Y115.507 E.05364
G1 X138.015 Y115.698 E.0125
G1 X139.291 Y116.975 E.05711
G1 X139.022 Y117.244 E.01203
G1 X137.669 Y115.89 E.06055
