; generated by PrusaSlicer 2.6.1+win64 on 2023-09-12 at 09:18:24 UTC


;
;
; 

; external perimeters extrusion width = 0.45mm
; perimeters extrusion width = 0.45mm
; infill extrusion width = 0.45mm
; solid infill extrusion width = 0.45mm
; top infill extrusion width = 0.40mm
; first layer extrusion width = 0.42mm

M73 P0 R70
M73 Q0 S70
M201 X1000 Y1000 Z200 E5000 ; sets maximum accelerations, mm/sec^2
M203 X200 Y200 Z12 E120 ; sets maximum feedrates, mm / sec
M204 S1250 T1250 ; sets acceleration (S) and retract acceleration (R), mm/sec^2
M205 X8.00 Y8.00 Z0.40 E4.50 ; sets the jerk limits, mm/sec
M205 S0 T0 ; sets the minimum extruding and travel feed rate, mm/sec
;TYPE:Custom
M862.3 P "MK3S" ; printer model check
M862.1 P0.4 ; nozzle diameter check
M115 U3.12.2 ; tell printer latest fw version
G90 ; use absolute coordinates
M83 ; extruder relative mode
M104 S240 ; set extruder temp
M140 S85 ; set bed temp
M190 S85 ; wait for bed temp
M109 S240 ; wait for extruder temp
G28 W ; home all without mesh bed level
G80 ; mesh bed leveling

G1 Z0.2 F720
G1 Y-3 F1000 ; go outside print area
G92 E0
G1 X60 E9 F1000 ; intro line
G1 X100 E12.5 F1000 ; intro line

G92 E0
M221 S95

; Don't change E values below. Excessive value can damage the printer.
M907 E430 ; set extruder motor current
G21 ; set units to millimeters
G90 ; use absolute coordinates
M83 ; use relative distances for extrusion
M900 K0.08 ; Filament gcode LA 1.5
M900 K45 ; Filament gcode LA 1.0
M107
;LAYER_CHANGE
;Z:0.2
;HEIGHT:0.2
;BEFORE_LAYER_CHANGE
G92 E0.0
;0.2


G1 E-1 F2100
G1 Z.2 F720
;AFTER_LAYER_CHANGE
;0.2
G1 Z.4
G1 X100.719 Y98.46 F10800
G1 Z.2 F720
G1 E1 F2100
M204 S800
;TYPE:Skirt/Brim
;WIDTH:0.42
G1 F1200
G1 X117.464 Y81.716 E.74248
G1 X119.144 Y81.019 E.05703
G1 X132.759 Y81.019 E.42689
G1 X134.44 Y81.716 E.05706
G1 X149.281 Y96.557 E.65807
G1 X149.977 Y98.238 E.05705
G1 X149.977 Y117.079 E.59075
G1 X149.281 Y118.76 E.05705
G1 X139.756 Y128.284 E.42233
G1 X138.076 Y128.981 E.05703
G1 X115.429 Y128.981 E.71008
G1 X113.748 Y128.284 E.05706
G1 X100.719 Y115.256 E.57771
G1 X100.023 Y113.575 E.05705
G1 X100.023 Y100.141 E.42121
M73 P0 R69
G1 X100.696 Y98.515 E.05518
M204 S1000
; printing object Rear_Left_Wheel_Mount_Tool_rev0 id:0 copy 0
;WIPE_START
G1 F8640
G1 X103.756 Y95.45 E-1
;WIPE_END
G1 Z.4 F720
G1 X115.911 Y125.439 F10800
G1 Z.2 F720
G1 E1 F2100
M204 S800
;TYPE:Perimeter
;WIDTH:0.419999
G1 F1200
G1 X103.564 Y113.093 E.54746
G1 X103.564 Y100.623 E.39099
G1 X119.627 Y84.561 E.71224
G1 X132.277 Y84.561 E.39663
G1 X146.436 Y98.72 E.62783
G1 X146.436 Y116.597 E.56052
G1 X137.593 Y125.439 E.39209
G1 X115.971 Y125.439 E.67794
M204 S1000
G1 X115.755 Y125.817 F10800
M204 S800
G1 F1200
G1 X103.187 Y113.249 E.55729
G1 X103.187 Y100.467 E.40077
G1 X119.47 Y84.183 E.72204
G1 X132.433 Y84.183 E.40645
G1 X146.813 Y98.564 E.63765
G1 X146.813 Y116.753 E.5703
G1 X137.75 Y125.817 E.40189
G1 X115.815 Y125.817 E.68776
M204 S1000
G1 X115.599 Y126.194 F10800
M204 S800
;TYPE:External perimeter
G1 F1200
G1 X102.81 Y113.405 E.56708
G1 X102.81 Y100.311 E.41055
G1 X119.314 Y83.806 E.73184
G1 X132.589 Y83.806 E.41623
G1 X147.19 Y98.407 E.64743
G1 X147.19 Y116.909 E.58012
G1 X137.906 Y126.194 E.41169
G1 X115.659 Y126.194 E.69754
M204 S1000
G1 X115.561 Y125.795 F10800
;WIPE_START
G1 F8640
G1 X112.589 Y123.139 E-1
;WIPE_END
G1 Z.4 F720
G1 X127.923 Y105.895 F10800
G1 Z.2 F720
G1 E1 F2100
M204 S800
;TYPE:Perimeter
G1 F1200
G1 X128.188 Y105.343 E.0192
G1 X128.604 Y104.757 E.02253
G1 X129.114 Y104.25 E.02255
G1 X129.702 Y103.836 E.02255
G1 X130.351 Y103.528 E.02252
G1 X131.043 Y103.334 E.02253
G1 X131.758 Y103.259 E.02254
G1 X132.475 Y103.307 E.02253
G1 X133.173 Y103.475 E.02251
G1 X133.834 Y103.758 E.02254
G1 X134.437 Y104.15 E.02255
G1 X134.965 Y104.637 E.02252
G1 X135.403 Y105.207 E.02254
G1 X135.739 Y105.842 E.02253
G1 X135.962 Y106.525 E.02253
M73 Q0 S69
G1 X136.067 Y107.236 E.02253
G1 X136.05 Y107.955 E.02255
G1 X135.912 Y108.66 E.02252
G1 X135.656 Y109.332 E.02255
G1 X135.291 Y109.951 E.02253
G1 X134.827 Y110.499 E.02251
G1 X134.276 Y110.961 E.02255
G1 X133.655 Y111.324 E.02255
G1 X132.982 Y111.576 E.02253
G1 X132.277 Y111.711 E.02251
G1 X131.558 Y111.724 E.02255
G1 X130.847 Y111.616 E.02255
G1 X130.165 Y111.389 E.02254
G1 X129.531 Y111.051 E.02253
G1 X128.964 Y110.61 E.02252
G1 X128.479 Y110.079 E.02255
G1 X128.091 Y109.475 E.02251
G1 X127.81 Y108.813 E.02255
G1 X127.646 Y108.115 E.02248
G1 X127.611 Y107.615 E.01572
G1 X127.618 Y107.159 E.0143
G1 X127.698 Y106.578 E.01839
G1 X127.897 Y105.949 E.02069
M204 S1000
G1 X128.261 Y106.052 F10800
M204 S800
G1 F1200
G1 X128.525 Y105.513 E.01882
G1 X128.908 Y104.981 E.02055
G1 X129.375 Y104.522 E.02053
G1 X129.913 Y104.149 E.02053
G1 X130.506 Y103.872 E.02052
G1 X131.138 Y103.699 E.02054
G1 X131.79 Y103.635 E.02054
G1 X132.443 Y103.683 E.02053
G1 X133.078 Y103.84 E.02051
G1 X133.679 Y104.102 E.02056
G1 X134.226 Y104.462 E.02053
G1 X134.704 Y104.909 E.02052
G1 X135.1 Y105.431 E.02054
G1 X135.402 Y106.012 E.02053
G1 X135.602 Y106.636 E.02055
G1 X135.693 Y107.284 E.02052
G1 X135.673 Y107.939 E.02055
G1 X135.543 Y108.581 E.02054
G1 X135.307 Y109.191 E.02051
G1 X134.97 Y109.753 E.02055
G1 X134.544 Y110.25 E.02052
G1 X134.039 Y110.668 E.02055
G1 X133.472 Y110.994 E.02051
G1 X132.857 Y111.22 E.02054
G1 X132.213 Y111.339 E.02053
G1 X131.558 Y111.347 E.02054
G1 X130.911 Y111.244 E.02054
G1 X130.291 Y111.034 E.02052
G1 X129.715 Y110.722 E.02054
G1 X129.201 Y110.316 E.02054
G1 X128.762 Y109.83 E.02053
G1 X128.412 Y109.277 E.02052
G1 X128.16 Y108.672 E.02055
G1 X128.014 Y108.036 E.02046
G1 X127.979 Y107.373 E.02082
G1 X128.065 Y106.667 E.0223
G1 X128.236 Y106.106 E.01839
M204 S1000
G1 X128.593 Y106.226 F10800
M204 S800
;TYPE:External perimeter
G1 F1200
G1 X128.861 Y105.682 E.01901
G1 X129.211 Y105.205 E.01855
G1 X129.636 Y104.794 E.01854
G1 X130.124 Y104.461 E.01852
G1 X130.661 Y104.215 E.01852
G1 X131.233 Y104.064 E.01855
G1 X131.822 Y104.011 E.01854
G1 X132.411 Y104.058 E.01853
G1 X132.983 Y104.205 E.01852
G1 X133.523 Y104.446 E.01854
G1 X134.014 Y104.774 E.01851
G1 X134.443 Y105.181 E.01854
G1 X134.797 Y105.655 E.01855
G1 X135.065 Y106.182 E.01854
G1 X135.241 Y106.746 E.01852
G1 X135.319 Y107.332 E.01854
G1 X135.296 Y107.923 E.01854
G1 X135.175 Y108.501 E.01852
G1 X134.957 Y109.051 E.01855
G1 X134.649 Y109.555 E.01852
G1 X134.261 Y110.001 E.01854
G1 X133.802 Y110.374 E.01854
G1 X133.288 Y110.665 E.01852
G1 X132.731 Y110.865 E.01856
G1 X132.149 Y110.967 E.01853
G1 X131.558 Y110.97 E.01853
G1 X130.975 Y110.873 E.01853
G1 X130.417 Y110.678 E.01853
G1 X129.899 Y110.392 E.01855
G1 X129.438 Y110.023 E.01851
G1 X129.045 Y109.581 E.01854
G1 X128.733 Y109.079 E.01853
G1 X128.51 Y108.532 E.01852
G1 X128.383 Y107.957 E.01846
G1 X128.356 Y107.357 E.01883
G1 X128.431 Y106.757 E.01896
G1 X128.576 Y106.283 E.01554
M204 S1000
G1 X128.344 Y105.913 F10800
;WIPE_START
G1 F8640
G1 X128.861 Y105.682 E-.15359
G1 X129.211 Y105.205 E-.13661
G1 X129.636 Y104.794 E-.13652
G1 X130.124 Y104.461 E-.13642
G1 X130.661 Y104.215 E-.13639
G1 X131.233 Y104.064 E-.1366
G1 X131.822 Y104.011 E-.13655
G1 X131.94 Y104.02 E-.02732
;WIPE_END
G1 Z.4 F720
G1 X146.266 Y99.031 F10800
G1 Z.2 F720
G1 E1 F2100
M204 S800
;TYPE:Solid infill
;WIDTH:0.421942
G1 F1200
G1 X132.135 Y84.9 E.62982
G1 X131.599 Y84.9 E.01689
M73 P1 R69
M73 Q1 S69
G1 X146.096 Y99.398 E.64615
G1 X146.096 Y99.934 E.01689
G1 X131.063 Y84.9 E.67004
G1 X130.527 Y84.9 E.01689
G1 X146.096 Y100.47 E.69393
G1 X146.096 Y101.006 E.01689
G1 X129.991 Y84.9 E.71782
G1 X129.455 Y84.9 E.01689
G1 X146.096 Y101.542 E.74171
G1 X146.096 Y102.078 E.01689
G1 X128.919 Y84.9 E.7656
G1 X128.382 Y84.9 E.01692
G1 X146.096 Y102.614 E.78951
G1 X146.096 Y103.15 E.01689
G1 X127.846 Y84.9 E.8134
G1 X127.31 Y84.9 E.01689
G1 X146.096 Y103.686 E.83729
G1 X146.096 Y104.222 E.01689
G1 X126.774 Y84.9 E.86118
G1 X126.238 Y84.9 E.01689
G1 X146.096 Y104.758 E.88507
G1 X146.096 Y105.294 E.01689
G1 X125.702 Y84.9 E.90896
G1 X125.166 Y84.9 E.01689
G1 X146.096 Y105.83 E.93285
G1 X146.096 Y106.366 E.01689
G1 X124.63 Y84.9 E.95674
G1 X124.094 Y84.9 E.01689
G1 X146.096 Y106.902 E.98063
G1 X146.096 Y107.438 E.01689
G1 X123.558 Y84.9 E1.00452
G1 X123.022 Y84.9 E.01689
G1 X146.096 Y107.974 E1.02841
G1 X146.096 Y108.51 E.01689
G1 X122.486 Y84.9 E1.0523
G1 X121.95 Y84.9 E.01689
G1 X146.096 Y109.046 E1.07619
G1 X146.096 Y109.582 E.01689
G1 X121.414 Y84.9 E1.10008
G1 X120.878 Y84.9 E.01689
G1 X146.096 Y110.118 E1.12397
G1 X146.096 Y110.654 E.01689
G1 X120.342 Y84.9 E1.14786
G1 X119.806 Y84.9 E.01689
M73 P1 R68
G1 X146.096 Y111.19 E1.17175
G1 X146.096 Y111.726 E.01689
G1 X119.519 Y85.148 E1.18456
G1 X119.251 Y85.416 E.01194
G1 X146.096 Y112.262 E1.19651
G1 X146.096 Y112.798 E.01689
G1 X118.983 Y85.684 E1.20845
G1 X118.715 Y85.952 E.01194
G1 X146.096 Y113.334 E1.2204
G1 X146.096 Y113.87 E.01689
M73 P2 R68
M73 Q2 S69
G1 X118.447 Y86.22 E1.23234
G1 X118.179 Y86.488 E.01194
G1 X146.096 Y114.406 E1.24429
G1 X146.096 Y114.942 E.01689
G1 X117.911 Y86.756 E1.25623
G1 X117.643 Y87.024 E.01194
G1 X146.096 Y115.478 E1.26817
G1 X146.096 Y116.014 E.01689
G1 X136.178 Y106.095 E.44207
G1 X136.288 Y106.43 E.01111
G1 X136.352 Y106.806 E.01202
G1 X146.05 Y116.503 E.43222
G1 X145.782 Y116.771 E.01194
G1 X136.412 Y107.402 E.4176
G1 X136.384 Y107.91 E.01603
G1 X145.514 Y117.039 E.4069
G1 X145.245 Y117.307 E.01197
G1 X136.319 Y108.381 E.39783
G1 X136.218 Y108.816 E.01407
G1 X144.977 Y117.575 E.39039
G1 X144.709 Y117.843 E.01194
G1 X136.068 Y109.202 E.38513
G1 X135.907 Y109.577 E.01286
G1 X144.441 Y118.111 E.38036
G1 X144.173 Y118.379 E.01194
M73 Q2 S68
G1 X135.711 Y109.917 E.37715
G1 X135.574 Y110.138 E.00819
G1 X135.493 Y110.235 E.00398
G1 X143.905 Y118.647 E.37492
G1 X143.637 Y118.916 E.01197
G1 X135.248 Y110.526 E.37392
G1 X134.994 Y110.808 E.01196
G1 X143.369 Y119.184 E.3733
G1 X143.101 Y119.452 E.01194
G1 X134.702 Y111.052 E.37437
G1 X134.402 Y111.288 E.01203
G1 X142.833 Y119.72 E.37579
G1 X142.565 Y119.988 E.01194
G1 X134.059 Y111.481 E.37914
G1 X133.715 Y111.673 E.01242
G1 X142.297 Y120.256 E.38252
G1 X142.029 Y120.524 E.01194
G1 X133.318 Y111.813 E.38825
G1 X132.912 Y111.942 E.01343
G1 X141.761 Y120.792 E.39442
G1 X141.493 Y121.06 E.01194
G1 X132.454 Y112.02 E.40289
G1 X132.226 Y112.059 E.00729
G1 X131.957 Y112.059 E.00848
G1 X141.225 Y121.328 E.4131
G1 X140.957 Y121.596 E.01194
G1 X131.416 Y112.054 E.42527
G1 X130.772 Y111.946 E.02058
G1 X140.809 Y121.984 E.44737
M204 S1000
;WIPE_START
G1 F8640
G1 X137.747 Y118.921 E-1
;WIPE_END
G1 Z.4 F720
G1 X133.514 Y103.432 F10800
G1 Z.2 F720
G1 E1 F2100
M204 S800
G1 F1200
G1 X117.375 Y87.293 E.71932
G1 X117.107 Y87.561 E.01194
G1 X132.52 Y102.974 E.68696
G1 X131.931 Y102.921 E.01864
G1 X116.839 Y87.829 E.67265
G1 X116.571 Y88.097 E.01194
G1 X131.428 Y102.953 E.66216
G1 X130.946 Y103.008 E.01529
G1 X116.303 Y88.365 E.65264
G1 X116.035 Y88.633 E.01194
G1 X130.523 Y103.121 E.64573
G1 X130.311 Y103.178 E.00692
G1 X130.126 Y103.26 E.00638
G1 X115.767 Y88.901 E.63998
G1 X115.499 Y89.169 E.01194
G1 X129.755 Y103.425 E.63539
G1 X129.415 Y103.621 E.01237
G1 X115.231 Y89.437 E.63218
G1 X114.963 Y89.705 E.01194
G1 X129.097 Y103.839 E.62995
G1 X128.96 Y103.933 E.00524
G1 X128.804 Y104.082 E.0068
G1 X114.695 Y89.973 E.62884
G1 X114.427 Y90.241 E.01194
G1 X128.531 Y104.345 E.62862
G1 X128.399 Y104.47 E.00573
G1 X128.281 Y104.631 E.00629
G1 X114.159 Y90.509 E.62942
G1 X113.891 Y90.777 E.01194
G1 X128.053 Y104.939 E.6312
G1 X127.938 Y105.095 E.00611
G1 X127.848 Y105.27 E.0062
G1 X113.622 Y91.045 E.63403
G1 X113.354 Y91.313 E.01194
G1 X127.666 Y105.625 E.63789
G1 X127.516 Y106.01 E.01302
G1 X113.086 Y91.581 E.64312
G1 X112.818 Y91.849 E.01194
G1 X127.391 Y106.422 E.64952
G1 X127.315 Y106.881 E.01466
M73 P3 R68
M73 Q3 S68
G1 X112.55 Y92.117 E.65806
G1 X112.282 Y92.385 E.01194
G1 X127.275 Y107.377 E.66822
G1 X127.285 Y107.924 E.01724
G1 X112.014 Y92.653 E.68063
G1 X111.746 Y92.921 E.01194
G1 X127.627 Y108.801 E.7078
M204 S1000
;WIPE_START
G1 F8640
G1 X124.565 Y105.739 E-1
;WIPE_END
G1 Z.4 F720
G1 X140.541 Y122.252 F10800
G1 Z.2 F720
G1 E1 F2100
M204 S800
G1 F1200
G1 X129.946 Y111.656 E.47224
G1 X129.272 Y111.29 E.02417
G1 X128.746 Y110.87 E.02121
G1 X128.598 Y110.728 E.00646
G1 X128.164 Y110.231 E.02079
G1 X127.748 Y109.557 E.02496
G1 X127.681 Y109.391 E.00564
G1 X111.478 Y93.189 E.72215
G1 X111.21 Y93.457 E.01194
G1 X140.153 Y122.4 E1.28999
G1 X139.885 Y122.668 E.01194
M73 P3 R67
G1 X110.942 Y93.725 E1.28999
G1 X110.674 Y93.993 E.01194
G1 X139.617 Y122.936 E1.28999
G1 X139.349 Y123.204 E.01194
G1 X110.406 Y94.261 E1.28999
G1 X110.138 Y94.529 E.01194
G1 X139.081 Y123.472 E1.28999
G1 X138.813 Y123.74 E.01194
G1 X109.87 Y94.797 E1.28999
G1 X109.602 Y95.065 E.01194
G1 X138.545 Y124.008 E1.28999
G1 X138.277 Y124.276 E.01194
G1 X109.334 Y95.333 E1.28999
G1 X109.066 Y95.601 E.01194
G1 X138.009 Y124.544 E1.28999
G1 X137.741 Y124.812 E.01194
G1 X108.798 Y95.869 E1.28999
G1 X108.53 Y96.137 E.01194
G1 X137.473 Y125.08 E1.28999
G1 X137.453 Y125.1 E.00089
G1 X136.958 Y125.1 E.0156
G1 X108.262 Y96.405 E1.27896
G1 X107.994 Y96.673 E.01194
M73 Q3 S67
G1 X136.422 Y125.1 E1.26702
G1 X135.886 Y125.1 E.01689
G1 X107.726 Y96.941 E1.25507
G1 X107.458 Y97.209 E.01194
G1 X135.35 Y125.1 E1.24313
G1 X134.814 Y125.1 E.01689
G1 X107.19 Y97.477 E1.23118
G1 X106.922 Y97.745 E.01194
G1 X134.277 Y125.1 E1.21921
G1 X133.741 Y125.1 E.01689
M73 P4 R67
G1 X106.654 Y98.013 E1.20727
G1 X106.386 Y98.281 E.01194
M73 Q4 S67
G1 X133.205 Y125.1 E1.19533
G1 X132.669 Y125.1 E.01689
G1 X106.118 Y98.549 E1.18338
G1 X105.85 Y98.817 E.01194
G1 X132.133 Y125.1 E1.17144
G1 X131.597 Y125.1 E.01689
G1 X105.582 Y99.085 E1.15949
G1 X105.314 Y99.353 E.01194
G1 X131.061 Y125.1 E1.14755
G1 X130.525 Y125.1 E.01689
G1 X105.046 Y99.621 E1.1356
G1 X104.778 Y99.889 E.01194
G1 X129.989 Y125.1 E1.12366
G1 X129.453 Y125.1 E.01689
G1 X104.51 Y100.157 E1.11171
G1 X104.242 Y100.425 E.01194
G1 X128.917 Y125.1 E1.09977
G1 X128.381 Y125.1 E.01689
G1 X103.974 Y100.693 E1.08782
G1 X103.904 Y100.764 E.00314
G1 X103.904 Y101.158 E.01242
G1 X127.845 Y125.1 E1.06707
G1 X127.309 Y125.1 E.01689
G1 X103.904 Y101.694 E1.04319
G1 X103.904 Y102.23 E.01689
G1 X126.773 Y125.1 E1.0193
G1 X126.237 Y125.1 E.01689
G1 X103.904 Y102.766 E.99541
G1 X103.904 Y103.302 E.01689
M73 P4 R66
G1 X125.701 Y125.1 E.97152
G1 X125.165 Y125.1 E.01689
G1 X103.904 Y103.838 E.94763
G1 X103.904 Y104.374 E.01689
G1 X124.629 Y125.1 E.92374
G1 X124.093 Y125.1 E.01689
G1 X103.904 Y104.91 E.89985
G1 X103.904 Y105.446 E.01689
G1 X123.557 Y125.1 E.87596
G1 X123.021 Y125.1 E.01689
G1 X103.904 Y105.983 E.85205
G1 X103.904 Y106.519 E.01689
G1 X122.485 Y125.1 E.82816
G1 X121.949 Y125.1 E.01689
G1 X103.904 Y107.055 E.80427
G1 X103.904 Y107.591 E.01689
G1 X121.413 Y125.1 E.78038
G1 X120.877 Y125.1 E.01689
G1 X103.904 Y108.127 E.75649
G1 X103.904 Y108.663 E.01689
G1 X120.341 Y125.1 E.7326
G1 X119.805 Y125.1 E.01689
M73 P5 R66
G1 X103.904 Y109.199 E.70871
G1 X103.904 Y109.735 E.01689
M73 Q5 S67
G1 X119.269 Y125.1 E.68482
G1 X118.733 Y125.1 E.01689
G1 X103.904 Y110.271 E.66093
G1 X103.904 Y110.807 E.01689
G1 X118.197 Y125.1 E.63704
G1 X117.661 Y125.1 E.01689
G1 X103.904 Y111.343 E.61315
G1 X103.904 Y111.879 E.01689
G1 X117.125 Y125.1 E.58926
G1 X116.589 Y125.1 E.01689
G1 X103.904 Y112.415 E.56537
G1 X103.904 Y112.951 E.01689
M73 Q5 S66
G1 X116.223 Y125.27 E.54906
M204 S1000
; stop printing object Rear_Left_Wheel_Mount_Tool_rev0 id:0 copy 0
;LAYER_CHANGE
;Z:0.3
;HEIGHT:0.1
;BEFORE_LAYER_CHANGE
G92 E0.0
;0.3


;WIPE_START
G1 F8640
G1 X113.161 Y122.208 E-1
;WIPE_END
G1 Z.4 F720
;AFTER_LAYER_CHANGE
;0.3
M104 S250 ; set temperature
M140 S90 ; set bed temperature
G1 X110.416 Y124.952 F10800
G1 Z.3 F720
G1 E1 F2100
;TYPE:Skirt/Brim
;WIDTH:0.42
G1 F3000
G1 X100.719 Y115.256 E.22721
G1 X100.023 Y113.575 E.03015
G1 X100.023 Y100.141 E.22259
G1 X100.719 Y98.46 E.03015
G1 X117.464 Y81.716 E.39237
G1 X119.144 Y81.019 E.03014
G1 X132.759 Y81.019 E.22559
G1 X134.44 Y81.716 E.03015
G1 X149.281 Y96.557 E.34776
G1 X149.977 Y98.238 E.03015
G1 X149.977 Y117.079 E.31218
