; generated by PrusaSlicer 2.6.1+win64 on 2023-09-20 at 14:30:52 UTC


;
;
; 

; external perimeters extrusion width = 0.45mm
; perimeters extrusion width = 0.45mm
; infill extrusion width = 0.45mm
; solid infill extrusion width = 0.45mm
; top infill extrusion width = 0.40mm
; first layer extrusion width = 0.42mm

M73 P0 R23
M73 Q0 S23
M201 X1000 Y1000 Z200 E5000 ; sets maximum accelerations, mm/sec^2
M203 X200 Y200 Z12 E120 ; sets maximum feedrates, mm / sec
M204 S1250 T1250 ; sets acceleration (S) and retract acceleration (R), mm/sec^2
M205 X8.00 Y8.00 Z0.40 E4.50 ; sets the jerk limits, mm/sec
M205 S0 T0 ; sets the minimum extruding and travel feed rate, mm/sec
;TYPE:Custom
M862.3 P "MK3S" ; printer model check
M862.1 P0.4 ; nozzle diameter check
M115 U3.12.2 ; tell printer latest fw version
G90 ; use absolute coordinates
M83 ; extruder relative mode
M104 S240 ; set extruder temp
M140 S85 ; set bed temp
M190 S85 ; wait for bed temp
M109 S240 ; wait for extruder temp
G28 W ; home all without mesh bed level
G80 ; mesh bed leveling

G1 Z0.2 F720
G1 Y-3 F1000 ; go outside print area
G92 E0
G1 X60 E9 F1000 ; intro line
G1 X100 E12.5 F1000 ; intro line

G92 E0
M221 S95

; Don't change E values below. Excessive value can damage the printer.
M907 E430 ; set extruder motor current
G21 ; set units to millimeters
G90 ; use absolute coordinates
M83 ; use relative distances for extrusion
M900 K0.08 ; Filament gcode LA 1.5
M900 K45 ; Filament gcode LA 1.0
M107
;LAYER_CHANGE
;Z:0.2
;HEIGHT:0.2
;BEFORE_LAYER_CHANGE
G92 E0.0
;0.2


G1 E-1 F2100
G1 Z.2 F720
;AFTER_LAYER_CHANGE
;0.2
G1 Z.4
G1 X101.886 Y94.328 F10800
G1 Z.2 F720
G1 E1 F2100
M204 S800
;TYPE:Skirt/Brim
;WIDTH:0.42
G1 F1200
G1 X113.651 Y82.563 E.52168
G1 X115.331 Y81.867 E.05702
G1 X133.597 Y81.865 E.57272
G1 X135.277 Y82.561 E.05702
G1 X148.114 Y95.398 E.56921
G1 X148.811 Y97.079 E.05706
G1 X148.811 Y113.137 E.50349
G1 X148.114 Y114.818 E.05706
G1 X135.493 Y127.439 E.55964
G1 X133.812 Y128.135 E.05705
G1 X116.807 Y128.135 E.53318
G1 X115.126 Y127.439 E.05705
G1 X101.886 Y114.198 E.58711
G1 X101.189 Y112.517 E.05706
M73 Q1 S23
G1 X101.189 Y96.009 E.5176
G1 X101.863 Y94.383 E.05519
M204 S1000
; printing object Rear_Left_Wheel_Mount_Tool_rev0-3 id:0 copy 0
;WIPE_START
M73 P1 R23
G1 F8640
G1 X104.921 Y91.316 E-1
;WIPE_END
G1 Z.4 F720
G1 X104.354 Y112.191 F10800
G1 Z.2 F720
G1 E1 F2100
M204 S800
;TYPE:Perimeter
;WIDTH:0.419999
G1 F1200
G1 X104.354 Y96.335 E.49715
G1 X115.659 Y85.029 E.5013
G1 X122.154 Y85.029 E.20365
;WIDTH:0.464556
G1 X122.253 Y85.051 E.00356
;WIDTH:0.509112
G1 X122.353 Y85.074 E.00398
;WIDTH:0.553668
G1 X122.453 Y85.096 E.00435
;WIDTH:0.598224
G1 X122.553 Y85.118 E.00473
G1 X123.053 Y85.102 E.0231
;WIDTH:0.565327
G1 X123.554 Y85.085 E.02178
;WIDTH:0.53243
G1 X126.166 Y85.085 E.10632
;WIDTH:0.536667
G1 X126.287 Y85.087 E.00497
;WIDTH:0.567445
G1 X126.727 Y85.103 E.0192
;WIDTH:0.598223
G1 X127.168 Y85.118 E.02037
G1 X127.267 Y85.096 E.00468
;WIDTH:0.553667
G1 X127.367 Y85.074 E.00435
;WIDTH:0.509111
G1 X127.467 Y85.051 E.00398
;WIDTH:0.464555
G1 X127.567 Y85.029 E.00359
;WIDTH:0.419999
G1 X133.271 Y85.029 E.17884
G1 X145.646 Y97.405 E.54875
G1 X145.646 Y97.97 E.01772
G1 X145.646 Y112.811 E.46533
G1 X133.486 Y124.971 E.53919
G1 X117.133 Y124.971 E.51274
G1 X113.657 Y121.494 E.15415
;WIDTH:0.46439
G1 X113.602 Y121.408 E.00358
;WIDTH:0.50878
G1 X113.547 Y121.322 E.00395
;WIDTH:0.553171
G1 X113.492 Y121.236 E.00433
;WIDTH:0.597561
G1 X113.437 Y121.15 E.00471
G1 X113.027 Y120.77 E.02578
;WIDTH:0.553614
G1 X112.617 Y120.391 E.02371
;WIDTH:0.509667
G1 X112.206 Y120.012 E.0217
;WIDTH:0.465719
G1 X112.126 Y119.935 E.0039
;WIDTH:0.460856
G1 X110.271 Y118.096 E.09077
;WIDTH:0.440891
G1 X110.195 Y118.018 E.0036
;WIDTH:0.480834
G1 X109.748 Y117.543 E.02375
;WIDTH:0.520777
G1 X109.3 Y117.067 E.02597
;WIDTH:0.56072
G1 X108.853 Y116.591 E.02811
;WIDTH:0.600663
G1 X108.405 Y116.115 E.03031
G1 X108.348 Y116.079 E.00313
;WIDTH:0.570877
G1 X108.291 Y116.043 E.00296
;WIDTH:0.54109
G1 X107.661 Y115.442 E.03607
;WIDTH:0.500727
G1 X107.031 Y114.84 E.03317
;WIDTH:0.460363
G1 X106.401 Y114.239 E.03022
;WIDTH:0.419999
G1 X104.396 Y112.234 E.0889
M204 S1000
G1 X103.977 Y112.348 F10800
M204 S800
;TYPE:External perimeter
G1 F1200
G1 X103.977 Y96.179 E.50697
G1 X115.503 Y84.652 E.5111
G1 X133.427 Y84.652 E.56199
M73 P1 R22
G1 X146.023 Y97.249 E.55855
G1 X146.023 Y112.967 E.49283
G1 X133.642 Y125.348 E.54899
G1 X116.977 Y125.348 E.52252
G1 X104.019 Y112.39 E.57458
M204 S1000
M73 P2 R22
M73 Q2 S22
G1 X104.222 Y112.032 F10800
;WIPE_START
G1 F8640
G1 X104.008 Y108.059 E-1
;WIPE_END
G1 Z.4 F720
G1 X105.678 Y102.869 F10800
G1 Z.2 F720
G1 E1 F2100
M204 S800
;TYPE:Perimeter
G1 F1200
G1 X106.156 Y100.169 E.08597
G1 X106.963 Y97.685 E.08189
G1 X107.03 Y97.536 E.00512
G1 X108.138 Y95.264 E.07926
G1 X109.59 Y93.102 E.08166
G1 X111.433 Y91.029 E.08697
G1 X113.492 Y89.293 E.08444
G1 X115.771 Y87.863 E.08436
G1 X118.301 Y86.736 E.08684
G1 X120.812 Y86.016 E.0819
G1 X122.208 Y85.815 E.04422
;WIDTH:0.464556
G1 X122.304 Y85.779 E.00359
;WIDTH:0.509112
G1 X122.4 Y85.743 E.00397
;WIDTH:0.553668
G1 X122.496 Y85.707 E.00435
;WIDTH:0.598224
G1 X122.591 Y85.671 E.00469
G1 X123.029 Y85.625 E.02034
;WIDTH:0.567445
G1 X123.467 Y85.579 E.01921
;WIDTH:0.536666
G1 X123.554 Y85.575 E.00358
;WIDTH:0.53243
G1 X126.166 Y85.575 E.10632
;WIDTH:0.565327
G1 X126.647 Y85.623 E.021
;WIDTH:0.598223
G1 X127.129 Y85.671 E.02237
G1 X127.225 Y85.707 E.00473
;WIDTH:0.553667
G1 X127.32 Y85.743 E.00431
;WIDTH:0.509111
G1 X127.416 Y85.779 E.00397
;WIDTH:0.464555
G1 X127.512 Y85.815 E.00359
;WIDTH:0.419999
G1 X128.908 Y86.016 E.04422
G1 X131.419 Y86.736 E.0819
G1 X133.88 Y87.826 E.08439
G1 X136.164 Y89.247 E.08434
G1 X138.286 Y91.027 E.08684
G1 X140.034 Y92.968 E.0819
G1 X141.508 Y95.144 E.08241
G1 X142.726 Y97.61 E.08624
G1 X142.986 Y98.391 E.02581
G1 X143.583 Y100.246 E.0611
G1 X144.037 Y102.818 E.08189
G1 X144.133 Y105.586 E.08684
G1 X143.86 Y108.183 E.08188
G1 X143.215 Y110.795 E.08436
G1 X142.212 Y113.292 E.08437
G1 X140.871 Y115.625 E.08437
G1 X139.166 Y117.807 E.08682
G1 X137.287 Y119.622 E.08191
G1 X135.114 Y121.208 E.08435
G1 X132.741 Y122.476 E.08436
G1 X130.214 Y123.401 E.08437
G1 X127.583 Y123.966 E.08437
G1 X124.9 Y124.159 E.08434
G1 X122.137 Y123.966 E.08684
G1 X119.582 Y123.423 E.0819
G1 X117.052 Y122.508 E.08435
G1 X114.673 Y121.25 E.08438
G1 X114.171 Y120.892 E.01933
;WIDTH:0.46439
G1 X114.078 Y120.851 E.00356
;WIDTH:0.50878
G1 X113.984 Y120.81 E.00397
;WIDTH:0.553171
G1 X113.89 Y120.77 E.00433
;WIDTH:0.597561
G1 X113.796 Y120.729 E.00473
G1 X113.358 Y120.383 E.02574
;WIDTH:0.553614
G1 X112.919 Y120.037 E.02374
;WIDTH:0.509667
G1 X112.48 Y119.691 E.02169
;WIDTH:0.465719
G1 X112.419 Y119.636 E.00289
;WIDTH:0.460856
G1 X110.548 Y117.814 E.09076
;WIDTH:0.440891
G1 X110.493 Y117.755 E.00267
;WIDTH:0.480834
G1 X110.075 Y117.253 E.02379
;WIDTH:0.520777
G1 X109.657 Y116.751 E.02596
;WIDTH:0.56072
G1 X109.24 Y116.248 E.02813
;WIDTH:0.600663
G1 X108.822 Y115.746 E.0303
G1 X108.809 Y115.701 E.00217
;WIDTH:0.570877
G1 X108.797 Y115.655 E.00209
;WIDTH:0.54109
G1 X108.379 Y114.891 E.03607
;WIDTH:0.500727
G1 X107.961 Y114.127 E.03315
;WIDTH:0.460363
G1 X107.543 Y113.363 E.03023
;WIDTH:0.419999
G1 X106.53 Y110.87 E.08437
G1 X105.874 Y108.261 E.08435
G1 X105.587 Y105.558 E.08523
G1 X105.674 Y102.929 E.08248
M204 S1000
G1 X106.052 Y102.921 F10800
M204 S800
;TYPE:External perimeter
G1 F1200
G1 X106.515 Y100.285 E.08392
G1 X107.322 Y97.801 E.08189
G1 X107.369 Y97.702 E.00344
G1 X108.477 Y95.429 E.07928
G1 X109.904 Y93.31 E.0801
G1 X111.733 Y91.261 E.08612
G1 X113.756 Y89.567 E.08273
G1 X115.971 Y88.183 E.08189
G1 X118.38 Y87.108 E.08271
G1 X120.941 Y86.373 E.08354
G1 X123.528 Y86.01 E.08191
G1 X126.166 Y86.008 E.08271
G1 X128.805 Y86.379 E.08356
G1 X131.315 Y87.099 E.08187
G1 X133.726 Y88.17 E.08272
G1 X135.986 Y89.582 E.08355
G1 X137.987 Y91.261 E.0819
G1 X139.753 Y93.22 E.0827
G1 X141.208 Y95.377 E.08158
G1 X142.388 Y97.776 E.08383
G1 X142.627 Y98.507 E.02411
G1 X143.212 Y100.311 E.05946
G1 X143.665 Y102.883 E.08188
G1 X143.758 Y105.546 E.08355
G1 X143.481 Y108.17 E.08273
G1 X142.849 Y110.704 E.08189
G1 X141.862 Y113.151 E.08273
G1 X140.53 Y115.458 E.08353
G1 X138.922 Y117.517 E.08191
G1 X137.025 Y119.351 E.08273
G1 X134.87 Y120.917 E.08352
G1 X132.563 Y122.143 E.08191
G1 X132.415 Y122.199 E.00496
G1 X130.06 Y123.054 E.07856
G1 X127.505 Y123.597 E.0819
G1 X124.847 Y123.783 E.08354
G1 X122.241 Y123.601 E.08191
G1 X119.66 Y123.054 E.08272
G1 X117.157 Y122.143 E.08352
G1 X114.85 Y120.917 E.08191
G1 X112.715 Y119.367 E.08272
G1 X110.814 Y117.534 E.0828
G1 X109.176 Y115.436 E.08346
G1 X107.87 Y113.174 E.0819
G1 X106.88 Y110.729 E.08271
G1 X106.235 Y108.144 E.08354
G1 X105.962 Y105.519 E.08275
G1 X106.05 Y102.981 E.07962
M204 S1000
G1 X105.728 Y102.686 F10800
;WIPE_START
G1 F8640
G1 X106.515 Y100.285 E-.63171
G1 X107.008 Y98.768 E-.36829
;WIPE_END
G1 Z.4 F720
G1 X121.64 Y85.199 F10800
G1 Z.2 F720
M73 Q3 S22
G1 E1 F2100
M204 S800
;TYPE:Solid infill
;WIDTH:0.420604
G1 F1200
G1 X121.95 Y85.509 E.01377
G1 X121.484 Y85.577 E.01479
G1 X121.275 Y85.368 E.00928
M73 P3 R22
G1 X120.741 Y85.368 E.01677
G1 X121.018 Y85.645 E.0123
G1 X120.728 Y85.687 E.0092
G1 X120.571 Y85.732 E.00513
G1 X120.207 Y85.368 E.01617
G1 X119.673 Y85.368 E.01677
G1 X120.156 Y85.851 E.02145
G1 X119.741 Y85.97 E.01356
G1 X119.139 Y85.368 E.02674
G1 X118.605 Y85.368 E.01677
G1 X119.326 Y86.089 E.03202
G1 X118.911 Y86.208 E.01356
G1 X118.071 Y85.368 E.03731
G1 X117.536 Y85.368 E.0168
G1 X118.496 Y86.328 E.04264
G1 X118.093 Y86.459 E.01331
G1 X117.002 Y85.368 E.04845
G1 X116.468 Y85.368 E.01677
G1 X117.723 Y86.623 E.05574
G1 X117.352 Y86.787 E.01274
G1 X115.934 Y85.368 E.063
G1 X115.8 Y85.368 E.00421
G1 X115.6 Y85.568 E.00888
G1 X116.982 Y86.95 E.06138
G1 X116.611 Y87.114 E.01274
G1 X115.333 Y85.835 E.05678
G1 X115.066 Y86.103 E.01188
G1 X116.241 Y87.278 E.05218
G1 X115.871 Y87.441 E.0127
G1 X114.799 Y86.37 E.04759
G1 X114.532 Y86.637 E.01186
G1 X115.521 Y87.626 E.04392
G1 X115.192 Y87.831 E.01217
G1 X114.265 Y86.904 E.04117
G1 X113.998 Y87.171 E.01186
G1 X114.863 Y88.036 E.03842
G1 X114.533 Y88.24 E.01218
G1 X113.73 Y87.438 E.03564
G1 X113.463 Y87.705 E.01186
G1 X114.204 Y88.445 E.03289
G1 X113.874 Y88.65 E.0122
G1 X113.196 Y87.972 E.03011
G1 X112.929 Y88.239 E.01186
G1 X113.545 Y88.854 E.02734
G1 X113.367 Y88.964 E.00657
G1 X113.233 Y89.077 E.0055
G1 X112.662 Y88.506 E.02536
G1 X112.395 Y88.773 E.01186
G1 X112.942 Y89.32 E.02429
G1 X112.651 Y89.563 E.01191
G1 X112.128 Y89.04 E.02323
G1 X111.861 Y89.307 E.01186
G1 X112.359 Y89.806 E.02214
G1 X112.068 Y90.049 E.01191
G1 X111.594 Y89.574 E.02107
G1 X111.327 Y89.841 E.01186
G1 X111.777 Y90.292 E.02001
G1 X111.486 Y90.535 E.01191
G1 X111.06 Y90.109 E.01892
G1 X110.793 Y90.376 E.01186
G1 X111.204 Y90.787 E.01825
G1 X110.952 Y91.069 E.01188
G1 X110.526 Y90.643 E.01892
G1 X110.259 Y90.91 E.01186
G1 X110.7 Y91.351 E.01959
G1 X110.448 Y91.633 E.01188
G1 X109.992 Y91.177 E.02025
G1 X109.725 Y91.444 E.01186
G1 X110.196 Y91.915 E.02092
G1 X109.944 Y92.197 E.01188
G1 X109.457 Y91.711 E.02161
G1 X109.19 Y91.978 E.01186
G1 X109.691 Y92.479 E.02225
G1 X109.439 Y92.761 E.01188
G1 X108.923 Y92.245 E.02292
G1 X108.656 Y92.512 E.01186
G1 X109.207 Y93.063 E.02447
G1 X108.992 Y93.382 E.01208
G1 X108.389 Y92.779 E.02678
G1 X108.122 Y93.046 E.01186
G1 X108.777 Y93.701 E.02909
G1 X108.561 Y94.02 E.0121
G1 X107.855 Y93.313 E.03138
G1 X107.588 Y93.58 E.01186
G1 X108.346 Y94.339 E.03369
G1 X108.131 Y94.658 E.01208
G1 X107.321 Y93.847 E.036
G1 X107.054 Y94.114 E.01186
G1 X107.916 Y94.976 E.03828
G1 X107.735 Y95.33 E.01249
G1 X106.787 Y94.382 E.0421
G1 X106.52 Y94.649 E.01186
G1 X107.559 Y95.688 E.04614
G1 X107.384 Y96.046 E.01251
G1 X106.253 Y94.916 E.05021
G1 X105.986 Y95.183 E.01186
G1 X107.208 Y96.405 E.05427
G1 X107.032 Y96.763 E.01253
G1 X105.719 Y95.45 E.05831
G1 X105.452 Y95.717 E.01186
G1 X106.856 Y97.121 E.06236
G1 X106.681 Y97.48 E.01254
G1 X105.184 Y95.984 E.06646
G1 X104.917 Y96.251 E.01186
G1 X106.549 Y97.882 E.07246
G1 X106.417 Y98.285 E.01332
G1 X104.693 Y96.561 E.07657
G1 X104.693 Y97.095 E.01677
G1 X106.285 Y98.687 E.07071
G1 X106.153 Y99.089 E.01329
G1 X104.693 Y97.629 E.06484
G1 X104.693 Y98.163 E.01677
G1 X106.021 Y99.491 E.05898
G1 X105.889 Y99.894 E.01332
G1 X104.693 Y98.697 E.05314
G1 X104.693 Y99.231 E.01677
G1 X105.786 Y100.324 E.04854
G1 X105.706 Y100.778 E.01448
G1 X104.693 Y99.765 E.04499
G1 X104.693 Y100.3 E.0168
G1 X105.626 Y101.232 E.04141
G1 X105.546 Y101.687 E.01451
G1 X104.693 Y100.834 E.03788
G1 X104.693 Y101.368 E.01677
G1 X105.466 Y102.141 E.03433
G1 X105.386 Y102.595 E.01448
G1 X104.693 Y101.902 E.03078
G1 X104.693 Y102.436 E.01677
G1 X105.33 Y103.073 E.02829
G1 X105.312 Y103.589 E.01621
G1 X104.693 Y102.97 E.02749
G1 X104.693 Y103.504 E.01677
G1 X105.293 Y104.105 E.02667
G1 X105.275 Y104.621 E.01621
G1 X104.693 Y104.038 E.02587
G1 X104.693 Y104.573 E.0168
G1 X105.257 Y105.137 E.02505
G1 X105.244 Y105.505 E.01156
G1 X105.262 Y105.675 E.00537
G1 X104.693 Y105.107 E.02525
G1 X104.693 Y105.641 E.01677
G1 X105.323 Y106.271 E.02798
G1 X105.385 Y106.867 E.01882
G1 X104.693 Y106.175 E.03073
G1 X104.693 Y106.709 E.01677
G1 X105.446 Y107.462 E.03344
G1 X105.508 Y108.058 E.01882
G1 X104.693 Y107.243 E.0362
G1 X104.693 Y107.777 E.01677
G1 X105.643 Y108.727 E.04219
G1 X105.822 Y109.441 E.02312
G1 X104.693 Y108.311 E.05016
G1 X104.693 Y108.846 E.0168
G1 X106.002 Y110.154 E.05811
G1 X106.181 Y110.868 E.02312
G1 X104.693 Y109.38 E.06609
G1 X104.693 Y109.914 E.01677
G1 X106.513 Y111.733 E.08081
G1 X106.875 Y112.63 E.03038
G1 X104.693 Y110.448 E.09691
G1 X104.693 Y110.982 E.01677
G1 X107.26 Y113.549 E.11401
G1 X107.829 Y114.653 E.039
G1 X104.693 Y111.516 E.1393
G1 X104.693 Y112.05 E.01677
G1 X108.413 Y115.771 E.16524
M204 S1000
;WIPE_START
G1 F8640
G1 X105.351 Y112.708 E-1
;WIPE_END
G1 Z.4 F720
G1 X132.959 Y85.199 F10800
G1 Z.2 F720
G1 E1 F2100
M204 S800
;WIDTH:0.421308
G1 F1200
G1 X145.307 Y97.546 E.54941
G1 X145.307 Y98.081 E.01683
G1 X140.965 Y93.739 E.1932
G1 X140.293 Y92.749 E.03765
G1 X138.531 Y90.792 E.08285
G1 X136.387 Y88.987 E.08818
G1 X135.922 Y88.696 E.01726
G1 X132.594 Y85.368 E.14808
G1 X132.059 Y85.368 E.01683
G1 X134.493 Y87.803 E.10832
G1 X134.12 Y87.57 E.01384
G1 X133.403 Y87.248 E.02473
G1 X131.524 Y85.368 E.08363
G1 X130.989 Y85.368 E.01683
G1 X132.433 Y86.813 E.06427
G1 X131.622 Y86.449 E.02797
G1 X131.498 Y86.413 E.00406
G1 X130.453 Y85.368 E.0465
G1 X129.918 Y85.368 E.01683
G1 X130.745 Y86.195 E.0368
G1 X129.992 Y85.977 E.02466
G1 X129.383 Y85.368 E.0271
G1 X128.848 Y85.368 E.01683
G1 X129.238 Y85.759 E.01738
G1 X128.992 Y85.687 E.00806
G1 X128.57 Y85.626 E.01342
G1 X128.313 Y85.368 E.01146
G1 X127.778 Y85.368 E.01683
G1 X128.145 Y85.735 E.01633
M204 S1000
;WIPE_START
G1 F8640
G1 X127.778 Y85.368 E-.11984
G1 X128.313 Y85.368 E-.12353
G1 X128.57 Y85.626 E-.08409
G1 X128.992 Y85.687 E-.09845
G1 X129.238 Y85.759 E-.05919
G1 X128.848 Y85.368 E-.12752
G1 X129.383 Y85.368 E-.12353
G1 X129.992 Y85.977 E-.19887
G1 X130.262 Y86.055 E-.06498
;WIPE_END
G1 Z.4 F720
G1 X141.456 Y94.766 F10800
G1 Z.2 F720
G1 E1 F2100
M204 S800
G1 F1200
G1 X145.307 Y98.617 E.17135
G1 X145.307 Y99.152 E.01683
G1 X142.449 Y96.294 E.12717
G1 X142.966 Y97.346 E.03688
G1 X145.307 Y99.687 E.10416
G1 X145.307 Y100.222 E.01683
G1 X143.276 Y98.191 E.09037
G1 X143.53 Y98.98 E.02608
G1 X145.307 Y100.757 E.07907
G1 X145.307 Y101.292 E.01683
G1 X143.784 Y99.77 E.06774
G1 X143.915 Y100.176 E.01342
M73 Q4 S22
G1 X143.971 Y100.491 E.01007
G1 X145.307 Y101.827 E.05945
G1 X145.307 Y102.362 E.01683
G1 X144.085 Y101.141 E.05435
G1 X144.2 Y101.791 E.02077
M73 P4 R22
G1 X145.307 Y102.898 E.04926
G1 X145.307 Y103.433 E.01683
G1 X144.315 Y102.44 E.04416
G1 X144.373 Y102.769 E.01051
G1 X144.383 Y103.044 E.00866
G1 X145.307 Y103.968 E.04111
G1 X145.307 Y104.503 E.01683
G1 X144.404 Y103.6 E.04018
G1 X144.424 Y104.155 E.01747
G1 X145.307 Y105.038 E.03929
G1 X145.307 Y105.573 E.01683
G1 X144.445 Y104.711 E.03836
G1 X144.466 Y105.267 E.01751
