; generated by PrusaSlicer 2.6.1+win64 on 2023-09-19 at 18:36:27 UTC


;
;
; 

; external perimeters extrusion width = 0.45mm
; perimeters extrusion width = 0.45mm
; infill extrusion width = 0.45mm
; solid infill extrusion width = 0.45mm
; top infill extrusion width = 0.40mm
; first layer extrusion width = 0.42mm

M73 P0 R39
M73 Q0 S39
M201 X1000 Y1000 Z200 E5000 ; sets maximum accelerations, mm/sec^2
M203 X200 Y200 Z12 E120 ; sets maximum feedrates, mm / sec
M204 S1250 T1250 ; sets acceleration (S) and retract acceleration (R), mm/sec^2
M205 X8.00 Y8.00 Z0.40 E4.50 ; sets the jerk limits, mm/sec
M205 S0 T0 ; sets the minimum extruding and travel feed rate, mm/sec
;TYPE:Custom
M862.3 P "MK3S" ; printer model check
M862.1 P0.4 ; nozzle diameter check
M115 U3.12.2 ; tell printer latest fw version
G90 ; use absolute coordinates
M83 ; extruder relative mode
M104 S240 ; set extruder temp
M140 S85 ; set bed temp
M190 S85 ; wait for bed temp
M109 S240 ; wait for extruder temp
G28 W ; home all without mesh bed level
G80 ; mesh bed leveling

G1 Z0.2 F720
G1 Y-3 F1000 ; go outside print area
G92 E0
G1 X60 E9 F1000 ; intro line
G1 X100 E12.5 F1000 ; intro line

G92 E0
M221 S95

; Don't change E values below. Excessive value can damage the printer.
M907 E430 ; set extruder motor current
G21 ; set units to millimeters
G90 ; use absolute coordinates
M83 ; use relative distances for extrusion
M900 K0.08 ; Filament gcode LA 1.5
M900 K45 ; Filament gcode LA 1.0
M107
;LAYER_CHANGE
;Z:0.2
;HEIGHT:0.2
;BEFORE_LAYER_CHANGE
G92 E0.0
;0.2


G1 E-1 F2100
G1 Z.2 F720
;AFTER_LAYER_CHANGE
;0.2
G1 Z.4
G1 X102.929 Y93.175 F10800
G1 Z.2 F720
G1 E1 F2100
M204 S800
;TYPE:Skirt/Brim
;WIDTH:0.42
G1 F1200
G1 X113.32 Y82.784 E.46075
G1 X115.001 Y82.088 E.05705
G1 X134.279 Y82.088 E.60445
G1 X135.96 Y82.784 E.05705
G1 X147.071 Y93.895 E.49268
G1 X147.767 Y95.576 E.05705
G1 X147.767 Y112.712 E.53729
G1 X147.071 Y114.392 E.05702
G1 X134.247 Y127.216 E.56864
G1 X132.567 Y127.912 E.05702
G1 X116.789 Y127.912 E.49471
G1 X115.109 Y127.216 E.05702
G1 X102.929 Y115.036 E.54008
G1 X102.233 Y113.356 E.05702
G1 X102.233 Y94.856 E.58005
G1 X102.906 Y93.231 E.05515
M204 S1000
; printing object Rear_Left_Wheel_Mount_Tool_rev0-2 id:0 copy 0
;WIPE_START
G1 F8640
G1 X105.964 Y90.164 E-1
;WIPE_END
G1 Z.4 F720
G1 X132.241 Y124.748 F10800
G1 Z.2 F720
G1 E1 F2100
M204 S800
;TYPE:Perimeter
;WIDTH:0.419999
G1 F1200
G1 X117.115 Y124.748 E.47426
G1 X105.397 Y113.03 E.51959
G1 X105.397 Y95.182 E.55961
G1 X115.327 Y85.252 E.44031
G1 X133.953 Y85.252 E.584
G1 X144.603 Y95.902 E.47224
G1 X144.603 Y112.386 E.51684
G1 X132.283 Y124.706 E.54629
M204 S1000
G1 X132.397 Y125.125 F10800
M204 S800
;TYPE:External perimeter
G1 F1200
G1 X116.959 Y125.125 E.48405
G1 X105.02 Y113.186 E.52939
G1 X105.02 Y95.026 E.56939
M73 Q1 S39
G1 X115.171 Y84.875 E.45011
M73 P1 R39
G1 X134.109 Y84.875 E.59379
G1 X144.98 Y95.746 E.48204
G1 X144.98 Y112.542 E.52663
G1 X132.439 Y125.083 E.55609
M204 S1000
G1 X132.08 Y124.88 F10800
;WIPE_START
G1 F8640
G1 X128.108 Y125.095 E-1
;WIPE_END
G1 Z.4 F720
G1 X125.989 Y108.26 F10800
G1 Z.2 F720
G1 E1 F2100
M204 S800
;TYPE:Perimeter
G1 F1200
G1 X125.855 Y109.499 E.03907
G1 X125.525 Y110.633 E.03703
G1 X125.009 Y111.694 E.03699
G1 X124.382 Y112.58 E.03403
G1 X123.553 Y113.421 E.03703
G1 X122.594 Y114.109 E.03701
G1 X121.532 Y114.626 E.03703
G1 X120.398 Y114.955 E.03702
G1 X119.129 Y115.09 E.04001
G1 X117.952 Y115.007 E.037
G1 X116.805 Y114.726 E.03703
G1 X115.722 Y114.255 E.03703
G1 X114.81 Y113.667 E.03402
G1 X113.935 Y112.874 E.03703
G1 X113.207 Y111.945 E.03701
G1 X112.646 Y110.906 E.03702
G1 X112.269 Y109.787 E.03702
G1 X112.08 Y108.525 E.04001
G1 X112.103 Y107.44 E.03403
G1 X112.319 Y106.28 E.037
G1 X112.728 Y105.172 E.03703
G1 X113.319 Y104.15 E.03702
G1 X114.074 Y103.242 E.03703
G1 X114.971 Y102.475 E.037
G1 X116.072 Y101.829 E.04002
G1 X117.179 Y101.419 E.03701
G1 X118.244 Y101.213 E.03401
G1 X118.798 Y101.193 E.01738
G1 X119.52 Y101.186 E.02264
G1 X120.594 Y101.347 E.03405
G1 X121.717 Y101.709 E.03699
G1 X122.764 Y102.255 E.03702
G1 X123.701 Y102.97 E.03696
G1 X124.515 Y103.844 E.03745
G1 X125.2 Y104.907 E.03965
G1 X125.656 Y105.996 E.03702
G1 X125.907 Y107.052 E.03403
G1 X125.988 Y108.2 E.03608
M204 S1000
G1 X125.613 Y108.239 F10800
M204 S800
;TYPE:External perimeter
G1 F1200
G1 X125.498 Y109.365 E.03549
G1 X125.185 Y110.47 E.03601
G1 X124.701 Y111.477 E.03503
G1 X124.039 Y112.401 E.03564
G1 X123.262 Y113.175 E.03439
G1 X122.376 Y113.801 E.03401
G1 X121.37 Y114.285 E.035
G1 X120.296 Y114.592 E.03502
G1 X119.185 Y114.713 E.03504
G1 X118.07 Y114.645 E.03502
G1 X116.953 Y114.379 E.036
G1 X115.927 Y113.938 E.03502
G1 X114.99 Y113.33 E.03502
G1 X114.191 Y112.596 E.03402
G1 X113.505 Y111.714 E.03503
G1 X112.979 Y110.729 E.03501
G1 X112.627 Y109.669 E.03502
G1 X112.457 Y108.533 E.03602
G1 X112.483 Y107.416 E.03503
G1 X112.698 Y106.32 E.03502
G1 X113.095 Y105.276 E.03502
G1 X113.662 Y104.314 E.03501
G1 X114.362 Y103.485 E.03402
G1 X115.214 Y102.763 E.03502
G1 X116.176 Y102.195 E.03503
G1 X117.22 Y101.798 E.03502
G1 X118.316 Y101.584 E.03501
G1 X119.433 Y101.557 E.03503
G1 X120.569 Y101.727 E.03602
G1 X121.629 Y102.08 E.03503
G1 X122.587 Y102.588 E.034
G1 X123.468 Y103.266 E.03486
G1 X124.233 Y104.094 E.03535
G1 X124.853 Y105.055 E.03586
G1 X125.289 Y106.084 E.03504
G1 X125.54 Y107.139 E.034
G1 X125.609 Y108.179 E.03268
M204 S1000
G1 X125.955 Y108.446 F10800
;WIPE_START
G1 F8640
G1 X125.498 Y109.365 E-.27505
G1 X125.185 Y110.47 E-.26519
G1 X124.701 Y111.477 E-.25798
G1 X124.192 Y112.187 E-.20178
;WIPE_END
G1 Z.4 F720
G1 X144.433 Y96.214 F10800
G1 Z.2 F720
G1 E1 F2100
M204 S800
;TYPE:Solid infill
;WIDTH:0.423036
G1 F1200
G1 X133.81 Y85.591 E.47483
G1 X133.273 Y85.591 E.01697
G1 X144.264 Y96.582 E.49128
G1 X144.264 Y97.12 E.017
G1 X132.735 Y85.591 E.51533
G1 X132.198 Y85.591 E.01697
G1 X144.264 Y97.657 E.53933
G1 X144.264 Y98.195 E.017
G1 X131.66 Y85.591 E.56338
G1 X131.122 Y85.591 E.017
G1 X144.264 Y98.733 E.58743
G1 X144.264 Y99.27 E.01697
G1 X130.585 Y85.591 E.61143
G1 X130.047 Y85.591 E.017
G1 X144.264 Y99.808 E.63548
G1 X144.264 Y100.345 E.01697
G1 X129.51 Y85.591 E.65949
G1 X128.972 Y85.591 E.017
M73 P1 R38
G1 X144.264 Y100.883 E.68353
G1 X144.264 Y101.42 E.01697
G1 X128.435 Y85.591 E.70754
G1 X127.897 Y85.591 E.017
G1 X144.264 Y101.958 E.73158
G1 X144.264 Y102.496 E.017
G1 X127.359 Y85.591 E.75563
G1 X126.822 Y85.591 E.01697
G1 X144.264 Y103.033 E.77964
G1 X144.264 Y103.571 E.017
M73 P2 R38
M73 Q2 S39
G1 X126.284 Y85.591 E.80368
G1 X125.747 Y85.591 E.01697
G1 X144.264 Y104.108 E.82769
G1 X144.264 Y104.646 E.017
G1 X125.209 Y85.591 E.85173
G1 X124.672 Y85.591 E.01697
G1 X144.264 Y105.183 E.87574
G1 X144.264 Y105.721 E.017
G1 X124.134 Y85.591 E.89979
G1 X123.596 Y85.591 E.017
G1 X144.264 Y106.258 E.92381
G1 X144.264 Y106.796 E.017
M73 Q2 S38
G1 X123.059 Y85.591 E.94784
G1 X122.521 Y85.591 E.017
G1 X144.264 Y107.334 E.97188
G1 X144.264 Y107.871 E.01697
G1 X121.984 Y85.591 E.99589
G1 X121.446 Y85.591 E.017
G1 X144.264 Y108.409 E1.01994
G1 X144.264 Y108.946 E.01697
G1 X120.909 Y85.591 E1.04394
G1 X120.371 Y85.591 E.017
G1 X144.264 Y109.484 E1.06799
G1 X144.264 Y110.021 E.01697
G1 X119.834 Y85.591 E1.09199
G1 X119.296 Y85.591 E.017
G1 X144.264 Y110.559 E1.11604
G1 X144.264 Y111.097 E.017
G1 X118.758 Y85.591 E1.14009
G1 X118.221 Y85.591 E.01697
M73 P3 R38
M73 Q3 S38
G1 X144.264 Y111.634 E1.16409
G1 X144.264 Y112.172 E.017
G1 X117.683 Y85.591 E1.18814
G1 X117.146 Y85.591 E.01697
G1 X144.031 Y112.477 E1.20175
G1 X143.763 Y112.746 E.012
G1 X116.608 Y85.591 E1.21379
G1 X116.071 Y85.591 E.01697
G1 X143.494 Y113.015 E1.2258
G1 X143.225 Y113.283 E.012
G1 X115.533 Y85.591 E1.2378
G1 X115.468 Y85.591 E.00205
G1 X115.232 Y85.828 E.01057
G1 X142.956 Y113.552 E1.23923
G1 X142.687 Y113.821 E.01202
G1 X114.963 Y86.096 E1.23925
G1 X114.694 Y86.365 E.01202
G1 X142.419 Y114.09 E1.23927
G1 X142.15 Y114.359 E.01202
G1 X114.425 Y86.634 E1.23927
G1 X114.156 Y86.903 E.01202
G1 X141.881 Y114.627 E1.23925
G1 X141.612 Y114.896 E.01202
G1 X113.888 Y87.172 E1.23923
G1 X113.619 Y87.44 E.012
M73 P4 R38
M73 Q4 S38
G1 X141.344 Y115.165 E1.23927
G1 X141.075 Y115.434 E.01202
G1 X113.35 Y87.709 E1.23927
G1 X113.081 Y87.978 E.01202
G1 X140.806 Y115.703 E1.23927
G1 X140.537 Y115.971 E.012
G1 X112.813 Y88.247 E1.23923
G1 X112.544 Y88.515 E.012
M73 P4 R37
G1 X140.268 Y116.24 E1.23925
G1 X140 Y116.509 E.012
G1 X112.275 Y88.784 E1.23927
G1 X112.006 Y89.053 E.01202
G1 X139.731 Y116.778 E1.23927
G1 X139.462 Y117.046 E.012
G1 X111.737 Y89.322 E1.23925
G1 X111.469 Y89.591 E.012
G1 X139.193 Y117.315 E1.23923
G1 X138.925 Y117.584 E.012
G1 X111.2 Y89.859 E1.23927
G1 X110.931 Y90.128 E.01202
G1 X122.579 Y101.776 E.52065
G1 X122.99 Y101.994 E.0147
M73 Q4 S37
G1 X123.916 Y102.707 E.03694
G1 X124.187 Y102.964 E.0118
G1 X124.813 Y103.672 E.02987
G1 X125.437 Y104.634 E.03624
G1 X138.656 Y117.853 E.59087
G1 X138.387 Y118.122 E.01202
G1 X125.86 Y105.595 E.55994
G1 X125.942 Y105.783 E.00648
G1 X126.082 Y106.354 E.01858
G1 X138.118 Y118.39 E.53799
G1 X137.849 Y118.659 E.01202
M73 P5 R37
M73 Q5 S37
G1 X126.253 Y107.062 E.51835
G1 X126.289 Y107.636 E.01818
G1 X137.581 Y118.928 E.50474
G1 X137.312 Y119.197 E.01202
G1 X126.326 Y108.21 E.49108
G1 X126.286 Y108.708 E.01579
G1 X137.043 Y119.465 E.48082
G1 X136.774 Y119.734 E.01202
G1 X126.234 Y109.194 E.47112
G1 X126.2 Y109.516 E.01023
G1 X126.159 Y109.656 E.00461
G1 X136.505 Y120.003 E.46248
G1 X136.237 Y120.272 E.012
G1 X126.038 Y110.073 E.45588
G1 X125.917 Y110.49 E.01372
G1 X135.968 Y120.541 E.44927
G1 X135.699 Y120.809 E.012
G1 X125.778 Y110.888 E.44346
G1 X125.601 Y111.249 E.01271
G1 X135.43 Y121.078 E.43934
G1 X135.162 Y121.347 E.012
G1 X125.425 Y111.61 E.43523
G1 X125.237 Y111.96 E.01256
G1 X134.893 Y121.616 E.43161
G1 X134.624 Y121.885 E.01202
G1 X125.013 Y112.274 E.4296
G1 X124.79 Y112.588 E.01217
G1 X134.355 Y122.153 E.42754
G1 X134.086 Y122.422 E.01202
G1 X124.557 Y112.893 E.42593
G1 X124.289 Y113.162 E.012
G1 X133.818 Y122.691 E.42593
G1 X133.549 Y122.96 E.01202
G1 X124.021 Y113.432 E.42589
G1 X123.748 Y113.696 E.012
G1 X133.28 Y123.228 E.42607
G1 X133.011 Y123.497 E.01202
G1 X123.435 Y113.921 E.42804
G1 X123.123 Y114.146 E.01216
G1 X132.743 Y123.766 E.43
G1 X132.474 Y124.035 E.01202
G1 X122.81 Y114.371 E.43197
G1 X122.454 Y114.553 E.01264
G1 X132.205 Y124.304 E.43586
G1 X132.1 Y124.409 E.00469
G1 X131.772 Y124.409 E.01037
G1 X122.093 Y114.729 E.43266
G1 X121.732 Y114.906 E.01271
G1 X131.235 Y124.409 E.42477
G1 X130.697 Y124.409 E.017
G1 X121.325 Y115.036 E.41894
G1 X120.908 Y115.157 E.01372
G1 X130.16 Y124.409 E.41355
G1 X129.622 Y124.409 E.017
G1 X120.491 Y115.277 E.40817
G1 X120.404 Y115.302 E.00286
G1 X120.018 Y115.342 E.01227
G1 X129.085 Y124.409 E.40528
G1 X128.547 Y124.409 E.017
G1 X119.531 Y115.393 E.403
G1 X119.161 Y115.431 E.01176
G1 X119.022 Y115.421 E.0044
G1 X128.009 Y124.409 E.40173
G1 X127.472 Y124.409 E.01697
G1 X118.443 Y115.38 E.40358
G1 X117.86 Y115.334 E.01848
G1 X126.934 Y124.409 E.40562
G1 X126.397 Y124.409 E.01697
G1 X117.145 Y115.157 E.41355
G1 X116.682 Y115.043 E.01507
M73 P6 R37
M73 Q6 S37
G1 X116.347 Y114.896 E.01156
G1 X126.029 Y124.578 E.43277
M204 S1000
;WIPE_START
G1 F8640
G1 X122.967 Y121.516 E-1
;WIPE_END
G1 Z.4 F720
G1 X121.842 Y101.577 F10800
G1 Z.2 F720
G1 E1 F2100
M204 S800
G1 F1200
G1 X110.662 Y90.397 E.49973
G1 X110.394 Y90.666 E.012
G1 X120.77 Y101.042 E.46379
G1 X120.131 Y100.941 E.02045
G1 X110.125 Y90.934 E.44728
G1 X109.856 Y91.203 E.01202
G1 X119.504 Y100.851 E.43125
G1 X118.97 Y100.854 E.01688
G1 X109.587 Y91.472 E.41939
G1 X109.318 Y91.741 E.01202
G1 X118.448 Y100.87 E.40808
G1 X118.192 Y100.878 E.0081
G1 X117.963 Y100.923 E.00738
G1 X109.05 Y92.01 E.3984
G1 X108.781 Y92.278 E.012
G1 X117.513 Y101.011 E.39033
G1 X117.064 Y101.099 E.01446
G1 X108.512 Y92.547 E.38226
G1 X108.243 Y92.816 E.01202
G1 X116.67 Y101.242 E.37665
G1 X116.279 Y101.389 E.0132
G1 X107.975 Y93.085 E.37118
G1 X107.706 Y93.354 E.01202
G1 X115.894 Y101.542 E.36599
G1 X115.554 Y101.74 E.01244
G1 X107.437 Y93.622 E.36284
G1 X107.168 Y93.891 E.01202
G1 X115.214 Y101.937 E.35965
G1 X114.874 Y102.135 E.01244
G1 X106.899 Y94.16 E.35647
G1 X106.631 Y94.429 E.012
G1 X114.573 Y102.371 E.355
G1 X114.283 Y102.619 E.01206
G1 X106.362 Y94.697 E.35408
G1 X106.093 Y94.966 E.01202
G1 X113.994 Y102.867 E.35316
G1 X113.822 Y103.014 E.00715
G1 X113.723 Y103.133 E.00489
G1 X105.824 Y95.235 E.35305
G1 X105.736 Y95.323 E.00393
G1 X105.736 Y95.685 E.01144
G1 X113.479 Y103.428 E.3461
G1 X113.236 Y103.722 E.01206
G1 X105.736 Y96.222 E.33524
G1 X105.736 Y96.76 E.017
G1 X113 Y104.023 E.32467
G1 X112.804 Y104.365 E.01246
G1 X105.736 Y97.297 E.31593
G1 X105.736 Y97.835 E.017
G1 X112.607 Y104.706 E.30712
G1 X112.412 Y105.048 E.01244
G1 X105.736 Y98.373 E.29839
G1 X105.736 Y98.91 E.01697
G1 X112.268 Y105.442 E.29197
G1 X112.123 Y105.835 E.01324
G1 X105.736 Y99.448 E.28549
G1 X105.736 Y99.985 E.01697
G1 X111.983 Y106.231 E.27921
G1 X111.896 Y106.682 E.01452
G1 X105.736 Y100.523 E.27532
G1 X105.736 Y101.06 E.01697
G1 X111.808 Y107.132 E.27141
G1 X111.777 Y107.292 E.00515
M73 P6 R36
G1 X111.767 Y107.629 E.01066
G1 X105.736 Y101.598 E.26958
G1 X105.736 Y102.136 E.017
G1 X111.752 Y108.151 E.26889
G1 X111.74 Y108.529 E.01195
G1 X111.764 Y108.701 E.00549
G1 X105.736 Y102.673 E.26944
G1 X105.736 Y103.211 E.017
G1 X111.852 Y109.327 E.27338
G1 X111.916 Y109.775 E.0143
G1 X111.991 Y110.003 E.00759
G1 X105.736 Y103.748 E.27959
G1 X105.736 Y104.286 E.017
G1 X112.567 Y111.117 E.30534
M204 S1000
;WIPE_START
G1 F8640
G1 X109.505 Y108.055 E-1
;WIPE_END
G1 Z.4 F720
G1 X105.567 Y104.654 F10800
G1 Z.2 F720
G1 E1 F2100
M204 S800
G1 F1200
G1 X112.783 Y111.87 E.32255
G1 X112.931 Y112.143 E.00982
G1 X113.697 Y113.116 E.03914
G1 X114.592 Y113.929 E.03822
G1 X115.298 Y114.385 E.02656
G1 X125.322 Y124.409 E.44806
G1 X124.784 Y124.409 E.017
M73 P7 R36
M73 Q7 S37
G1 X105.736 Y105.361 E.85142
G1 X105.736 Y105.899 E.017
G1 X124.247 Y124.409 E.8274
G1 X123.709 Y124.409 E.017
G1 X105.736 Y106.436 E.80337
G1 X105.736 Y106.974 E.017
G1 X123.171 Y124.409 E.77932
G1 X122.634 Y124.409 E.01697
G1 X105.736 Y107.511 E.75532
G1 X105.736 Y108.049 E.017
G1 X122.096 Y124.409 E.73127
G1 X121.559 Y124.409 E.01697
G1 X105.736 Y108.586 E.70727
G1 X105.736 Y109.124 E.017
M73 Q7 S36
G1 X121.021 Y124.409 E.68322
G1 X120.484 Y124.409 E.01697
G1 X105.736 Y109.661 E.65922
G1 X105.736 Y110.199 E.017
G1 X119.946 Y124.409 E.63517
G1 X119.408 Y124.409 E.017
G1 X105.736 Y110.737 E.61112
G1 X105.736 Y111.274 E.01697
G1 X118.871 Y124.409 E.58712
G1 X118.333 Y124.409 E.017
G1 X105.736 Y111.812 E.56307
G1 X105.736 Y112.349 E.01697
G1 X117.796 Y124.409 E.53907
G1 X117.258 Y124.409 E.017
G1 X105.567 Y112.717 E.5226
M204 S1000
; stop printing object Rear_Left_Wheel_Mount_Tool_rev0-2 id:0 copy 0
;LAYER_CHANGE
;Z:0.4
;HEIGHT:0.2
;BEFORE_LAYER_CHANGE
G92 E0.0
;0.4


;WIPE_START
G1 F8640
G1 X108.629 Y115.779 E-1
;WIPE_END
G1 Z.4 F720
;AFTER_LAYER_CHANGE
;0.4
M104 S250 ; set temperature
M140 S90 ; set bed temperature
; printing object Rear_Left_Wheel_Mount_Tool_rev0-2 id:0 copy 0
G1 Z.6
G1 X132.305 Y124.903 F10800
G1 Z.4 F720
G1 E1 F2100
M204 S800
;TYPE:Perimeter
;WIDTH:0.449999
G1 F2700
G1 X117.051 Y124.903 E.51633
G1 X105.242 Y113.094 E.56529
G1 X105.242 Y95.118 E.60847
G1 X115.263 Y85.097 E.4797
G1 X134.017 Y85.097 E.6348
G1 X144.758 Y95.838 E.51416
G1 X144.758 Y112.45 E.5623
G1 X132.347 Y124.861 E.59411
M204 S1000
G1 X132.469 Y125.31 F10800
M204 S800
;TYPE:External perimeter
G1 F1500
G1 X116.883 Y125.31 E.52757
G1 X104.835 Y113.262 E.57673
G1 X104.835 Y94.949 E.61987
G1 X115.094 Y84.69 E.49109
G1 X134.186 Y84.69 E.64624
M73 P8 R36
G1 X145.165 Y95.669 E.52556
M73 Q8 S36
G1 X145.165 Y112.618 E.5737
G1 X132.513 Y125.27 E.60564
M204 S1000
G1 X132.153 Y125.065 F10800
;WIPE_START
G1 F8640
G1 X128.182 Y125.281 E-1
;WIPE_END
G1 Z.6 F720
G1 X125.833 Y108.256 F10800
G1 Z.4 F720
G1 E1 F2100
M204 S800
;TYPE:Perimeter
G1 F2700
G1 X125.701 Y109.473 E.04144
G1 X125.378 Y110.581 E.03907
G1 X124.872 Y111.619 E.03909
G1 X124.265 Y112.477 E.03558
