; generated by PrusaSlicer 2.6.0+win64 on 2023-07-22 at 13:29:14 UTC


;
;
; 

; external perimeters extrusion width = 0.65mm
; perimeters extrusion width = 0.65mm
; infill extrusion width = 0.65mm
; solid infill extrusion width = 0.65mm
; top infill extrusion width = 0.60mm
; first layer extrusion width = 0.65mm

M73 P0 R29
M73 Q0 S30
M201 X1000 Y1000 Z200 E5000 ; sets maximum accelerations, mm/sec^2
M203 X200 Y200 Z12 E120 ; sets maximum feedrates, mm / sec
M204 S1250 T1250 ; sets acceleration (S) and retract acceleration (R), mm/sec^2
M205 X8.00 Y8.00 Z0.40 E4.50 ; sets the jerk limits, mm/sec
M205 S0 T0 ; sets the minimum extruding and travel feed rate, mm/sec
;TYPE:Custom
M862.3 P "MK3S" ; printer model check
M862.1 P0.6 ; nozzle diameter check
M115 U3.12.2 ; tell printer latest fw version
G90 ; use absolute coordinates
M83 ; extruder relative mode
M104 S240 ; set extruder temp
M140 S85 ; set bed temp
M190 S85 ; wait for bed temp
M109 S240 ; wait for extruder temp
G28 W ; home all without mesh bed level
G80 ; mesh bed leveling

G1 Z0.2 F720
G1 Y-3 F1000 ; go outside print area
G92 E0
G1 X60 E9 F1000 ; intro line
G1 X100 E12.5 F1000 ; intro line

G92 E0
M221 S95
G21 ; set units to millimeters
G90 ; use absolute coordinates
M83 ; use relative distances for extrusion
M900 K0.04 ; Filament gcode LA 1.5
M900 K24 ; Filament gcode LA 1.0
M107
;LAYER_CHANGE
;Z:0.2
;HEIGHT:0.2
;BEFORE_LAYER_CHANGE
G92 E0.0
;0.2


G1 E-1 F2100
G1 Z.2 F720
;AFTER_LAYER_CHANGE
;0.2
G1 Z.4
G1 X107.095 Y87.276 F10800
G1 Z.2 F720
G1 E1 F1500
M204 S800
;TYPE:Skirt/Brim
;WIDTH:0.65
G1 F1200
G1 X109.656 Y84.489 E.19106
G1 X113.063 Y81.889 E.21634
G1 X116.059 Y80.317 E.17079
G1 X119.677 Y79.096 E.19275
G1 X123.448 Y78.494 E.19277
G1 X127.266 Y78.529 E.19274
G1 X131.445 Y79.315 E.21465
G1 X134.62 Y80.486 E.17082
G1 X137.95 Y82.353 E.19271
G1 X141.047 Y84.857 E.20104
G1 X146.879 Y90.299 E.40265
G1 X147.708 Y92.205 E.10492
G1 X147.708 Y128.93 E1.85384
G1 X147.315 Y130.305 E.07219
G1 X146.256 Y131.266 E.07219
G1 X145.101 Y131.537 E.05989
G1 X104.899 Y131.537 E2.02935
G1 X103.524 Y131.144 E.07219
M73 Q0 S29
G1 X102.563 Y130.085 E.07219
G1 X102.292 Y128.93 E.05989
G1 X102.292 Y101.28 E1.39574
G1 X102.657 Y97.26 E.20376
G1 X103.497 Y93.982 E.17082
G1 X105.015 Y90.478 E.19276
G1 X107.046 Y87.351 E.18822
M204 S1000
; printing object Right_Motor_Bracket_34,8mm_rev0-3 id:0 copy 0
;WIPE_START
G1 F8640
G1 X109.656 Y84.489 E-.89438
G1 X110.02 Y84.211 E-.10562
;WIPE_END
G1 Z.4 F720
G1 X143.367 Y96.178 F10800
G1 Z.2 F720
G1 E1 F1500
M204 S800
;TYPE:Perimeter
;WIDTH:0.638336
G1 F1200
G1 X143.014 Y94.872 E.06698
G1 X142.923 Y94.625 E.01303
G1 X142.533 Y93.792 E.04554
G1 X143.079 Y93.938 E.02798
G1 X143.367 Y93.939 E.01426
G1 X143.367 Y96.088 E.10639
M204 S1000
;WIPE_START
G1 F8640
G1 X143.014 Y94.872 E-.29237
G1 X142.923 Y94.625 E-.06078
G1 X142.533 Y93.792 E-.21238
G1 X143.079 Y93.938 E-.1305
G1 X143.367 Y93.939 E-.0665
G1 X143.367 Y94.967 E-.23747
;WIPE_END
G1 Z.4 F720
G1 X126.989 Y120.114 F10800
G1 Z.2 F720
G1 E1 F1500
M204 S800
;WIDTH:0.649999
G1 F1200
G1 X128.418 Y119.981 E.07245
G1 X128.678 Y119.933 E.01335
G1 X131.61 Y119.131 E.15344
G1 X131.858 Y119.039 E.01335
M73 Q1 S29
G1 X134.607 Y117.741 E.15346
G1 X134.835 Y117.608 E.01332
G1 X137.317 Y115.852 E.15347
G1 X137.518 Y115.682 E.01329
M73 P1 R29
G1 X139.659 Y113.523 E.15349
G1 X139.828 Y113.32 E.01333
G1 X141.561 Y110.823 E.15343
G1 X141.692 Y110.593 E.01336
G1 X142.967 Y107.834 E.15342
G1 X143.056 Y107.585 E.01335
G1 X143.361 Y106.431 E.06025
G1 X143.361 Y127.19 E1.04789
G1 X126.989 Y127.19 E.82644
G1 X126.989 Y120.204 E.35265
M204 S1000
;WIPE_START
G1 F8640
G1 X128.418 Y119.981 E-.33395
G1 X128.678 Y119.933 E-.06105
G1 X131.205 Y119.242 E-.605
;WIPE_END
G1 Z.4 F720
G1 X123.31 Y120.114 F10800
G1 Z.2 F720
G1 E1 F1500
M204 S800
G1 F1200
G1 X123.31 Y127.19 E.35719
G1 X106.639 Y127.19 E.84153
G1 X106.639 Y105.3 E1.10498
G1 X107.242 Y107.585 E.11929
G1 X107.332 Y107.833 E.01332
G1 X108.606 Y110.593 E.15345
G1 X108.738 Y110.823 E.01339
G1 X110.471 Y113.32 E.15343
G1 X110.64 Y113.523 E.01333
G1 X112.78 Y115.682 E.15345
G1 X112.982 Y115.852 E.01333
G1 X115.152 Y117.387 E.13417
G1 X115.692 Y117.741 E.03259
G1 X118.441 Y119.039 E.15346
G1 X118.688 Y119.131 E.01331
G1 X121.616 Y119.932 E.15323
G1 X121.875 Y119.979 E.01329
G1 X123.221 Y120.105 E.06824
M204 S1000
G1 X123.917 Y119.561 F10800
M204 S800
G1 F1200
G1 X123.917 Y127.797 E.41574
G1 X106.032 Y127.797 E.90281
G1 X106.032 Y107.663 E1.01634
;WIDTH:0.690388
G1 X106.052 Y106.903 E.04093
;WIDTH:0.730777
G1 X106.072 Y106.143 E.04348
;WIDTH:0.771166
G1 X106.092 Y105.383 E.04604
;WIDTH:0.811555
G1 X106.112 Y104.623 E.04859
;WIDTH:0.844334
G1 X106.129 Y104.377 E.01643
G1 X106.107 Y103.365 E.06745
;WIDTH:0.801726
G1 X106.086 Y102.354 E.0638
;WIDTH:0.759118
G1 X106.065 Y101.342 E.06028
;WIDTH:0.716463
G1 X106.333 Y98.13 E.18051
G1 X106.404 Y97.805 E.01863
;WIDTH:0.721229
G1 X107.122 Y95.042 E.16101
G1 X107.302 Y94.598 E.02702
;WIDTH:0.725555
G1 X108.415 Y92.128 E.15378
G1 X108.734 Y91.61 E.03453
;WIDTH:0.729432
G1 X110.174 Y89.47 E.14724
G1 X110.66 Y88.916 E.04207
;WIDTH:0.732858
G1 X112.351 Y87.143 E.14056
G1 X112.984 Y86.629 E.04678
;WIDTH:0.736798
G1 X114.884 Y85.21 E.13682
G1 X115.342 Y84.95 E.03039
;WIDTH:0.711414
G1 X115.751 Y84.721 E.02606
;WIDTH:0.712205
G1 X116.727 Y84.224 E.06095
;WIDTH:0.73838
G1 X117.704 Y83.726 E.06341
G1 X118.26 Y83.525 E.03419
;WIDTH:0.711231
G1 X118.762 Y83.346 E.02962
;WIDTH:0.712277
G1 X119.747 Y83.039 E.05742
;WIDTH:0.740472
G1 X120.731 Y82.732 E.05979
G1 X121.377 Y82.616 E.03807
;WIDTH:0.711528
G1 X121.965 Y82.513 E.03319
;WIDTH:0.712351
G1 X122.923 Y82.385 E.0538
;WIDTH:0.742117
G1 X123.882 Y82.256 E.05626
G1 X124.493 Y82.248 E.03553
;WIDTH:0.712835
G1 X125.047 Y82.244 E.03086
;WIDTH:0.683553
G1 X125.264 Y82.247 E.01156
;WIDTH:0.712424
G1 X126.165 Y82.279 E.05019
;WIDTH:0.743319
G1 X127.067 Y82.312 E.05257
G1 X127.735 Y82.417 E.03938
;WIDTH:0.712758
G1 X128.345 Y82.516 E.03442
;WIDTH:0.682196
G1 X128.559 Y82.555 E.01156
;WIDTH:0.712499
G1 X129.379 Y82.726 E.04664
;WIDTH:0.744076
G1 X130.199 Y82.896 E.04882
G1 X130.901 Y83.133 E.0432
;WIDTH:0.712681
G1 X131.547 Y83.354 E.03802
;WIDTH:0.681286
G1 X131.75 Y83.429 E.01149
;WIDTH:0.712576
G1 X132.47 Y83.711 E.04306
;WIDTH:0.744388
G1 X133.19 Y83.994 E.04512
G1 X133.899 Y84.376 E.04697
;WIDTH:0.712606
G1 X134.555 Y84.734 E.04161
;WIDTH:0.681049
G1 X134.743 Y84.842 E.0115
;WIDTH:0.712652
G1 X135.349 Y85.208 E.03942
;WIDTH:0.744254
G1 X136.004 Y85.607 E.04473
G1 X136.641 Y86.11 E.04733
;WIDTH:0.712529
G1 X137.279 Y86.613 E.04524
;WIDTH:0.681778
G1 X137.446 Y86.751 E.01151
;WIDTH:0.712727
G1 X137.933 Y87.172 E.03585
;WIDTH:0.743676
G1 X138.463 Y87.634 E.04097
G1 X139.034 Y88.267 E.04967
;WIDTH:0.713301
G1 X139.604 Y88.9 E.04748
;WIDTH:0.684482
G1 X139.744 Y89.062 E.01142
;WIDTH:0.714817
G1 X140.129 Y89.528 E.03377
;WIDTH:0.745152
G1 X140.549 Y90.042 E.03876
G1 X141.052 Y90.835 E.05483
;WIDTH:0.713683
G1 X141.555 Y91.628 E.05238
;WIDTH:0.684582
G1 X141.668 Y91.817 E.01175
;WIDTH:0.719818
G1 X141.987 Y92.373 E.03608
;WIDTH:0.755054
G1 X142.306 Y92.929 E.03796
G1 X142.438 Y93.03 E.00984
;WIDTH:0.720036
G1 X142.57 Y93.13 E.00932
;WIDTH:0.685018
G1 X142.702 Y93.231 E.00887
;WIDTH:0.649999
G1 X143.128 Y93.337 E.02216
G1 X143.969 Y93.337 E.04245
G1 X143.969 Y94.178 E.04245
G1 X143.969 Y94.825 E.03266
;WIDTH:0.683762
G1 X143.952 Y97.865 E.16199
;WIDTH:0.703761
G1 X143.964 Y99.101 E.06792
;WIDTH:0.658128
G1 X143.987 Y100.114 E.05183
;WIDTH:0.612495
G1 X144.01 Y101.127 E.04799
;WIDTH:0.566861
G1 X144.01 Y101.324 E.00858
;WIDTH:0.609269
G1 X143.989 Y102.337 E.04771
;WIDTH:0.651961
G1 X143.968 Y103.351 E.05136
;WIDTH:0.694653
G1 X143.947 Y104.585 E.06688
;WIDTH:0.692558
G1 X143.969 Y107.625 E.16422
;WIDTH:0.649999
G1 X143.969 Y127.797 E1.01826
G1 X126.382 Y127.797 E.88777
G1 X126.382 Y119.561 E.41574
G1 X128.362 Y119.376 E.10038
G1 X128.518 Y119.348 E.008
G1 X131.45 Y118.545 E.15345
G1 X131.599 Y118.49 E.00802
G1 X134.348 Y117.192 E.15346
G1 X134.484 Y117.112 E.00796
G1 X136.966 Y115.357 E.15345
G1 X137.087 Y115.254 E.00802
G1 X139.228 Y113.095 E.15349
G1 X139.329 Y112.974 E.00796
G1 X141.063 Y110.476 E.1535
G1 X141.141 Y110.339 E.00796
G1 X142.416 Y107.579 E.15347
G1 X142.469 Y107.43 E.00798
;WIDTH:0.692558
G1 X143.267 Y104.496 E.16425
;WIDTH:0.694653
G1 X143.296 Y104.337 E.00876
G1 X143.36 Y103.325 E.05495
;WIDTH:0.651961
G1 X143.424 Y102.314 E.0513
;WIDTH:0.609269
G1 X143.487 Y101.302 E.04775
;WIDTH:0.566861
G1 X143.487 Y101.151 E.00658
;WIDTH:0.612495
G1 X143.419 Y100.14 E.04799
;WIDTH:0.658128
G1 X143.35 Y99.128 E.05189
;WIDTH:0.703761
G1 X143.282 Y98.117 E.05568
G1 X143.244 Y97.959 E.00893
;WIDTH:0.683762
G1 X142.434 Y95.029 E.16198
;WIDTH:0.649999
G1 X141.944 Y93.952 E.05973
;WIDTH:0.685018
G1 X141.856 Y93.723 E.0131
;WIDTH:0.720036
G1 X141.768 Y93.494 E.01381
;WIDTH:0.755054
G1 X141.68 Y93.265 E.01453
G1 X141.392 Y92.693 E.03792
;WIDTH:0.719818
G1 X141.104 Y92.12 E.0361
;WIDTH:0.684582
G1 X141.021 Y91.979 E.00873
;WIDTH:0.713683
G1 X140.492 Y91.203 E.05238
;WIDTH:0.745152
G1 X139.962 Y90.427 E.05487
G1 X139.601 Y89.943 E.03526
;WIDTH:0.714817
G1 X139.24 Y89.458 E.03378
;WIDTH:0.684482
G1 X139.137 Y89.337 E.00848
;WIDTH:0.713301
G1 X138.544 Y88.724 E.04754
;WIDTH:0.743676
G1 X137.951 Y88.112 E.04965
G1 X137.484 Y87.668 E.03755
;WIDTH:0.712727
G1 X137.017 Y87.224 E.03589
;WIDTH:0.681778
G1 X136.893 Y87.121 E.00856
;WIDTH:0.712529
G1 X136.237 Y86.644 E.04516
;WIDTH:0.744254
G1 X135.581 Y86.166 E.04733
G1 X134.991 Y85.773 E.04134
;WIDTH:0.712652
G1 X134.401 Y85.38 E.03948
;WIDTH:0.681049
G1 X134.262 Y85.3 E.00851
;WIDTH:0.712606
G1 X133.591 Y84.97 E.04164
;WIDTH:0.744388
G1 X132.92 Y84.641 E.04359
G1 X132.213 Y84.329 E.04507
;WIDTH:0.712576
G1 X131.505 Y84.018 E.04306
;WIDTH:0.681286
G1 X131.354 Y83.962 E.00855
;WIDTH:0.712681
G1 X130.699 Y83.771 E.038
;WIDTH:0.744076
G1 X130.043 Y83.579 E.03985
M73 Q2 S29
G1 X129.23 Y83.378 E.04883
;WIDTH:0.712499
G1 X128.417 Y83.177 E.04663
;WIDTH:0.682196
G1 X128.259 Y83.148 E.00854
;WIDTH:0.712758
G1 X127.644 Y83.08 E.03446
;WIDTH:0.743319
G1 X127.03 Y83.011 E.03598
M73 P2 R29
G1 X126.13 Y82.947 E.05255
;WIDTH:0.712424
G1 X125.23 Y82.884 E.05023
;WIDTH:0.683553
G1 X125.069 Y82.883 E.00858
;WIDTH:0.712835
G1 X124.516 Y82.917 E.03086
;WIDTH:0.742117
G1 X123.964 Y82.95 E.03215
G1 X123.002 Y83.049 E.05622
;WIDTH:0.712351
G1 X122.04 Y83.148 E.05383
;WIDTH:0.685362
G1 X121.881 Y83.175 E.00862
;WIDTH:0.712917
G1 X121.405 Y83.288 E.02726
;WIDTH:0.740472
G1 X120.93 Y83.401 E.02832
G1 X119.937 Y83.681 E.05984
;WIDTH:0.712277
G1 X118.944 Y83.961 E.05742
;WIDTH:0.687616
G1 X118.792 Y84.014 E.00863
;WIDTH:0.712998
G1 X118.402 Y84.182 E.02366
;WIDTH:0.73838
G1 X118.012 Y84.349 E.02453
G1 X117.024 Y84.823 E.06337
;WIDTH:0.712205
G1 X116.036 Y85.298 E.06101
;WIDTH:0.690537
G1 X115.893 Y85.378 E.00882
;WIDTH:0.736798
G1 X115.294 Y85.77 E.0413
G1 X113.367 Y87.152 E.13682
;WIDTH:0.696646
G1 X113.243 Y87.253 E.00869
;WIDTH:0.732858
G1 X112.846 Y87.623 E.03113
G1 X111.125 Y89.368 E.1406
;WIDTH:0.691253
G1 X111.104 Y89.39 E.00164
;WIDTH:0.729432
G1 X110.741 Y89.857 E.03376
G1 X109.272 Y91.978 E.14728
;WIDTH:0.725555
G1 X109.036 Y92.411 E.02799
G1 X107.898 Y94.87 E.1538
;WIDTH:0.721229
G1 X107.778 Y95.214 E.02055
G1 X107.046 Y97.956 E.16007
;WIDTH:0.716509
G1 X107.004 Y98.189 E.01326
G1 X106.737 Y101.314 E.17567
;WIDTH:0.759118
G1 X106.801 Y102.324 E.06027
;WIDTH:0.801726
G1 X106.865 Y103.333 E.06379
;WIDTH:0.844334
G1 X106.929 Y104.343 E.06744
G1 X106.974 Y104.511 E.01159
;WIDTH:0.811555
G1 X107.188 Y105.241 E.04862
;WIDTH:0.771166
G1 X107.402 Y105.971 E.04606
;WIDTH:0.730777
G1 X107.616 Y106.7 E.04345
;WIDTH:0.690388
G1 X107.829 Y107.43 E.04094
;WIDTH:0.649999
G1 X107.883 Y107.579 E.008
G1 X109.158 Y110.339 E.15347
G1 X109.236 Y110.476 E.00796
G1 X110.97 Y112.974 E.1535
G1 X111.071 Y113.095 E.00796
G1 X113.211 Y115.254 E.15345
G1 X113.332 Y115.357 E.00802
G1 X115.951 Y117.192 E.16142
G1 X118.7 Y118.49 E.15346
G1 X118.849 Y118.545 E.00802
G1 X121.776 Y119.346 E.15318
G1 X121.931 Y119.375 E.00796
G1 X123.828 Y119.553 E.09618
M204 S1000
G1 X124.524 Y119.008 F10800
M204 S800
;TYPE:External perimeter
G1 F1200
G1 X124.524 Y128.405 E.47435
G1 X105.424 Y128.405 E.96415
G1 X105.424 Y101.301 E1.36818
G1 X105.702 Y97.995 E.16747
G1 X106.52 Y94.802 E.16638
G1 X107.859 Y91.79 E.16639
G1 X109.681 Y89.044 E.16635
G1 X111.934 Y86.638 E.16639
G1 X114.557 Y84.642 E.16638
G1 X117.475 Y83.11 E.16636
G1 X120.608 Y82.086 E.16638
G1 X123.868 Y81.598 E.16639
G1 X127.163 Y81.659 E.16636
G1 X130.403 Y82.269 E.16642
G1 X133.495 Y83.409 E.16635
G1 X136.354 Y85.048 E.16635
G1 X138.901 Y87.141 E.16641
G1 X141.063 Y89.628 E.16635
G1 X142.869 Y92.585 E.1749
G1 X142.986 Y92.695 E.00811
G1 X143.128 Y92.73 E.00738
G1 X144.576 Y92.73 E.07309
G1 X144.576 Y128.405 E1.80083
G1 X125.774 Y128.405 E.9491
G1 X125.774 Y119.008 E.47435
G1 X128.358 Y118.762 E.13103
G1 X131.29 Y117.96 E.15344
G1 X134.088 Y116.643 E.1561
G1 X136.616 Y114.861 E.15613
G1 X138.796 Y112.668 E.15609
G1 X140.59 Y110.084 E.15879
G1 X141.883 Y107.275 E.1561
G1 X142.668 Y104.284 E.1561
G1 X142.924 Y101.202 E.15611
G1 X142.641 Y98.122 E.15613
G1 X141.829 Y95.138 E.15611
G1 X140.512 Y92.339 E.15615
G1 X138.697 Y89.779 E.15841
G1 X136.537 Y87.632 E.15373
G1 X134.045 Y85.891 E.15345
G1 X131.243 Y84.582 E.15611
G1 X128.256 Y83.778 E.15615
G1 X125.176 Y83.505 E.15608
G1 X122.043 Y83.778 E.15875
G1 X119.056 Y84.582 E.15615
G1 X116.253 Y85.891 E.15616
G1 X113.688 Y87.699 E.15841
G1 X111.535 Y89.852 E.1537
G1 X109.787 Y92.34 E.15349
G1 X108.47 Y95.138 E.1561
G1 X107.657 Y98.122 E.15612
G1 X107.375 Y101.202 E.15613
G1 X107.63 Y104.284 E.15611
G1 X108.434 Y107.324 E.15873
G1 X109.735 Y110.13 E.15613
G1 X111.502 Y112.668 E.15611
G1 X113.683 Y114.861 E.15613
G1 X116.211 Y116.643 E.15613
G1 X119.009 Y117.96 E.1561
G1 X121.936 Y118.761 E.15318
G1 X124.435 Y119 E.12672
M204 S1000
G1 X124.193 Y119.508 F10800
;WIPE_START
G1 F8640
G1 X124.476 Y123.331 E-1
;WIPE_END
G1 Z.4 F720
G1 X123.067 Y121.599 F10800
G1 Z.2 F720
G1 E1 F1500
M204 S800
;TYPE:Solid infill
;WIDTH:0.666191
G1 F1200
G1 X121.975 Y120.507 E.08003
G1 X121.488 Y120.432 E.02554
G1 X120.842 Y120.255 E.03471
G1 X122.794 Y122.207 E.14307
G1 X122.794 Y123.089 E.04571
G1 X119.629 Y119.923 E.23201
M73 P3 R29
M73 Q3 S29
G1 X118.396 Y119.572 E.06644
G1 X122.794 Y123.97 E.32234
G1 X122.794 Y124.852 E.04571
G1 X116.185 Y118.242 E.48442
M204 S1000
;WIPE_START
G1 F8640
G1 X119.247 Y121.305 E-1
;WIPE_END
G1 Z.4 F720
G1 X108.17 Y110.227 F10800
G1 Z.2 F720
G1 E1 F1500
M204 S800
G1 F1200
G1 X107.158 Y109.215 E.07417
G1 X107.158 Y110.097 E.04571
G1 X108.622 Y111.561 E.1073
G1 X110.053 Y113.622 E.13003
G1 X110.267 Y113.88 E.01737
G1 X112.42 Y116.052 E.1585
G1 X112.676 Y116.268 E.01736
G1 X114.907 Y117.846 E.14162
G1 X122.794 Y125.733 E.57805
G1 X122.794 Y126.615 E.04571
G1 X107.157 Y110.978 E1.14607
G1 X107.157 Y111.859 E.04566
G1 X121.973 Y126.674 E1.08586
G1 X121.091 Y126.674 E.04571
M73 P3 R28
G1 X107.157 Y112.74 E1.02125
G1 X107.157 Y113.622 E.04571
G1 X120.21 Y126.674 E.95664
G1 X119.328 Y126.674 E.04571
G1 X107.157 Y114.503 E.89204
G1 X107.157 Y115.384 E.04566
G1 X118.447 Y126.674 E.82747
G1 X117.565 Y126.674 E.04571
G1 X107.157 Y116.265 E.76286
G1 X107.156 Y117.147 E.04571
G1 X116.684 Y126.674 E.69829
G1 X115.803 Y126.674 E.04566
G1 X107.156 Y118.028 E.63372
G1 X107.156 Y118.909 E.04566
G1 X114.921 Y126.674 E.56911
G1 X114.04 Y126.674 E.04566
G1 X107.156 Y119.791 E.5045
G1 X107.156 Y120.672 E.04566
G1 X113.158 Y126.674 E.4399
G1 X112.277 Y126.674 E.04566
G1 X107.156 Y121.553 E.37533
G1 X107.155 Y122.434 E.04566
G1 X111.395 Y126.674 E.31076
G1 X110.514 Y126.674 E.04566
G1 X107.155 Y123.316 E.24615
G1 X107.155 Y124.197 E.04566
G1 X109.632 Y126.674 E.18154
G1 X108.751 Y126.674 E.04566
G1 X107.155 Y125.078 E.11697
G1 X107.155 Y125.96 E.04571
G1 X108.143 Y126.948 E.07241
M204 S1000
;WIPE_START
G1 F8640
G1 X107.155 Y125.96 E-.32263
G1 X107.155 Y125.078 E-.20366
G1 X108.606 Y126.529 E-.47371
;WIPE_END
