; generated by PrusaSlicer 2.6.0+win64 on 2023-08-01 at 12:44:12 UTC


;
;
; 

; external perimeters extrusion width = 0.45mm
; perimeters extrusion width = 0.45mm
; infill extrusion width = 0.45mm
; solid infill extrusion width = 0.45mm
; top infill extrusion width = 0.40mm
; support material extrusion width = 0.35mm
; first layer extrusion width = 0.42mm

M73 P0 R53
M73 Q0 S54
M201 X1000 Y1000 Z200 E5000 ; sets maximum accelerations, mm/sec^2
M203 X200 Y200 Z12 E120 ; sets maximum feedrates, mm / sec
M204 S1250 T1250 ; sets acceleration (S) and retract acceleration (R), mm/sec^2
M205 X8.00 Y8.00 Z0.40 E4.50 ; sets the jerk limits, mm/sec
M205 S0 T0 ; sets the minimum extruding and travel feed rate, mm/sec
;TYPE:Custom
M862.3 P "MK3S" ; printer model check
M862.1 P0.4 ; nozzle diameter check
M115 U3.12.2 ; tell printer latest fw version
G90 ; use absolute coordinates
M83 ; extruder relative mode
M104 S230 ; set extruder temp
M140 S85 ; set bed temp
M190 S85 ; wait for bed temp
M109 S230 ; wait for extruder temp
G28 W ; home all without mesh bed level
G80 ; mesh bed leveling

G1 Z0.2 F720
G1 Y-3 F1000 ; go outside print area
G92 E0
G1 X60 E9 F1000 ; intro line
G1 X100 E12.5 F1000 ; intro line

G92 E0
M221 S95

; Don't change E values below. Excessive value can damage the printer.

M907 E538 ; set extruder motor current
G21 ; set units to millimeters
G90 ; use absolute coordinates
M83 ; use relative distances for extrusion
M900 K0.08 ; Filament gcode LA 1.5
M900 K45 ; Filament gcode LA 1.0
M107
;LAYER_CHANGE
;Z:0.2
;HEIGHT:0.2
;BEFORE_LAYER_CHANGE
G92 E0.0
;0.2


G1 E-1 F2100
G1 Z.2 F720
;AFTER_LAYER_CHANGE
;0.2
G1 Z.4
G1 X113.009 Y73.309 F10800
G1 Z.2 F720
G1 E1 F2100
M204 S800
;TYPE:Skirt/Brim
;WIDTH:0.42
G1 F1200
G1 X113.454 Y72.691 E.02388
G1 X120.376 Y65.77 E.30691
G1 X120.993 Y65.324 E.02387
G1 X130.222 Y60.71 E.32352
G1 X131.285 Y60.459 E.03425
G1 X139.479 Y60.459 E.25692
G1 X140.786 Y60.851 E.04278
G1 X141.662 Y61.896 E.04275
G1 X141.856 Y62.836 E.03009
G1 X141.856 Y77.951 E.47392
G1 X139.547 Y137.711 E1.87513
G1 X139.105 Y139.002 E.04279
G1 X138.397 Y139.656 E.03022
G1 X131.876 Y143.539 E.23796
G1 X130.557 Y144.041 E.04425
G1 X129.172 Y144.313 E.04426
G1 X127.36 Y144.313 E.05681
G1 X126.365 Y144.143 E.03165
G1 X125.023 Y143.705 E.04426
G1 X116.519 Y140.126 E.28929
G1 X115.187 Y138.687 E.06148
G1 X110.573 Y124.845 E.45748
G1 X108.215 Y115.441 E.30398
G1 X108.144 Y114.865 E.0182
G1 X108.144 Y83.6 E.98029
G1 X108.395 Y82.537 E.03425
G1 X112.982 Y73.362 E.32162
M204 S1000
; printing object Right_Gripper_rev0 id:0 copy 0
;WIPE_START
G1 F8640
G1 X113.454 Y72.691 E-.18943
G1 X115.936 Y70.209 E-.81057
;WIPE_END
G1 Z.4 F720
G1 X139.479 Y77.951 F10800
G1 Z.2 F720
G1 E1 F2100
M204 S800
;TYPE:Support material
G1 F1200
G1 X137.172 Y77.951 E.07233
G1 X137.172 Y87.18 E.28937
G1 X134.865 Y87.18 E.07233
G1 X134.865 Y89.487 E.07233
G1 X132.558 Y89.487 E.07233
G1 X132.558 Y94.101 E.14467
G1 X130.251 Y94.101 E.07233
G1 X130.251 Y104.364 E.32179
G1 X132.558 Y104.364 E.07233
G1 X132.558 Y113.592 E.28934
G1 X134.865 Y113.592 E.07233
G1 X134.865 Y122.82 E.28934
G1 X137.172 Y122.82 E.07233
G1 X137.172 Y137.619 E.46401
G1 X134.444 Y137.793 E.08571
G1 X134.646 Y136.838 E.03061
G1 X134.689 Y135.749 E.03417
G1 X134.547 Y134.666 E.03425
G1 X134.238 Y133.658 E.03306
G1 X133.803 Y132.774 E.03089
G1 X125.423 Y118.716 E.51315
G1 X125.019 Y118.156 E.02165
G1 X124.565 Y117.706 E.02004
G1 X124.011 Y117.312 E.02132
G1 X123.4 Y117.015 E.0213
G1 X122.747 Y116.826 E.02131
G1 X122.072 Y116.747 E.02131
G1 X121.353 Y116.789 E.02258
G1 X120.691 Y116.944 E.02132
G1 X120.037 Y117.225 E.02232
G1 X119.491 Y117.572 E.02028
G1 X119.014 Y117.998 E.02005
G1 X118.587 Y118.527 E.02132
G1 X118.254 Y119.119 E.0213
G1 X118.025 Y119.759 E.02131
G1 X117.907 Y120.429 E.02133
G1 X117.901 Y121.108 E.02129
G1 X118.012 Y121.789 E.02163
G1 X118.597 Y124.093 E.07453
G1 X112.828 Y124.093 E.18088
G1 X112.828 Y114.865 E.28934
G1 X110.521 Y114.865 E.07233
G1 X110.521 Y83.6 E.98029
G1 X112.828 Y83.6 E.07233
G1 X112.828 Y78.986 E.14467
G1 X115.135 Y78.986 E.07233
G1 X115.135 Y74.372 E.14467
G1 X117.442 Y74.372 E.07233
G1 X117.442 Y72.065 E.07233
G1 X119.749 Y72.065 E.07233
G1 X119.749 Y69.757 E.07237
G1 X122.057 Y69.757 E.07237
G1 X122.057 Y67.45 E.07233
G1 X126.671 Y67.45 E.14467
G1 X126.671 Y65.143 E.07233
G1 X131.285 Y65.143 E.14467
G1 X131.285 Y62.836 E.07233
G1 X139.479 Y62.836 E.25692
G1 X139.479 Y77.895 E.47216
M204 S1000
G1 X138.826 Y77.782 F10800
M204 S800
G1 F1200
G1 X138.826 Y63.176 E.45796
G1 X138.407 Y63.176 E.01314
G1 X138.407 Y77.612 E.45263
G1 X137.988 Y77.612 E.01314
G1 X137.988 Y63.176 E.45263
G1 X137.569 Y63.176 E.01314
G1 X137.569 Y77.612 E.45263
G1 X137.15 Y77.612 E.01314
M73 P1 R53
M73 Q1 S53
G1 X137.15 Y63.176 E.45263
G1 X136.731 Y63.176 E.01314
G1 X136.731 Y86.84 E.74197
G1 X136.312 Y86.84 E.01314
G1 X136.312 Y63.176 E.74197
G1 X135.893 Y63.176 E.01314
G1 X135.893 Y86.84 E.74197
G1 X135.474 Y86.84 E.01314
G1 X135.474 Y63.176 E.74197
G1 X135.055 Y63.176 E.01314
G1 X135.055 Y86.84 E.74197
G1 X134.636 Y86.84 E.01314
G1 X134.636 Y63.176 E.74197
G1 X134.217 Y63.176 E.01314
G1 X134.217 Y89.147 E.8143
G1 X133.799 Y89.147 E.01311
G1 X133.799 Y63.176 E.8143
G1 X133.38 Y63.176 E.01314
G1 X133.38 Y89.147 E.8143
G1 X132.961 Y89.147 E.01314
G1 X132.961 Y63.176 E.8143
G1 X132.542 Y63.176 E.01314
G1 X132.542 Y89.147 E.8143
G1 X132.218 Y89.147 E.01016
G1 X132.218 Y93.762 E.1447
G1 X132.123 Y93.762 E.00298
G1 X132.123 Y63.176 E.959
G1 X131.704 Y63.176 E.01314
G1 X131.704 Y93.762 E.959
G1 X131.285 Y93.762 E.01314
G1 X131.285 Y65.483 E.88667
G1 X130.866 Y65.483 E.01314
G1 X130.866 Y93.762 E.88667
G1 X130.447 Y93.762 E.01314
M73 P1 R52
G1 X130.447 Y65.483 E.88667
G1 X130.028 Y65.483 E.01314
G1 X130.028 Y125.777 E1.89048
G1 X130.447 Y126.48 E.02566
G1 X130.447 Y104.703 E.6828
G1 X130.866 Y104.703 E.01314
G1 X130.866 Y127.183 E.70484
G1 X131.285 Y127.886 E.02566
G1 X131.285 Y104.703 E.72689
G1 X131.704 Y104.703 E.01314
G1 X131.704 Y128.589 E.74893
G1 X132.123 Y129.291 E.02563
G1 X132.123 Y104.703 E.77094
G1 X132.218 Y104.703 E.00298
G1 X132.218 Y113.931 E.28934
G1 X132.542 Y113.931 E.01016
M73 P2 R52
G1 X132.542 Y129.994 E.50364
G1 X132.961 Y130.697 E.02566
M73 Q2 S53
G1 X132.961 Y113.931 E.52569
G1 X133.38 Y113.931 E.01314
G1 X133.38 Y131.4 E.54773
G1 X133.799 Y132.103 E.02566
G1 X133.799 Y113.931 E.56977
G1 X134.217 Y113.931 E.01311
G1 X134.217 Y132.847 E.5931
G1 X134.534 Y133.486 E.02237
G1 X134.636 Y133.799 E.01032
G1 X134.636 Y123.16 E.33358
G1 X135.055 Y123.16 E.01314
G1 X135.055 Y137.414 E.44692
G1 X135.474 Y137.388 E.01316
G1 X135.474 Y123.16 E.44611
G1 X135.893 Y123.16 E.01314
G1 X135.893 Y137.361 E.44526
G1 X136.312 Y137.334 E.01316
G1 X136.312 Y123.16 E.44442
G1 X136.731 Y123.16 E.01314
G1 X136.731 Y137.477 E.4489
M204 S1000
G1 X129.609 Y125.406 F10800
M204 S800
G1 F1200
G1 X129.609 Y65.483 E1.87884
G1 X129.19 Y65.483 E.01314
G1 X129.19 Y124.372 E1.84642
G1 X128.771 Y123.669 E.02566
G1 X128.771 Y65.483 E1.82438
G1 X128.352 Y65.483 E.01314
G1 X128.352 Y122.966 E1.80234
G1 X127.933 Y122.263 E.02566
G1 X127.933 Y65.483 E1.7803
G1 X127.514 Y65.483 E.01314
G1 X127.514 Y121.56 E1.75825
G1 X127.095 Y120.858 E.02563
G1 X127.095 Y65.483 E1.73624
G1 X127.01 Y65.483 E.00267
M73 Q2 S52
G1 X127.01 Y67.79 E.07233
G1 X126.676 Y67.79 E.01047
G1 X126.676 Y120.155 E1.64187
G1 X126.257 Y119.452 E.02566
M73 P3 R52
G1 X126.257 Y67.79 E1.61983
G1 X125.838 Y67.79 E.01314
M73 Q3 S52
G1 X125.838 Y118.749 E1.59778
G1 X125.692 Y118.507 E.00886
G1 X125.419 Y118.126 E.0147
G1 X125.419 Y67.79 E1.57825
G1 X125 Y67.79 E.01314
G1 X125 Y117.659 E1.56361
G1 X124.794 Y117.455 E.00909
G1 X124.581 Y117.298 E.0083
G1 X124.581 Y67.79 E1.55229
G1 X124.162 Y67.79 E.01314
G1 X124.162 Y117.007 E1.54316
G1 X123.743 Y116.803 E.01461
G1 X123.743 Y67.79 E1.53677
G1 X123.324 Y67.79 E.01314
M73 P3 R51
G1 X123.324 Y116.637 E1.53156
G1 X122.905 Y116.518 E.01366
G1 X122.905 Y67.79 E1.52783
G1 X122.486 Y67.79 E.01314
G1 X122.486 Y116.452 E1.52576
G1 X122.067 Y116.408 E.01321
G1 X122.067 Y70.097 E1.45205
G1 X121.648 Y70.097 E.01314
G1 X121.648 Y116.429 E1.45271
G1 X121.229 Y116.469 E.0132
G1 X121.229 Y70.097 E1.45396
G1 X120.81 Y70.097 E.01314
M73 P4 R51
G1 X120.81 Y116.565 E1.45697
G1 X120.575 Y116.625 E.0076
M73 Q4 S52
G1 X120.391 Y116.701 E.00624
G1 X120.391 Y70.097 E1.46124
G1 X120.089 Y70.097 E.00947
G1 X120.089 Y72.404 E.07233
G1 X119.972 Y72.404 E.00367
G1 X119.972 Y116.875 E1.39436
G1 X119.553 Y117.128 E.01535
G1 X119.553 Y72.404 E1.40229
G1 X119.134 Y72.404 E.01314
G1 X119.134 Y117.436 E1.41195
G1 X118.715 Y117.823 E.01788
G1 X118.715 Y72.404 E1.42408
G1 X118.296 Y72.404 E.01314
G1 X118.296 Y118.351 E1.44064
G1 X117.951 Y118.967 E.02214
G1 X117.877 Y119.158 E.00642
G1 X117.877 Y72.404 E1.46594
G1 X117.782 Y72.404 E.00298
G1 X117.782 Y74.711 E.07233
G1 X117.458 Y74.711 E.01016
G1 X117.458 Y123.754 E1.53771
G1 X117.877 Y123.754 E.01314
G1 X117.877 Y121.949 E.05659
M204 S1000
G1 X117.039 Y123.923 F10800
M204 S800
G1 F1200
G1 X117.039 Y74.711 E1.54301
G1 X116.62 Y74.711 E.01314
M73 Q4 S51
G1 X116.62 Y123.754 E1.53771
G1 X116.201 Y123.754 E.01314
G1 X116.201 Y74.711 E1.53771
G1 X115.783 Y74.711 E.01311
G1 X115.783 Y123.754 E1.53771
G1 X115.364 Y123.754 E.01314
G1 X115.364 Y79.325 E1.39304
G1 X114.945 Y79.325 E.01314
M73 P5 R51
G1 X114.945 Y123.754 E1.39304
G1 X114.526 Y123.754 E.01314
M73 Q5 S51
G1 X114.526 Y79.325 E1.39304
G1 X114.107 Y79.325 E.01314
G1 X114.107 Y123.754 E1.39304
G1 X113.688 Y123.754 E.01314
G1 X113.688 Y79.325 E1.39304
G1 X113.269 Y79.325 E.01314
G1 X113.269 Y123.754 E1.39304
G1 X113.168 Y123.754 E.00317
M73 P5 R50
G1 X113.168 Y114.525 E.28937
G1 X112.85 Y114.525 E.00997
G1 X112.85 Y83.939 E.959
G1 X112.431 Y83.939 E.01314
G1 X112.431 Y114.525 E.959
G1 X112.012 Y114.525 E.01314
G1 X112.012 Y83.939 E.959
G1 X111.593 Y83.939 E.01314
G1 X111.593 Y114.525 E.959
G1 X111.174 Y114.525 E.01314
G1 X111.174 Y83.77 E.9643
M204 S1000
;WIPE_START
G1 F8640
G1 X111.174 Y88.101 E-1
;WIPE_END
G1 Z.4 F720
G1 X122.304 Y119.12 F10800
G1 Z.2 F720
G1 E1 F2100
M204 S800
G1 F1200
G1 X122.587 Y119.207 E.00928
G1 X122.851 Y119.341 E.00928
G1 X123.088 Y119.518 E.00927
G1 X123.291 Y119.733 E.00927
G1 X123.466 Y119.997 E.00993
G1 X131.417 Y134.592 E.52112
G1 X131.616 Y135.144 E.0184
G1 X131.719 Y135.722 E.01841
G1 X131.724 Y136.308 E.01837
G1 X131.63 Y136.887 E.01839
G1 X131.439 Y137.442 E.0184
G1 X131.158 Y137.957 E.01839
G1 X130.793 Y138.417 E.01841
G1 X130.357 Y138.809 E.01838
G1 X129.861 Y139.122 E.01839
G1 X129.319 Y139.346 E.01839
G1 X128.747 Y139.477 E.0184
G1 X128.161 Y139.508 E.0184
G1 X127.578 Y139.441 E.0184
G1 X127.015 Y139.277 E.01839
G1 X126.488 Y139.02 E.01838
G1 X126.012 Y138.677 E.0184
G1 X125.6 Y138.26 E.01838
G1 X125.264 Y137.779 E.0184
G1 X125.014 Y137.248 E.0184
G1 X120.302 Y121.309 E.52114
G1 X120.238 Y120.999 E.00992
G1 X120.229 Y120.703 E.00929
G1 X120.271 Y120.41 E.00928
G1 X120.363 Y120.129 E.00927
G1 X120.502 Y119.868 E.00927
G1 X120.683 Y119.634 E.00928
G1 X120.902 Y119.435 E.00928
G1 X121.152 Y119.276 E.00929
G1 X121.426 Y119.163 E.00929
G1 X121.714 Y119.098 E.00926
G1 X122.01 Y119.084 E.00929
G1 X122.247 Y119.113 E.00749
M204 S1000
G1 X131.285 Y137.369 F10800
M204 S800
G1 F1200
G1 X131.285 Y135.226 E.06719
G1 X131.107 Y134.735 E.01638
G1 X130.866 Y134.308 E.01537
G1 X130.866 Y137.779 E.10883
G1 X130.545 Y138.184 E.0162
G1 X130.447 Y138.272 E.00413
G1 X130.447 Y133.542 E.14831
G1 X130.028 Y132.772 E.02749
G1 X130.028 Y138.615 E.1832
G1 X129.704 Y138.819 E.012
G1 X129.609 Y138.859 E.00323
G1 X129.609 Y132.002 E.215
G1 X129.19 Y131.232 E.02749
G1 X129.19 Y139.028 E.24444
G1 X128.771 Y139.123 E.01347
G1 X128.771 Y130.461 E.27159
G1 X128.352 Y129.691 E.02749
G1 X128.352 Y139.158 E.29683
G1 X128.171 Y139.168 E.00568
G1 X127.933 Y139.141 E.00751
G1 X127.933 Y128.921 E.32044
G1 X127.514 Y128.15 E.02751
G1 X127.514 Y139.069 E.34236
G1 X127.095 Y138.938 E.01376
G1 X127.095 Y127.38 E.36239
G1 X126.676 Y126.61 E.02749
G1 X126.676 Y138.734 E.38014
G1 X126.257 Y138.436 E.01612
G1 X126.257 Y125.839 E.39497
G1 X125.838 Y125.069 E.02749
G1 X125.838 Y138.008 E.40569
G1 X125.559 Y137.608 E.01529
G1 X125.419 Y137.311 E.01029
G1 X125.419 Y124.299 E.40798
G1 X125 Y123.528 E.02751
G1 X125 Y135.967 E.39002
G1 X124.581 Y134.553 E.04624
M73 P6 R50
G1 X124.581 Y122.758 E.36982
G1 X124.162 Y121.988 E.02749
G1 X124.162 Y133.14 E.34966
G1 X123.743 Y131.726 E.04624
G1 X123.743 Y121.217 E.3295
G1 X123.324 Y120.447 E.02749
M73 Q6 S51
G1 X123.324 Y130.313 E.30934
G1 X122.905 Y128.899 E.04624
G1 X122.905 Y119.819 E.2847
G1 X122.671 Y119.63 E.00943
G1 X122.486 Y119.536 E.00651
G1 X122.486 Y127.486 E.24927
G1 X122.067 Y126.072 E.04624
G1 X122.067 Y119.433 E.20816
G1 X121.76 Y119.436 E.00963
G1 X121.648 Y119.461 E.0036
G1 X121.648 Y124.659 E.16298
G1 X121.229 Y123.245 E.04624
G1 X121.229 Y119.629 E.11338
G1 X121.109 Y119.705 E.00445
G1 X120.934 Y119.865 E.00743
G1 X120.81 Y120.024 E.00632
G1 X120.81 Y122.428 E.07538
M204 S1000
;WIPE_START
G1 F8640
G1 X120.81 Y120.024 E-.55509
G1 X120.934 Y119.865 E-.04656
G1 X121.109 Y119.705 E-.05475
G1 X121.229 Y119.629 E-.0328
G1 X121.229 Y120.975 E-.3108
;WIPE_END
G1 Z.4 F720
G1 X121.944 Y137.273 F10800
G1 Z.2 F720
G1 E1 F2100
M204 S800
G1 F1200
G1 X122.121 Y137.935 E.02149
G1 X117.442 Y137.935 E.14671
G1 X117.442 Y127.216 E.33609
G1 X119.33 Y126.98 E.05966
G1 X121.93 Y137.218 E.33119
M204 S1000
G1 X121.648 Y137.766 F10800
M204 S800
G1 F1200
G1 X121.648 Y137.485 E.00881
G1 X121.229 Y135.836 E.05335
G1 X121.229 Y137.596 E.05518
G1 X120.81 Y137.596 E.01314
G1 X120.81 Y134.186 E.10692
G1 X120.391 Y132.536 E.05338
G1 X120.391 Y137.596 E.15865
G1 X119.972 Y137.596 E.01314
G1 X119.972 Y130.887 E.21036
G1 X119.553 Y129.237 E.05338
G1 X119.553 Y137.596 E.26209
G1 X119.134 Y137.596 E.01314
G1 X119.134 Y127.587 E.31383
G1 X119.075 Y127.354 E.00754
G1 X118.715 Y127.399 E.01138
G1 X118.715 Y137.596 E.31972
G1 X118.296 Y137.596 E.01314
G1 X118.296 Y127.451 E.31809
G1 X117.877 Y127.503 E.01324
G1 X117.877 Y137.766 E.32179
M204 S1000
;WIPE_START
G1 F8640
G1 X117.877 Y133.435 E-1
;WIPE_END
G1 Z.4 F720
G1 X122.112 Y132.305 F10800
G1 Z.2 F720
G1 E1 F2100
M204 S800
;TYPE:Perimeter
;WIDTH:0.647596
G1 F1200
G1 X122.154 Y132.362 E.00356
;WIDTH:0.598484
G1 X122.197 Y132.419 E.0033
;WIDTH:0.549371
G1 X122.239 Y132.476 E.00298
;WIDTH:0.500258
G1 X122.282 Y132.533 E.00272
;WIDTH:0.451145
G1 X122.324 Y132.59 E.0024
;WIDTH:0.402032
G1 X122.367 Y132.647 E.00213
;WIDTH:0.400381
G1 X123.046 Y135.029 E.07362
;WIDTH:0.447843
G1 X123.726 Y137.412 E.08344
G1 X123.836 Y137.737 E.01155
;WIDTH:0.43471
G1 X124.185 Y138.459 E.02612
G1 X124.65 Y139.112 E.02612
G1 X125.22 Y139.678 E.02617
;WIDTH:0.434825
G1 X125.876 Y140.139 E.02613
G1 X126.601 Y140.483 E.02615
G1 X127.373 Y140.7 E.02613
G1 X128.171 Y140.784 E.02615
G1 X128.972 Y140.732 E.02616
G1 X129.752 Y140.546 E.02613
;WIDTH:0.43494
G1 X130.49 Y140.232 E.02614
G1 X131.164 Y139.797 E.02615
G1 X131.756 Y139.255 E.02616
G1 X132.247 Y138.62 E.02616
G1 X132.625 Y137.913 E.02613
;WIDTH:0.435055
G1 X132.878 Y137.151 E.02618
G1 X132.999 Y136.358 E.02616
G1 X132.984 Y135.556 E.02615
G1 X132.835 Y134.767 E.02618
;WIDTH:0.436155
G1 X132.56 Y134.024 E.0259
;WIDTH:0.446175
G1 X131.147 Y131.468 E.09793
;WIDTH:0.399571
G1 X129.974 Y129.365 E.07141
;WIDTH:0.40206
G1 X129.964 Y129.294 E.00214
;WIDTH:0.451154
G1 X129.954 Y129.224 E.0024
;WIDTH:0.500248
G1 X129.943 Y129.154 E.00269
;WIDTH:0.549342
G1 X129.933 Y129.084 E.00298
;WIDTH:0.598436
G1 X129.923 Y129.013 E.00331
;WIDTH:0.64753
G1 X129.912 Y128.943 E.00356
G1 X129.968 Y128.988 E.00361
;WIDTH:0.598436
G1 X130.023 Y129.032 E.00325
;WIDTH:0.549342
G1 X130.078 Y129.077 E.00299
;WIDTH:0.500248
G1 X130.133 Y129.122 E.0027
;WIDTH:0.451154
G1 X130.188 Y129.166 E.00239
;WIDTH:0.40206
G1 X130.244 Y129.211 E.00215
;WIDTH:0.399571
G1 X131.456 Y131.291 E.07139
;WIDTH:0.446175
G1 X132.677 Y133.385 E.08128
;WIDTH:0.448155
G1 X133.045 Y134.136 E.02818
G1 X133.298 Y134.974 E.0295
G1 X133.406 Y135.841 E.02944
;WIDTH:0.448273
