; generated by PrusaSlicer 2.6.0+win64 on 2023-07-22 at 12:16:12 UTC


;
;
; 

; external perimeters extrusion width = 0.65mm
; perimeters extrusion width = 0.65mm
; infill extrusion width = 0.65mm
; solid infill extrusion width = 0.65mm
; top infill extrusion width = 0.60mm
; first layer extrusion width = 0.65mm

M73 P0 R31
M73 Q0 S31
M201 X1000 Y1000 Z200 E5000 ; sets maximum accelerations, mm/sec^2
M203 X200 Y200 Z12 E120 ; sets maximum feedrates, mm / sec
M204 S1250 T1250 ; sets acceleration (S) and retract acceleration (R), mm/sec^2
M205 X8.00 Y8.00 Z0.40 E4.50 ; sets the jerk limits, mm/sec
M205 S0 T0 ; sets the minimum extruding and travel feed rate, mm/sec
;TYPE:Custom
M862.3 P "MK3S" ; printer model check
M862.1 P0.6 ; nozzle diameter check
M115 U3.12.2 ; tell printer latest fw version
G90 ; use absolute coordinates
M83 ; extruder relative mode
M104 S240 ; set extruder temp
M140 S85 ; set bed temp
M190 S85 ; wait for bed temp
M109 S240 ; wait for extruder temp
G28 W ; home all without mesh bed level
G80 ; mesh bed leveling

G1 Z0.2 F720
G1 Y-3 F1000 ; go outside print area
G92 E0
G1 X60 E9 F1000 ; intro line
G1 X100 E12.5 F1000 ; intro line

G92 E0
M221 S95
G21 ; set units to millimeters
G90 ; use absolute coordinates
M83 ; use relative distances for extrusion
M900 K0.04 ; Filament gcode LA 1.5
M900 K24 ; Filament gcode LA 1.0
M107
;LAYER_CHANGE
;Z:0.2
;HEIGHT:0.2
;BEFORE_LAYER_CHANGE
G92 E0.0
;0.2


M73 P0 R30
G1 E-1 F2100
G1 Z.2 F720
;AFTER_LAYER_CHANGE
;0.2
G1 Z.4
G1 X107.145 Y87.091 F10800
G1 Z.2 F720
G1 E1 F1500
M204 S800
;TYPE:Skirt/Brim
;WIDTH:0.65
G1 F1200
G1 X109.706 Y84.358 E.18906
G1 X112.681 Y82.083 E.18905
G1 X115.991 Y80.328 E.18912
G1 X119.543 Y79.142 E.18903
G1 X123.243 Y78.556 E.1891
G1 X126.988 Y78.586 E.18905
G1 X130.678 Y79.232 E.1891
G1 X133.817 Y80.303 E.16742
G1 X137.491 Y82.283 E.21068
G1 X140.113 Y84.315 E.16745
G1 X142.682 Y87.041 E.18908
G1 X147.245 Y93.043 E.38059
G1 X147.774 Y94.618 E.08387
G1 X147.774 Y104.118 E.47955
G1 X147.64 Y128.856 E1.24876
G1 X147.24 Y130.229 E.07219
G1 X146.176 Y131.185 E.0722
G1 X145.033 Y131.449 E.05922
G1 X104.833 Y131.449 E2.02925
G1 X103.458 Y131.057 E.07217
G1 X102.496 Y129.998 E.07222
G1 X102.226 Y128.842 E.05992
G1 X102.226 Y101.192 E1.39574
G1 X102.579 Y97.247 E.19993
G1 X103.393 Y94.032 E.16741
G1 X104.863 Y90.587 E.18907
G1 X107.095 Y87.167 E.20615
M204 S1000
; printing object Right_Motor_Bracket_34,8mm_rev0-2 id:0 copy 0
;WIPE_START
G1 F8640
G1 X109.706 Y84.358 E-.88553
G1 X110.1 Y84.057 E-.11447
;WIPE_END
G1 Z.4 F720
G1 X126.772 Y119.876 F10800
G1 Z.2 F720
G1 E1 F1500
M204 S800
;TYPE:Perimeter
;WIDTH:0.649999
G1 F1200
G1 X128.176 Y119.745 E.07118
G1 X128.436 Y119.698 E.01334
G1 X131.343 Y118.902 E.15214
G1 X131.59 Y118.811 E.01329
G1 X134.315 Y117.523 E.15215
G1 X134.543 Y117.39 E.01332
G1 X137.004 Y115.65 E.15214
G1 X137.206 Y115.479 E.01336
G1 X139.327 Y113.339 E.15209
G1 X139.496 Y113.136 E.01333
G1 X141.215 Y110.66 E.15215
G1 X141.346 Y110.431 E.01332
G1 X142.61 Y107.695 E.15214
G1 X142.699 Y107.446 E.01335
G1 X143.294 Y105.196 E.11748
G1 X143.294 Y127.103 E1.10584
G1 X126.772 Y127.103 E.83401
M73 P1 R30
M73 Q1 S31
G1 X126.772 Y119.966 E.36027
M204 S1000
;WIPE_START
G1 F8640
G1 X128.176 Y119.745 E-.32818
G1 X128.436 Y119.698 E-.06101
G1 X130.987 Y118.999 E-.61081
;WIPE_END
G1 Z.4 F720
G1 X123.094 Y119.876 F10800
G1 Z.2 F720
G1 E1 F1500
M204 S800
G1 F1200
G1 X123.094 Y127.103 E.36481
G1 X106.572 Y127.103 E.83401
G1 X106.572 Y105.196 E1.10584
G1 X107.167 Y107.446 E.11748
G1 X107.256 Y107.695 E.01335
M73 Q1 S30
G1 X108.52 Y110.431 E.15214
G1 X108.651 Y110.66 E.01332
G1 X110.37 Y113.136 E.15215
G1 X110.539 Y113.339 E.01333
G1 X112.66 Y115.479 E.15209
G1 X112.862 Y115.65 E.01336
G1 X115.127 Y117.252 E.14004
G1 X115.55 Y117.523 E.02536
G1 X118.276 Y118.811 E.15219
G1 X118.523 Y118.902 E.01329
G1 X121.43 Y119.698 E.15214
G1 X121.69 Y119.745 E.01334
G1 X123.004 Y119.868 E.06662
M204 S1000
;WIPE_START
G1 F8640
G1 X123.058 Y124.198 E-1
;WIPE_END
G1 Z.4 F720
G1 X126.165 Y119.323 F10800
G1 Z.2 F720
G1 E1 F1500
M204 S800
G1 F1200
G1 X128.12 Y119.141 E.09911
G1 X128.276 Y119.113 E.008
G1 X131.182 Y118.317 E.1521
G1 X131.331 Y118.262 E.00802
G1 X134.056 Y116.974 E.15215
G1 X134.193 Y116.895 E.00798
G1 X136.654 Y115.154 E.15217
G1 X136.774 Y115.052 E.00795
G1 X138.896 Y112.911 E.15216
G1 X138.998 Y112.79 E.00799
G1 X140.716 Y110.314 E.15213
G1 X140.795 Y110.176 E.00803
G1 X142.058 Y107.44 E.15212
G1 X142.112 Y107.291 E.008
;WIDTH:0.69017
G1 X142.324 Y106.568 E.04055
;WIDTH:0.730341
G1 X142.536 Y105.844 E.04312
;WIDTH:0.770512
G1 X142.748 Y105.121 E.04558
;WIDTH:0.810683
G1 X142.96 Y104.398 E.0481
;WIDTH:0.851344
G1 X142.998 Y104.319 E.00589
G1 X143.029 Y103.863 E.03072
;WIDTH:0.869174
G1 X143.101 Y103.256 E.042
G1 X143.165 Y102.24 E.06994
;WIDTH:0.826294
G1 X143.229 Y101.224 E.06631
;WIDTH:0.783757
G1 X143.229 Y101.053 E.01053
;WIDTH:0.833052
G1 X143.155 Y99.961 E.07191
;WIDTH:0.882346
G1 X143.081 Y98.869 E.07639
G1 X143.047 Y98.752 E.0085
;WIDTH:0.835877
G1 X143.013 Y98.635 E.00803
;WIDTH:0.789408
G1 X142.979 Y98.517 E.00762
;WIDTH:0.742938
G1 X142.945 Y98.4 E.00709
;WIDTH:0.696469
G1 X142.911 Y98.283 E.00662
;WIDTH:0.649999
G1 X142.863 Y97.902 E.01938
G1 X142.522 Y96.639 E.06604
;WIDTH:0.651954
G1 X142.364 Y96.054 E.03069
;WIDTH:0.697251
G1 X142.307 Y95.756 E.01651
;WIDTH:0.742548
G1 X142.25 Y95.458 E.01765
G1 X142.043 Y94.834 E.03825
;WIDTH:0.727504
G1 X140.944 Y92.455 E.14917
G1 X140.68 Y91.966 E.03163
;WIDTH:0.732144
G1 X139.286 Y89.947 E.14061
G1 X138.841 Y89.377 E.04144
;WIDTH:0.736025
G1 X137.239 Y87.747 E.13172
G1 X136.582 Y87.146 E.05132
;WIDTH:0.712844
G1 X135.721 Y86.529 E.059
;WIDTH:0.73915
G1 X134.861 Y85.912 E.06127
G1 X134.416 Y85.626 E.03062
;WIDTH:0.71171
G1 X133.971 Y85.341 E.02939
;WIDTH:0.712898
G1 X133.092 Y84.916 E.05439
;WIDTH:0.741526
G1 X132.214 Y84.492 E.05664
G1 X131.726 Y84.28 E.03091
;WIDTH:0.713199
G1 X131.238 Y84.069 E.02963
;WIDTH:0.684871
G1 X131.086 Y84.015 E.00861
;WIDTH:0.712952
G1 X130.229 Y83.77 E.04966
;WIDTH:0.743145
G1 X129.371 Y83.525 E.05195
G1 X128.773 Y83.381 E.03581
;WIDTH:0.713135
G1 X128.175 Y83.236 E.03429
;WIDTH:0.683125
G1 X128.016 Y83.209 E.00859
;WIDTH:0.713001
G1 X127.212 Y83.123 E.04505
;WIDTH:0.74401
G1 X126.408 Y83.037 E.04714
G1 X125.711 Y82.992 E.04072
;WIDTH:0.713075
G1 X125.014 Y82.946 E.03892
;WIDTH:0.682139
G1 X124.852 Y82.947 E.00861
;WIDTH:0.713059
G1 X124.129 Y82.994 E.04037
;WIDTH:0.744131
G1 X123.406 Y83.042 E.04225
G1 X122.628 Y83.125 E.04562
;WIDTH:0.71302
G1 X121.85 Y83.209 E.0436
;WIDTH:0.682734
G1 X121.691 Y83.236 E.00858
;WIDTH:0.713114
G1 X121.068 Y83.387 E.03572
;WIDTH:0.743494
G1 X120.445 Y83.538 E.03734
G1 X119.612 Y83.777 E.05048
;WIDTH:0.712966
G1 X118.78 Y84.015 E.04821
;WIDTH:0.684243
G1 X118.628 Y84.069 E.0086
;WIDTH:0.713177
G1 X118.116 Y84.291 E.0311
;WIDTH:0.74211
G1 X117.605 Y84.513 E.03239
G1 X116.75 Y84.927 E.05523
;WIDTH:0.712913
G1 X115.895 Y85.341 E.05292
;WIDTH:0.686695
G1 X115.752 Y85.422 E.0088
;WIDTH:0.713965
G1 X115.358 Y85.682 E.02634
;WIDTH:0.741234
G1 X114.964 Y85.942 E.02741
G1 X114.106 Y86.561 E.06143
;WIDTH:0.714883
G1 X113.248 Y87.18 E.05911
;WIDTH:0.692404
G1 X113.124 Y87.281 E.00864
;WIDTH:0.73708
G1 X112.589 Y87.783 E.04235
G1 X111.025 Y89.377 E.1289
;WIDTH:0.693309
G1 X110.919 Y89.5 E.00878
;WIDTH:0.733439
G1 X110.55 Y89.99 E.03522
G1 X109.186 Y91.966 E.13786
;WIDTH:0.692068
G1 X109.168 Y91.993 E.00175
;WIDTH:0.729035
G1 X108.899 Y92.502 E.03284
G1 X107.823 Y94.834 E.14652
;WIDTH:0.723883
G1 X107.682 Y95.251 E.02492
G1 X106.978 Y97.895 E.15493
;WIDTH:0.717971
G1 X106.931 Y98.165 E.01538
G1 X106.675 Y101.057 E.16296
;WIDTH:0.716473
G1 X106.671 Y101.226 E.00947
;WIDTH:0.758713
G1 X106.734 Y102.227 E.0597
;WIDTH:0.800952
G1 X106.797 Y103.228 E.06322
;WIDTH:0.843191
G1 X106.86 Y104.229 E.06674
G1 X106.906 Y104.398 E.01165
;WIDTH:0.810684
G1 X107.118 Y105.121 E.0481
;WIDTH:0.770513
G1 X107.33 Y105.844 E.04558
;WIDTH:0.730342
G1 X107.542 Y106.568 E.04312
;WIDTH:0.690171
G1 X107.754 Y107.291 E.04055
;WIDTH:0.649999
G1 X107.808 Y107.44 E.008
G1 X109.071 Y110.176 E.15212
G1 X109.15 Y110.314 E.00803
G1 X110.868 Y112.79 E.15213
G1 X110.97 Y112.911 E.00799
G1 X113.091 Y115.052 E.15213
G1 X113.212 Y115.154 E.00799
G1 X115.81 Y116.974 E.16012
G1 X118.535 Y118.262 E.15215
G1 X118.683 Y118.317 E.00797
G1 X121.59 Y119.113 E.15214
G1 X121.746 Y119.141 E.008
G1 X123.701 Y119.323 E.09911
G1 X123.701 Y127.71 E.42337
G1 X105.965 Y127.71 E.89529
G1 X105.965 Y107.523 E1.01902
;WIDTH:0.690171
G1 X105.985 Y106.77 E.04054
;WIDTH:0.730342
G1 X106.005 Y106.016 E.04311
;WIDTH:0.770513
G1 X106.025 Y105.263 E.04557
;WIDTH:0.810684
G1 X106.045 Y104.51 E.04809
;WIDTH:0.843191
G1 X106.062 Y104.263 E.01647
G1 X106.041 Y103.26 E.06676
;WIDTH:0.800952
G1 X106.019 Y102.257 E.06323
;WIDTH:0.758713
G1 X105.998 Y101.254 E.05971
;WIDTH:0.716473
G1 X106.013 Y101.009 E.01375
;WIDTH:0.717971
G1 X106.258 Y98.107 E.16347
G1 X106.341 Y97.728 E.02178
;WIDTH:0.723883
G1 X107.03 Y95.052 E.15646
G1 X107.228 Y94.564 E.02982
;WIDTH:0.729035
G1 X108.274 Y92.218 E.14654
G1 X108.649 Y91.602 E.04114
;WIDTH:0.733439
G1 X109.978 Y89.603 E.13783
G1 X110.559 Y88.93 E.05105
;WIDTH:0.73708
G1 X112.089 Y87.302 E.12895
G1 X112.864 Y86.662 E.05801
;WIDTH:0.714883
G1 X113.706 Y86.021 E.05913
;WIDTH:0.741234
G1 X114.549 Y85.381 E.06146
G1 X115.102 Y85.059 E.03716
;WIDTH:0.712475
G1 X115.607 Y84.769 E.03242
;WIDTH:0.712913
G1 X116.449 Y84.329 E.05293
;WIDTH:0.74211
G1 X117.29 Y83.889 E.05518
G1 X117.865 Y83.671 E.03575
;WIDTH:0.713177
G1 X118.388 Y83.475 E.03113
;WIDTH:0.684243
G1 X118.593 Y83.404 E.01157
;WIDTH:0.712966
G1 X119.416 Y83.136 E.04822
;WIDTH:0.743494
G1 X120.24 Y82.869 E.05046
G1 X120.926 Y82.733 E.04074
;WIDTH:0.713114
G1 X121.555 Y82.612 E.03569
;WIDTH:0.682734
G1 X121.769 Y82.575 E.01155
;WIDTH:0.71302
G1 X122.543 Y82.461 E.04359
;WIDTH:0.744131
G1 X123.317 Y82.347 E.04562
G1 X124.099 Y82.325 E.04561
;WIDTH:0.713059
G1 X124.824 Y82.309 E.04041
;WIDTH:0.682139
G1 X125.041 Y82.308 E.01153
;WIDTH:0.713075
G1 X125.74 Y82.323 E.03896
;WIDTH:0.74401
G1 X126.496 Y82.342 E.04409
G1 X127.296 Y82.459 E.04713
;WIDTH:0.713001
G1 X128.096 Y82.575 E.04504
;WIDTH:0.683125
G1 X128.31 Y82.611 E.01155
;WIDTH:0.713135
G1 X128.914 Y82.726 E.03426
;WIDTH:0.743145
G1 X129.574 Y82.855 E.03915
G1 X130.423 Y83.129 E.05194
;WIDTH:0.712952
G1 X131.272 Y83.403 E.0497
;WIDTH:0.684871
G1 X131.478 Y83.474 E.01163
;WIDTH:0.713199
G1 X131.976 Y83.659 E.02961
;WIDTH:0.741526
G1 X132.527 Y83.867 E.03421
G1 X133.393 Y84.318 E.05672
;WIDTH:0.712898
G1 X134.258 Y84.768 E.05432
;WIDTH:0.687368
G1 X134.449 Y84.872 E.01165
;WIDTH:0.713259
G1 X134.861 Y85.112 E.02658
;WIDTH:0.73915
G1 X135.273 Y85.351 E.02757
G1 X136.118 Y85.99 E.06133
;WIDTH:0.712844
G1 X136.964 Y86.628 E.05902
;WIDTH:0.690628
G1 X137.135 Y86.763 E.01173
;WIDTH:0.736025
G1 X137.738 Y87.266 E.04526
G1 X139.307 Y88.929 E.13177
;WIDTH:0.694646
G1 X139.454 Y89.091 E.01185
;WIDTH:0.732144
G1 X139.856 Y89.56 E.0354
G1 X141.218 Y91.6 E.14057
;WIDTH:0.693326
G1 X141.24 Y91.633 E.00214
;WIDTH:0.727504
G1 X141.567 Y92.171 E.03584
G1 X142.639 Y94.562 E.14916
;WIDTH:0.697846
G1 X142.651 Y94.588 E.00156
;WIDTH:0.742548
G1 X142.908 Y95.226 E.04001
G1 X143.049 Y95.379 E.0121
;WIDTH:0.697251
G1 X143.191 Y95.532 E.01136
;WIDTH:0.651954
G1 X143.502 Y95.705 E.01802
;WIDTH:0.649999
G1 X144.035 Y95.75 E.027
G1 X144.035 Y96.002 E.01272
G1 X144.035 Y98.232 E.11257
;WIDTH:0.696469
G1 X144.012 Y98.352 E.00664
;WIDTH:0.742938
G1 X143.988 Y98.472 E.00712
;WIDTH:0.789408
G1 X143.965 Y98.592 E.00758
;WIDTH:0.835877
G1 X143.942 Y98.712 E.00806
;WIDTH:0.882346
G1 X143.919 Y98.831 E.00846
G1 X143.943 Y99.926 E.07645
;WIDTH:0.833052
G1 X143.968 Y101.02 E.07189
;WIDTH:0.783757
G1 X143.968 Y101.255 E.01448
;WIDTH:0.826294
G1 X143.947 Y102.273 E.06632
;WIDTH:0.869174
G1 X143.925 Y103.441 E.08026
G1 X143.887 Y103.465 E.00309
G1 X143.812 Y103.896 E.03006
;WIDTH:0.827751
G1 X143.821 Y104.51 E.04007
;WIDTH:0.810683
G1 X143.841 Y105.263 E.04809
;WIDTH:0.770512
G1 X143.861 Y106.016 E.04557
;WIDTH:0.730341
G1 X143.881 Y106.77 E.04311
;WIDTH:0.69017
G1 X143.901 Y107.523 E.04054
;WIDTH:0.649999
G1 X143.901 Y127.71 E1.01902
G1 X126.165 Y127.71 E.89529
G1 X126.165 Y119.413 E.41882
M204 S1000
M73 P2 R30
M73 Q2 S30
G1 X125.558 Y118.77 F10800
M204 S800
;TYPE:External perimeter
G1 F1200
G1 X128.115 Y118.527 E.12966
G1 X131.022 Y117.731 E.15214
G1 X133.797 Y116.426 E.1548
G1 X136.303 Y114.659 E.15478
G1 X138.465 Y112.484 E.15481
G1 X140.244 Y109.922 E.15745
G1 X141.525 Y107.136 E.15479
G1 X142.304 Y104.17 E.1548
G1 X142.558 Y101.114 E.1548
G1 X142.277 Y98.06 E.15481
G1 X141.472 Y95.102 E.15475
G1 X140.166 Y92.327 E.15482
G1 X138.399 Y89.821 E.15478
G1 X136.78 Y88.207 E.1154
G1 X136.224 Y87.659 E.03941
G1 X133.708 Y85.907 E.15476
G1 X130.975 Y84.635 E.15217
G1 X127.962 Y83.829 E.15744
G1 X124.907 Y83.567 E.15478
G1 X121.852 Y83.839 E.15482
G1 X118.891 Y84.635 E.15477
G1 X116.112 Y85.934 E.15485
G1 X113.568 Y87.726 E.15708
G1 X111.433 Y89.861 E.15241
G1 X109.7 Y92.327 E.15215
G1 X108.394 Y95.102 E.15482
G1 X107.589 Y98.06 E.15475
G1 X107.308 Y101.114 E.15481
G1 X107.562 Y104.17 E.1548
G1 X108.341 Y107.136 E.1548
G1 X109.648 Y109.968 E.15745
G1 X111.401 Y112.484 E.15479
G1 X113.563 Y114.659 E.15481
G1 X116.069 Y116.426 E.15478
G1 X118.844 Y117.731 E.1548
G1 X121.751 Y118.527 E.15214
G1 X124.308 Y118.77 E.12966
G1 X124.308 Y128.317 E.48192
G1 X105.358 Y128.317 E.95657
G1 X105.358 Y101.214 E1.36813
G1 X105.626 Y97.973 E.16416
G1 X106.418 Y94.842 E.16303
G1 X107.715 Y91.884 E.16304
G1 X109.48 Y89.179 E.16304
G1 X111.666 Y86.801 E.16305
G1 X114.213 Y84.815 E.16303
G1 X117.052 Y83.276 E.16301
G1 X120.106 Y82.223 E.16307
G1 X123.291 Y81.688 E.16303
G1 X126.52 Y81.683 E.163
G1 X129.707 Y82.21 E.16306
G1 X132.764 Y83.253 E.16305
G1 X135.607 Y84.785 E.16302
G1 X138.16 Y86.764 E.16306
G1 X140.352 Y89.136 E.16303
G1 X142.125 Y91.835 E.16301
G1 X143.305 Y94.509 E.14754
G1 X143.586 Y95.07 E.03167
G1 X143.783 Y95.143 E.01061
G1 X144.642 Y95.143 E.04336
G1 X144.642 Y103.701 E.432
G1 X144.536 Y103.768 E.00633
G1 X144.508 Y103.896 E.00661
G1 X144.508 Y128.317 E1.23274
G1 X125.558 Y128.317 E.95657
G1 X125.558 Y118.86 E.47738
M204 S1000
G1 X126.155 Y118.825 F10800
;WIPE_START
G1 F8640
G1 X128.115 Y118.527 E-.5954
G1 X129.805 Y118.064 E-.4046
;WIPE_END
G1 Z.4 F720
G1 X143.472 Y98.232 F10800
G1 Z.2 F720
G1 E1 F1500
M204 S800
;TYPE:Perimeter
;WIDTH:0.59493
G1 F1200
G1 X143.455 Y97.989 E.01118
;WIDTH:0.628246
G1 X143.439 Y97.746 E.01185
;WIDTH:0.677917
G1 X143.414 Y97.559 E.00996
;WIDTH:0.727589
G1 X143.389 Y97.372 E.01074
;WIDTH:0.77726
G1 X143.364 Y97.185 E.01152
;WIDTH:0.826931
G1 X143.339 Y96.999 E.01223
;WIDTH:0.876602
G1 X143.315 Y96.812 E.01307
;WIDTH:0.926273
G1 X143.29 Y96.625 E.01386
;WIDTH:0.975944
G1 X143.265 Y96.438 E.01464
M204 S1000
;WIPE_START
G1 F8640
G1 X143.29 Y96.625 E-.04356
G1 X143.315 Y96.812 E-.04356
G1 X143.339 Y96.999 E-.04353
G1 X143.364 Y97.185 E-.04333
G1 X143.389 Y97.372 E-.04356
G1 X143.414 Y97.559 E-.04356
G1 X143.439 Y97.746 E-.04356
G1 X143.455 Y97.989 E-.05623
G1 X143.472 Y98.232 E-.05625
;WIPE_END
G1 E-.58286 F2100
G1 Z.4 F720
G1 X143.051 Y109.477 F10800
G1 Z.2 F720
G1 E1 F1500
M204 S800
;TYPE:Solid infill
;WIDTH:0.657815
G1 F1200
G1 X142.575 Y109.001 E.03442
G1 X142.3 Y109.596 E.03351
G1 X142.778 Y110.074 E.03456
G1 X142.778 Y110.943 E.04443
G1 X142.025 Y110.191 E.05441
G1 X141.741 Y110.777 E.03329
G1 X142.778 Y111.813 E.07495
G1 X142.778 Y112.683 E.04448
G1 X141.397 Y111.302 E.09986
G1 X141.041 Y111.815 E.03193
G1 X142.778 Y113.552 E.1256
G1 X142.778 Y114.422 E.04448
G1 X140.685 Y112.329 E.15134
G1 X140.328 Y112.842 E.03196
G1 X142.778 Y115.291 E.17712
G1 X142.778 Y116.161 E.04448
G1 X139.972 Y113.355 E.20289
G1 X139.7 Y113.696 E.0223
G1 X139.572 Y113.825 E.00929
G1 X142.778 Y117.031 E.23182
G1 X142.778 Y117.9 E.04443
G1 X139.139 Y114.262 E.26309
G1 X138.706 Y114.698 E.03142
G1 X142.778 Y118.77 E.29443
G1 X142.778 Y119.639 E.04443
M73 P3 R30
G1 X138.273 Y115.135 E.32571
M73 Q3 S30
