; generated by PrusaSlicer 2.6.0+win64 on 2023-09-01 at 13:22:30 UTC


;
;
; 

; external perimeters extrusion width = 0.65mm
; perimeters extrusion width = 0.65mm
; infill extrusion width = 0.65mm
; solid infill extrusion width = 0.65mm
; top infill extrusion width = 0.60mm
; first layer extrusion width = 0.65mm

M73 P0 R26
M73 Q0 S26
M201 X1000 Y1000 Z200 E5000 ; sets maximum accelerations, mm/sec^2
M203 X200 Y200 Z12 E120 ; sets maximum feedrates, mm / sec
M204 S1250 T1250 ; sets acceleration (S) and retract acceleration (R), mm/sec^2
M205 X8.00 Y8.00 Z0.40 E4.50 ; sets the jerk limits, mm/sec
M205 S0 T0 ; sets the minimum extruding and travel feed rate, mm/sec
;TYPE:Custom
M862.3 P "MK3S" ; printer model check
M862.1 P0.6 ; nozzle diameter check
M115 U3.12.2 ; tell printer latest fw version
G90 ; use absolute coordinates
M83 ; extruder relative mode
M104 S240 ; set extruder temp
M140 S85 ; set bed temp
M190 S85 ; wait for bed temp
M109 S240 ; wait for extruder temp
G28 W ; home all without mesh bed level
G80 ; mesh bed leveling

G1 Z0.2 F720
G1 Y-3 F1000 ; go outside print area
G92 E0
G1 X60 E9 F1000 ; intro line
G1 X100 E12.5 F1000 ; intro line

G92 E0
M221 S95
G21 ; set units to millimeters
G90 ; use absolute coordinates
M83 ; use relative distances for extrusion
M900 K0.04 ; Filament gcode LA 1.5
M900 K24 ; Filament gcode LA 1.0
M107
;LAYER_CHANGE
;Z:0.2
;HEIGHT:0.2
;BEFORE_LAYER_CHANGE
G92 E0.0
;0.2


G1 E-1 F2100
G1 Z.2 F720
;AFTER_LAYER_CHANGE
;0.2
G1 Z.4
G1 X108.835 Y84.911 F10800
G1 Z.2 F720
G1 E1 F1500
M204 S800
;TYPE:Skirt/Brim
;WIDTH:0.65
G1 F1200
G1 X109.737 Y84.034 E.06351
G1 X118.505 Y78.923 E.5123
G1 X119.818 Y78.568 E.06866
G1 X138.95 Y78.568 E.96576
G1 X140.325 Y78.96 E.07217
G1 X141.287 Y80.019 E.07222
G1 X141.557 Y81.175 E.05992
G1 X141.557 Y128.575 E2.3927
G1 X141.473 Y129.261 E.03489
G1 X141.125 Y130.084 E.04511
G1 X140.57 Y130.734 E.04314
G1 X140.175 Y131.021 E.02465
G1 X139.386 Y131.348 E.04311
G1 X138.905 Y131.424 E.02458
G1 X119.2 Y131.432 E.99469
G1 X110.575 Y129.881 E.44236
G1 X109.294 Y129.244 E.07222
G1 X108.443 Y127.318 E.10629
G1 X108.443 Y86.287 E2.0712
G1 X108.811 Y84.998 E.06767
M204 S1000
; printing object Right_MG996R_Back_Plate_rev1 id:0 copy 0
;WIPE_START
G1 F8640
G1 X109.737 Y84.034 E-.30865
G1 X112.324 Y82.526 E-.69135
;WIPE_END
G1 Z.4 F720
G1 X138.555 Y89.765 F10800
G1 Z.2 F720
G1 E1 F1500
M204 S800
;TYPE:External perimeter
;WIDTH:0.790696
M73 Q1 S26
G1 F1200
G1 X138.569 Y90.112 E.02159
;WIDTH:0.761183
G1 X138.584 Y90.459 E.02074
;WIDTH:0.761306
G1 X138.569 Y90.647 E.01127
;WIDTH:0.790942
G1 X138.555 Y90.836 E.01179
M204 S1000
;WIPE_START
G1 F8640
M73 P1 R26
G1 X138.569 Y90.647 E-.04376
G1 X138.584 Y90.459 E-.04355
G1 X138.569 Y90.112 E-.0802
G1 X138.555 Y89.765 E-.08019
;WIPE_END
G1 E-.7523 F2100
G1 Z.4 F720
G1 X136.219 Y88.072 F10800
G1 Z.2 F720
G1 E1 F1500
M204 S800
;WIDTH:0.848262
G1 F1200
G1 X136.085 Y88.051 E.00908
G1 X136.216 Y87.968 E.01038
;WIDTH:0.798697
G1 X136.348 Y87.884 E.00983
;WIDTH:0.749131
G1 X136.479 Y87.801 E.00911
;WIDTH:0.699565
G1 X136.611 Y87.717 E.00854
;WIDTH:0.649999
G1 X137.535 Y87.141 E.05496
G1 X137.861 Y86.668 E.029
G1 X138.01 Y86.166 E.02643
;WIDTH:0.603907
G1 X138.16 Y85.664 E.02444
;WIDTH:0.557815
G1 X138.225 Y85.132 E.02295
;WIDTH:0.515641
G1 X138.223 Y84.596 E.02107
;WIDTH:0.549315
G1 X138.177 Y84.327 E.01149
;WIDTH:0.582989
G1 X138.13 Y84.057 E.01231
;WIDTH:0.616663
G1 X138.084 Y83.787 E.01307
;WIDTH:0.653221
G1 X138.005 Y83.523 E.01398
;WIDTH:0.689779
G1 X137.927 Y83.259 E.01481
;WIDTH:0.726337
G1 X137.848 Y82.995 E.01566
;WIDTH:0.770262
G1 X137.768 Y82.844 E.01033
;WIDTH:0.814187
G1 X137.689 Y82.693 E.01093
;WIDTH:0.858112
G1 X137.609 Y82.542 E.01158
;WIDTH:0.887173
G1 X137.515 Y82.429 E.01032
G1 X137.088 Y82.137 E.03631
G1 X136.102 Y81.703 E.07563
;WIDTH:0.886206
G1 X135.534 Y81.598 E.0405
G1 X136.118 Y81.624 E.04099
;WIDTH:0.887173
G1 X136.949 Y81.626 E.05834
G1 X137.783 Y81.768 E.05939
G1 X138.317 Y81.804 E.03757
G1 X138.335 Y82.217 E.02902
;WIDTH:0.871399
G1 X138.378 Y82.39 E.01228
;WIDTH:0.823045
G1 X138.421 Y82.563 E.01156
;WIDTH:0.774691
G1 X138.463 Y82.736 E.01083
;WIDTH:0.726337
G1 X138.521 Y82.983 E.01442
;WIDTH:0.700452
G1 X138.578 Y83.23 E.01386
;WIDTH:0.674567
G1 X138.609 Y83.507 E.01464
;WIDTH:0.63565
G1 X138.64 Y83.784 E.01374
;WIDTH:0.596732
G1 X138.671 Y84.061 E.01284
;WIDTH:0.557814
G1 X138.694 Y84.636 E.02464
;WIDTH:0.515641
G1 X138.692 Y85.212 E.02264
;WIDTH:0.551235
G1 X138.673 Y85.529 E.01342
;WIDTH:0.586829
G1 X138.655 Y85.846 E.01436
;WIDTH:0.622423
G1 X138.636 Y86.163 E.0153
;WIDTH:0.649999
G1 X138.532 Y86.829 E.03403
G1 X138.476 Y87.468 E.03238
G1 X138.499 Y87.963 E.02501
G1 X138.618 Y88.66 E.03569
G1 X138.625 Y88.991 E.01671
;WIDTH:0.696898
G1 X138.602 Y89.249 E.01409
;WIDTH:0.743797
G1 X138.578 Y89.507 E.0151
;WIDTH:0.790696
G1 X138.555 Y89.765 E.01611
G1 X138.532 Y89.706 E.00394
;WIDTH:0.775541
G1 X138.408 Y89.491 E.01512
;WIDTH:0.733694
G1 X138.285 Y89.276 E.01423
;WIDTH:0.691847
G1 X138.162 Y89.061 E.01337
;WIDTH:0.649999
G1 X137.746 Y88.548 E.03334
G1 X137.305 Y88.287 E.02587
;WIDTH:0.663716
G1 X136.624 Y88.133 E.03604
;WIDTH:0.709853
G1 X136.489 Y88.113 E.00757
;WIDTH:0.755989
G1 X136.354 Y88.092 E.0081
;WIDTH:0.802126
G1 X136.308 Y88.085 E.00294
M204 S1000
;WIPE_START
G1 F8640
G1 X136.085 Y88.051 E-.05209
G1 X136.216 Y87.968 E-.03581
G1 X136.348 Y87.884 E-.03613
G1 X136.479 Y87.801 E-.03581
G1 X136.611 Y87.717 E-.03613
G1 X137.535 Y87.141 E-.25141
G1 X137.861 Y86.668 E-.13264
G1 X138.01 Y86.166 E-.12091
G1 X138.16 Y85.664 E-.12098
G1 X138.225 Y85.132 E-.12375
G1 X138.224 Y84.897 E-.05434
;WIPE_END
G1 Z.4 F720
G1 X137.851 Y87.709 F10800
G1 Z.2 F720
G1 E1 F1500
M204 S800
;TYPE:Perimeter
;WIDTH:0.775668
G1 F1200
G1 X137.76 Y87.709 E.00554
G1 X137.714 Y87.788 E.00557
G1 X137.76 Y87.868 E.00562
G1 X137.851 Y87.868 E.00554
G1 X137.897 Y87.788 E.00562
M204 S1000
;WIPE_START
G1 F8640
G1 X137.851 Y87.868 E-.02131
G1 X137.76 Y87.868 E-.02101
G1 X137.714 Y87.788 E-.02131
G1 X137.76 Y87.709 E-.02111
G1 X137.851 Y87.709 E-.02101
;WIPE_END
G1 E-.89425 F2100
G1 Z.4 F720
G1 X135.529 Y88.183 F10800
G1 Z.2 F720
G1 E1 F1500
M204 S800
;TYPE:External perimeter
;WIDTH:0.859824
G1 F1200
G1 X136.018 Y88.066 E.03415
;WIDTH:0.848262
G1 X136.085 Y88.051 E.0046
M204 S1000
;WIPE_START
G1 F8640
G1 X136.018 Y88.066 E-.01585
G1 X135.529 Y88.183 E-.1161
;WIPE_END
G1 E-.86805 F2100
G1 Z.4 F720
G1 X134.392 Y81.616 F10800
G1 Z.2 F720
G1 E1 F1500
M204 S800
;WIDTH:0.87893
G1 F1200
G1 X134.664 Y81.6 E.01894
;WIDTH:0.845067
G1 X134.936 Y81.584 E.01817
;WIDTH:0.828828
G1 X135.464 Y81.594 E.03451
;WIDTH:0.837342
G1 X135.534 Y81.598 E.00463
M204 S1000
;WIPE_START
G1 F8640
G1 X135.464 Y81.594 E-.01619
G1 X134.936 Y81.584 E-.12194
G1 X134.664 Y81.6 E-.06291
G1 X134.392 Y81.616 E-.06291
;WIPE_END
G1 E-.73605 F2100
G1 Z.4 F720
G1 X118.721 Y91.294 F10800
G1 Z.2 F720
G1 E1 F1500
M204 S800
;TYPE:Perimeter
;WIDTH:0.649999
G1 F1200
G1 X118.575 Y90.727 E.02956
G1 X118.545 Y90.223 E.02549
G1 X118.601 Y89.72 E.02555
G1 X118.729 Y89.273 E.02347
G1 X118.961 Y88.78 E.0275
G1 X119.255 Y88.368 E.02555
G1 X119.614 Y88.012 E.02552
G1 X120.029 Y87.722 E.02556
G1 X120.486 Y87.506 E.02552
G1 X120.973 Y87.371 E.02551
G1 X121.436 Y87.323 E.0235
G1 X121.98 Y87.354 E.02751
G1 X122.471 Y87.474 E.02551
G1 X122.935 Y87.674 E.02551
G1 X123.359 Y87.95 E.02554
G1 X123.73 Y88.294 E.02554
G1 X124.013 Y88.663 E.02347
G1 X124.271 Y89.14 E.02737
G1 X124.428 Y89.624 E.02568
G1 X124.5 Y90.124 E.0255
G1 X124.487 Y90.63 E.02555
G1 X124.389 Y91.126 E.02552
G1 X124.208 Y91.598 E.02552
G1 X123.95 Y92.032 E.02549
G1 X123.623 Y92.417 E.0255
G1 X123.235 Y92.742 E.02555
G1 X122.797 Y92.995 E.02553
G1 X122.324 Y93.172 E.02549
G1 X121.827 Y93.265 E.02552
G1 X121.321 Y93.274 E.02555
G1 X120.822 Y93.196 E.02549
G1 X120.342 Y93.036 E.02554
G1 X119.897 Y92.797 E.0255
G1 X119.498 Y92.486 E.02554
G1 X119.158 Y92.112 E.02551
G1 X118.886 Y91.686 E.02551
G1 X118.756 Y91.377 E.01692
M204 S1000
G1 X119.274 Y91.053 F10800
M204 S800
;TYPE:External perimeter
G1 F1200
G1 X119.18 Y90.676 E.01961
G1 X119.15 Y90.274 E.02035
G1 X119.189 Y89.873 E.02034
G1 X119.286 Y89.516 E.01867
G1 X119.464 Y89.12 E.02192
G1 X119.694 Y88.788 E.02039
G1 X119.975 Y88.5 E.02031
G1 X120.302 Y88.264 E.02036
G1 X120.663 Y88.087 E.0203
G1 X121.05 Y87.973 E.02037
G1 X121.418 Y87.93 E.0187
G1 X121.852 Y87.948 E.02193
G1 X122.245 Y88.037 E.02034
G1 X122.617 Y88.191 E.02032
G1 X122.958 Y88.406 E.02035
G1 X123.257 Y88.675 E.0203
G1 X123.487 Y88.966 E.01872
G1 X123.699 Y89.345 E.02192
G1 X123.858 Y89.89 E.02866
G1 X123.893 Y90.476 E.02963
G1 X123.817 Y90.923 E.02289
G1 X123.678 Y91.302 E.02038
G1 X123.478 Y91.651 E.0203
G1 X123.222 Y91.962 E.02033
G1 X122.916 Y92.225 E.02037
G1 X122.571 Y92.432 E.02031
G1 X122.172 Y92.583 E.02154
G1 X121.801 Y92.659 E.01912
G1 X121.398 Y92.671 E.02035
G1 X121 Y92.616 E.02028
G1 X120.616 Y92.494 E.02034
G1 X120.258 Y92.309 E.02034
G1 X119.937 Y92.066 E.02032
G1 X119.661 Y91.772 E.02036
G1 X119.439 Y91.436 E.02033
G1 X119.308 Y91.137 E.01648
M204 S1000
G1 X118.893 Y90.978 F10800
;WIPE_START
G1 F8640
G1 X119.18 Y90.676 E-.11047
G1 X119.15 Y90.274 E-.09308
G1 X119.189 Y89.873 E-.09303
G1 X119.286 Y89.516 E-.08542
G1 X119.464 Y89.12 E-.10025
G1 X119.694 Y88.788 E-.09326
G1 X119.975 Y88.5 E-.09291
G1 X120.302 Y88.264 E-.09312
G1 X120.663 Y88.087 E-.09284
G1 X121.05 Y87.973 E-.09316
G1 X121.276 Y87.947 E-.05246
;WIPE_END
G1 Z.4 F720
G1 X118.685 Y126.899 F10800
G1 Z.2 F720
G1 E1 F1500
M204 S800
;TYPE:Perimeter
G1 F1200
G1 X118.081 Y126.758 E.03131
G1 X117.062 Y126.644 E.05176
G1 X112.182 Y126.269 E.24706
G1 X112.182 Y87.017 E1.98139
G1 X113.896 Y86.24 E.095
G1 X116.207 Y84.994 E.13253
G1 X118.425 Y83.595 E.13237
G1 X120.188 Y82.307 E.11021
G1 X131.362 Y82.305 E.56405
G1 X132.053 Y82.276 E.03491
G1 X131.937 Y82.397 E.00846
G1 X131.529 Y82.982 E.036
G1 X131.254 Y83.614 E.03479
G1 X131.094 Y84.279 E.03453
G1 X131.049 Y84.961 E.0345
G1 X131.147 Y85.744 E.03983
G1 X131.312 Y86.314 E.02995
G1 X131.599 Y86.917 E.03371
G1 X131.991 Y87.474 E.03438
G1 X132.36 Y87.858 E.02688
G1 X132.618 Y88.062 E.0166
G1 X133.101 Y88.379 E.02916
G1 X133.59 Y88.58 E.02669
G1 X133.996 Y88.66 E.02089
G1 X133.839 Y88.85 E.01244
G1 X133.566 Y89.37 E.02965
G1 X133.432 Y89.861 E.02569
G1 X133.396 Y90.374 E.02596
G1 X133.451 Y90.879 E.02564
G1 X133.591 Y91.365 E.02553
G1 X133.811 Y91.821 E.02556
G1 X134.105 Y92.232 E.02551
G1 X134.464 Y92.588 E.02552
G1 X134.879 Y92.878 E.02556
G1 X135.336 Y93.094 E.02552
G1 X135.824 Y93.229 E.02556
G1 X136.332 Y93.279 E.02577
G1 X136.857 Y93.236 E.02659
G1 X137.387 Y93.082 E.02786
G1 X137.857 Y92.819 E.02719
G1 X137.827 Y93.357 E.0272
G1 X137.818 Y94.147 E.03988
G1 X137.819 Y123.114 E1.46222
G1 X137.853 Y124.173 E.05348
G1 X137.387 Y123.918 E.02681
G1 X136.857 Y123.764 E.02786
G1 X136.292 Y123.724 E.02859
G1 X135.824 Y123.771 E.02374
G1 X135.336 Y123.906 E.02556
G1 X134.879 Y124.122 E.02552
G1 X134.464 Y124.412 E.02556
G1 X134.105 Y124.768 E.02552
G1 X133.811 Y125.18 E.02555
G1 X133.591 Y125.636 E.02556
M73 P1 R25
G1 X133.452 Y126.127 E.02576
G1 X133.404 Y126.677 E.02787
G1 X133.473 Y127.194 E.02633
G1 X133.707 Y127.775 E.03162
G1 X133.017 Y127.714 E.03497
G1 X132.362 Y127.693 E.03308
G1 X124.959 Y127.702 E.37369
G1 X124.191 Y127.779 E.03896
G1 X124.353 Y127.457 E.0182
G1 X124.451 Y127.107 E.01835
G1 X124.495 Y126.566 E.0274
G1 X124.429 Y126.033 E.02711
G1 X124.273 Y125.545 E.02586
G1 X124.037 Y125.096 E.02561
G1 X123.73 Y124.694 E.02553
G1 X123.359 Y124.35 E.02554
G1 X122.935 Y124.074 E.02554
G1 X122.471 Y123.874 E.02551
G1 X121.98 Y123.754 E.02551
G1 X121.436 Y123.723 E.02751
G1 X120.973 Y123.771 E.0235
G1 X120.486 Y123.906 E.02551
G1 X120.029 Y124.122 E.02552
G1 X119.614 Y124.412 E.02556
G1 X119.255 Y124.77 E.02559
G1 X118.96 Y125.188 E.02583
G1 X118.743 Y125.672 E.02677
G1 X118.62 Y126.305 E.03255
G1 X118.675 Y126.81 E.02564
M204 S1000
;WIPE_START
G1 F8640
G1 X118.081 Y126.758 E-.13768
G1 X117.062 Y126.644 E-.23676
G1 X114.361 Y126.436 E-.62556
;WIPE_END
G1 Z.4 F720
G1 X120.336 Y128.508 F10800
G1 Z.2 F720
G1 E1 F1500
M204 S800
;TYPE:External perimeter
;WIDTH:0.634305
G1 F1200
G1 X119.289 Y128.472 E.05152
G1 X119.256 Y128.188 E.01406
;WIDTH:0.590125
G1 X119.223 Y127.904 E.01301
;WIDTH:0.56681
G1 X119.144 Y127.711 E.00908
;WIDTH:0.59714
G1 X119.093 Y127.667 E.0031
;WIDTH:0.62747
G1 X119.041 Y127.623 E.00331
;WIDTH:0.649999
G1 X118.013 Y127.362 E.05354
G1 X117.016 Y127.249 E.05065
G1 X111.575 Y126.831 E.27546
G1 X111.575 Y86.625 E2.02955
G1 X113.61 Y85.704 E.11276
M73 Q2 S26
G1 X115.883 Y84.481 E.13029
M73 P2 R25
G1 X118.067 Y83.104 E.13033
G1 X119.99 Y81.7 E.12019
G1 X131.362 Y81.698 E.57405
G1 X132.634 Y81.625 E.06431
G1 X133.126 Y81.533 E.02527
;WIDTH:0.667492
G1 X133.844 Y81.509 E.03731
;WIDTH:0.70978
G1 X133.954 Y81.531 E.00622
;WIDTH:0.752068
G1 X134.063 Y81.552 E.00655
;WIDTH:0.794355
G1 X134.173 Y81.574 E.00701
;WIDTH:0.836643
G1 X134.282 Y81.595 E.00733
;WIDTH:0.87893
G1 X134.392 Y81.616 E.00778
G1 X134.344 Y81.638 E.00367
;WIDTH:0.858605
G1 X134.212 Y81.707 E.0101
;WIDTH:0.816884
G1 X134.08 Y81.776 E.00959
;WIDTH:0.775163
G1 X133.948 Y81.845 E.00907
;WIDTH:0.733442
G1 X133.816 Y81.914 E.00855
;WIDTH:0.691721
G1 X133.684 Y81.983 E.00804
;WIDTH:0.649999
G1 X132.887 Y82.371 E.04475
G1 X132.426 Y82.757 E.03035
G1 X132.081 Y83.236 E.0298
G1 X131.841 Y83.767 E.02941
G1 X131.699 Y84.331 E.02936
G1 X131.654 Y84.91 E.02932
G1 X131.708 Y85.488 E.0293
G1 X131.865 Y86.064 E.03014
G1 X132.102 Y86.577 E.02853
G1 X132.431 Y87.056 E.02933
G1 X132.839 Y87.474 E.02949
G1 X133.358 Y87.828 E.03171
G1 X133.903 Y88.039 E.0295
G1 X134.458 Y88.097 E.02817
;WIDTH:0.65927
G1 X134.969 Y88.111 E.0262
;WIDTH:0.699381
G1 X135.081 Y88.125 E.00616
;WIDTH:0.739492
G1 X135.193 Y88.14 E.00654
;WIDTH:0.779603
G1 X135.305 Y88.154 E.00691
;WIDTH:0.819714
G1 X135.417 Y88.168 E.00729
;WIDTH:0.859824
G1 X135.529 Y88.183 E.00768
G1 X135.477 Y88.219 E.0043
;WIDTH:0.837402
G1 X135.382 Y88.302 E.00833
;WIDTH:0.790552
G1 X135.286 Y88.385 E.00789
;WIDTH:0.743701
G1 X135.19 Y88.468 E.00739
;WIDTH:0.69685
G1 X135.095 Y88.551 E.00686
;WIDTH:0.649999
G1 X134.423 Y89.086 E.04336
G1 X134.182 Y89.46 E.02246
G1 X134.049 Y89.859 E.02123
G1 X134.02 Y90.082 E.01135
G1 X134.02 Y90.553 E.02378
G1 X134.127 Y91.067 E.0265
G1 X134.289 Y91.436 E.02034
G1 X134.511 Y91.772 E.02033
G1 X134.787 Y92.066 E.02036
G1 X135.108 Y92.309 E.02032
G1 X135.466 Y92.494 E.02034
G1 X135.85 Y92.616 E.02034
G1 X136.249 Y92.671 E.02033
G1 X136.653 Y92.656 E.02041
G1 X137.052 Y92.563 E.02068
G1 X137.39 Y92.402 E.0189
G1 X137.798 Y92.055 E.02704
G1 X138.191 Y91.496 E.03449
;WIDTH:0.69698
G1 X138.312 Y91.276 E.01366
;WIDTH:0.743961
G1 X138.433 Y91.056 E.01464
;WIDTH:0.790942
G1 X138.555 Y90.836 E.01565
G1 X138.573 Y90.988 E.00952
;WIDTH:0.754734
G1 X138.591 Y91.14 E.00906
;WIDTH:0.718525
G1 X138.609 Y91.292 E.0086
;WIDTH:0.682316
G1 X138.594 Y92.107 E.04334
;WIDTH:0.649999
G1 X138.486 Y92.618 E.02636
G1 X138.436 Y93.145 E.02672
G1 X138.425 Y94.144 E.05043
G1 X138.425 Y123.096 E1.46146
G1 X138.46 Y124.147 E.05308
G1 X138.625 Y125.146 E.05111
G1 X138.625 Y125.391 E.01237
;WIDTH:0.696898
G1 X138.602 Y125.649 E.01409
;WIDTH:0.743797
G1 X138.578 Y125.907 E.0151
;WIDTH:0.790696
G1 X138.555 Y126.165 E.01611
G1 X138.532 Y126.106 E.00394
;WIDTH:0.775541
G1 X138.412 Y125.897 E.01468
;WIDTH:0.733694
G1 X138.293 Y125.687 E.01386
;WIDTH:0.691847
G1 X138.174 Y125.477 E.01302
;WIDTH:0.649999
G1 X137.808 Y124.959 E.03202
G1 X137.494 Y124.662 E.02182
G1 X137.115 Y124.461 E.02166
G1 X136.785 Y124.371 E.01727
G1 X136.27 Y124.33 E.02608
G1 X135.9 Y124.373 E.0188
G1 X135.514 Y124.487 E.02032
G1 X135.152 Y124.664 E.02034
G1 X134.825 Y124.9 E.02036
G1 X134.544 Y125.188 E.02031
G1 X134.382 Y125.419 E.01424
G1 X134.145 Y125.885 E.02639
G1 X134.041 Y126.276 E.02042
G1 X134.012 Y126.684 E.02065
G1 X134.072 Y127.096 E.02102
G1 X134.276 Y127.551 E.02517
G1 X134.919 Y128.315 E.05041
G1 X135.162 Y128.5 E.01542
G1 X134.341 Y128.5 E.04144
G1 X133.557 Y128.365 E.04016
G1 X132.997 Y128.321 E.02836
