; generated by PrusaSlicer 2.6.0+win64 on 2023-07-22 at 16:55:45 UTC


;
;
; 

; external perimeters extrusion width = 0.65mm
; perimeters extrusion width = 0.65mm
; infill extrusion width = 0.65mm
; solid infill extrusion width = 0.65mm
; top infill extrusion width = 0.60mm
; first layer extrusion width = 0.65mm

M73 P0 R29
M73 Q0 S29
M201 X1000 Y1000 Z200 E5000 ; sets maximum accelerations, mm/sec^2
M203 X200 Y200 Z12 E120 ; sets maximum feedrates, mm / sec
M204 S1250 T1250 ; sets acceleration (S) and retract acceleration (R), mm/sec^2
M205 X8.00 Y8.00 Z0.40 E4.50 ; sets the jerk limits, mm/sec
M205 S0 T0 ; sets the minimum extruding and travel feed rate, mm/sec
;TYPE:Custom
M862.3 P "MK3S" ; printer model check
M862.1 P0.6 ; nozzle diameter check
M115 U3.12.2 ; tell printer latest fw version
G90 ; use absolute coordinates
M83 ; extruder relative mode
M104 S240 ; set extruder temp
M140 S85 ; set bed temp
M190 S85 ; wait for bed temp
M109 S240 ; wait for extruder temp
G28 W ; home all without mesh bed level
G80 ; mesh bed leveling

G1 Z0.2 F720
G1 Y-3 F1000 ; go outside print area
G92 E0
G1 X60 E9 F1000 ; intro line
G1 X100 E12.5 F1000 ; intro line

G92 E0
M221 S95
G21 ; set units to millimeters
G90 ; use absolute coordinates
M83 ; use relative distances for extrusion
M900 K0.04 ; Filament gcode LA 1.5
M900 K24 ; Filament gcode LA 1.0
M107
;LAYER_CHANGE
;Z:0.2
;HEIGHT:0.2
;BEFORE_LAYER_CHANGE
G92 E0.0
;0.2


G1 E-1 F2100
G1 Z.2 F720
;AFTER_LAYER_CHANGE
;0.2
G1 Z.4
G1 X106.932 Y87.31 F10800
G1 Z.2 F720
G1 E1 F1500
M204 S800
;TYPE:Skirt/Brim
;WIDTH:0.65
G1 F1200
G1 X109.433 Y84.565 E.18745
G1 X112.344 Y82.26 E.18743
G1 X115.589 Y80.455 E.18744
G1 X119.083 Y79.198 E.18744
G1 X122.734 Y78.521 E.18744
G1 X126.446 Y78.442 E.18742
G1 X129.71 Y78.875 E.16621
G1 X133.273 Y79.918 E.1874
G1 X136.622 Y81.523 E.18747
G1 X146.753 Y88.62 E.6244
G1 X147.652 Y89.733 E.07222
G1 X147.859 Y90.751 E.05244
G1 X147.859 Y128.976 E1.92955
G1 X147.467 Y130.351 E.07217
G1 X146.408 Y131.312 E.07219
G1 X145.252 Y131.583 E.05994
G1 X104.748 Y131.583 E2.0446
G1 X103.373 Y131.19 E.07219
G1 X102.411 Y130.131 E.07222
G1 X102.141 Y128.976 E.05987
G1 X102.141 Y101.326 E1.39574
G1 X102.484 Y97.416 E.19813
G1 X103.277 Y94.221 E.16617
G1 X104.71 Y90.796 E.18741
G1 X106.884 Y87.386 E.20414
M204 S1000
; printing object Right_Motor_Bracket_34,8mm_rev0-4 id:0 copy 0
;WIPE_START
G1 F8640
G1 X109.433 Y84.565 E-.8779
G1 X109.848 Y84.237 E-.1221
;WIPE_END
G1 Z.4 F720
G1 X143.513 Y96.737 F10800
G1 Z.2 F720
G1 E1 F1500
M204 S800
;TYPE:Perimeter
;WIDTH:0.649999
G1 F1200
G1 X143.014 Y94.891 E.09653
G1 X142.923 Y94.643 E.01333
G1 X141.827 Y92.305 E.13034
G1 X142.318 Y92.49 E.02649
G1 X143.513 Y92.49 E.06032
G1 X143.513 Y96.647 E.20984
M204 S1000
;WIPE_START
G1 F8640
G1 X143.014 Y94.891 E-.42152
G1 X142.923 Y94.643 E-.061
G1 X141.972 Y92.614 E-.51748
;WIPE_END
G1 Z.4 F720
G1 X126.912 Y120.235 F10800
G1 Z.2 F720
M73 Q1 S29
G1 E1 F1500
M204 S800
M73 P1 R29
G1 F1200
G1 X128.363 Y120.099 E.07357
G1 X128.621 Y120.051 E.01325
G1 X131.559 Y119.248 E.15375
G1 X131.807 Y119.156 E.01335
G1 X134.568 Y117.852 E.15413
G1 X134.796 Y117.719 E.01332
G1 X137.289 Y115.956 E.15413
G1 X137.49 Y115.785 E.01332
G1 X139.64 Y113.617 E.15413
G1 X139.808 Y113.414 E.0133
G1 X141.55 Y110.906 E.15414
G1 X141.681 Y110.677 E.01332
G1 X142.961 Y107.905 E.15412
G1 X143.05 Y107.657 E.0133
G1 X143.513 Y105.907 E.09138
G1 X143.513 Y127.236 E1.07666
G1 X126.912 Y127.236 E.838
G1 X126.912 Y120.325 E.34886
M204 S1000
;WIPE_START
G1 F8640
G1 X128.363 Y120.099 E-.33908
G1 X128.621 Y120.051 E-.0606
G1 X131.129 Y119.366 E-.60032
;WIPE_END
G1 Z.4 F720
G1 X123.234 Y120.235 F10800
G1 Z.2 F720
G1 E1 F1500
M204 S800
G1 F1200
G1 X123.234 Y127.236 E.3534
G1 X106.487 Y127.236 E.84537
G1 X106.487 Y105.355 E1.10453
G1 X107.095 Y107.657 E.12019
G1 X107.185 Y107.905 E.01332
G1 X108.465 Y110.677 E.15412
G1 X108.596 Y110.906 E.01332
G1 X110.337 Y113.414 E.15411
G1 X110.506 Y113.617 E.01333
G1 X112.656 Y115.785 E.15413
G1 X112.857 Y115.956 E.01332
G1 X114.98 Y117.457 E.13125
G1 X115.578 Y117.852 E.03618
G1 X118.339 Y119.156 E.15413
G1 X118.586 Y119.247 E.01329
G1 X121.524 Y120.051 E.15376
G1 X121.783 Y120.099 E.0133
G1 X123.144 Y120.226 E.069
M204 S1000
;WIPE_START
G1 F8640
G1 X123.2 Y124.556 E-1
;WIPE_END
G1 Z.4 F720
G1 X126.305 Y119.682 F10800
G1 Z.2 F720
G1 E1 F1500
M204 S800
G1 F1200
G1 X128.306 Y119.494 E.10145
G1 X128.461 Y119.466 E.00795
G1 X131.399 Y118.662 E.15376
G1 X131.548 Y118.607 E.00802
G1 X134.308 Y117.303 E.15409
G1 X134.445 Y117.223 E.00801
G1 X136.938 Y115.46 E.15413
G1 X137.059 Y115.358 E.00799
G1 X139.208 Y113.19 E.15409
G1 X139.31 Y113.068 E.00803
G1 X141.051 Y110.56 E.15411
G1 X141.13 Y110.423 E.00798
G1 X142.41 Y107.651 E.15412
G1 X142.463 Y107.502 E.00798
;WIDTH:0.684911
G1 X142.74 Y106.522 E.05436
;WIDTH:0.719822
G1 X143.017 Y105.543 E.05727
;WIDTH:0.754733
G1 X143.294 Y104.563 E.06028
;WIDTH:0.771856
G1 X143.331 Y104.399 E.01019
G1 X143.396 Y103.383 E.06171
;WIDTH:0.728972
G1 X143.46 Y102.367 E.05807
;WIDTH:0.686087
G1 X143.524 Y101.351 E.05444
;WIDTH:0.643505
G1 X143.524 Y101.194 E.00784
;WIDTH:0.689327
G1 X143.455 Y100.178 E.05473
;WIDTH:0.735149
G1 X143.387 Y99.162 E.05861
;WIDTH:0.78097
G1 X143.318 Y98.147 E.06243
G1 X143.291 Y98.066 E.00524
;WIDTH:0.755126
G1 X143.263 Y97.986 E.00502
;WIDTH:0.729282
G1 X142.845 Y96.518 E.08711
;WIDTH:0.689641
G1 X142.428 Y95.049 E.08212
;WIDTH:0.649999
G1 X142.373 Y94.901 E.00797
G1 X141.535 Y93.114 E.09963
;WIDTH:0.680303
G1 X141.32 Y92.619 E.0286
;WIDTH:0.710607
G1 X141.104 Y92.123 E.03003
;WIDTH:0.72651
G1 X140.994 Y91.929 E.01268
G1 X139.23 Y89.449 E.17299
;WIDTH:0.716482
G1 X139.114 Y89.308 E.01023
G1 X137 Y87.203 E.16708
;WIDTH:0.711196
G1 X136.879 Y87.104 E.00869
;WIDTH:0.719984
G1 X134.507 Y85.439 E.16315
G1 X134.227 Y85.272 E.01835
;WIDTH:0.727528
G1 X131.818 Y84.136 E.15162
G1 X131.305 Y83.932 E.03143
;WIDTH:0.733693
G1 X128.956 Y83.283 E.13998
G1 X128.195 Y83.117 E.04474
;WIDTH:0.73849
G1 X125.996 Y82.9 E.1278
G1 X125.494 Y82.877 E.02906
;WIDTH:0.712058
G1 X124.992 Y82.853 E.02796
;WIDTH:0.713779
G1 X124.003 Y82.926 E.05532
;WIDTH:0.741931
G1 X123.014 Y82.998 E.05764
G1 X122.482 Y83.058 E.03112
;WIDTH:0.713725
G1 X121.951 Y83.119 E.02981
;WIDTH:0.685518
G1 X121.792 Y83.148 E.00864
;WIDTH:0.713763
G1 X120.939 Y83.36 E.04903
;WIDTH:0.743999
G1 X120.087 Y83.573 E.0512
G1 X119.465 Y83.755 E.03778
;WIDTH:0.713734
G1 X118.843 Y83.937 E.03615
;WIDTH:0.683468
G1 X118.691 Y83.992 E.00861
;WIDTH:0.713746
G1 X117.991 Y84.301 E.04268
;WIDTH:0.744703
G1 X117.29 Y84.61 E.0447
G1 X116.607 Y84.945 E.04439
;WIDTH:0.713744
G1 X115.923 Y85.28 E.04248
;WIDTH:0.683575
G1 X115.781 Y85.362 E.00874
;WIDTH:0.714676
G1 X115.24 Y85.723 E.03633
;WIDTH:0.745776
G1 X114.699 Y86.084 E.03801
G1 X113.971 Y86.613 E.05259
;WIDTH:0.715819
G1 X113.244 Y87.143 E.05034
;WIDTH:0.687924
G1 X113.121 Y87.244 E.00854
;WIDTH:0.714971
G1 X112.747 Y87.598 E.02878
;WIDTH:0.742017
G1 X112.373 Y87.952 E.02994
G1 X111.683 Y88.66 E.05747
;WIDTH:0.713775
G1 X110.994 Y89.367 E.05507
;WIDTH:0.688799
G1 X110.888 Y89.49 E.00872
;WIDTH:0.738635
G1 X110.379 Y90.172 E.04923
G1 X109.133 Y91.988 E.1274
;WIDTH:0.693558
G1 X109.049 Y92.127 E.00879
;WIDTH:0.733887
G1 X108.766 Y92.683 E.03584
G1 X107.753 Y94.891 E.13957
;WIDTH:0.69375
G1 X107.741 Y94.919 E.00165
;WIDTH:0.727766
G1 X107.577 Y95.422 E.03013
G1 X106.897 Y97.99 E.15128
;WIDTH:0.720266
G1 X106.843 Y98.319 E.01878
G1 X106.59 Y101.19 E.16233
;WIDTH:0.716438
G1 X106.586 Y101.358 E.00941
;WIDTH:0.759262
G1 X106.65 Y102.373 E.06058
;WIDTH:0.802086
G1 X106.714 Y103.387 E.06414
;WIDTH:0.844909
G1 X106.778 Y104.402 E.06782
G1 X106.824 Y104.571 E.01168
;WIDTH:0.811994
G1 X107.038 Y105.303 E.04877
;WIDTH:0.771496
G1 X107.253 Y106.036 E.04628
;WIDTH:0.730997
G1 X107.468 Y106.769 E.0437
;WIDTH:0.690498
G1 X107.682 Y107.502 E.04112
;WIDTH:0.649999
G1 X107.736 Y107.651 E.008
G1 X109.016 Y110.422 E.15408
G1 X109.095 Y110.56 E.00803
G1 X110.836 Y113.068 E.15411
G1 X110.937 Y113.19 E.00799
G1 X113.087 Y115.358 E.15413
G1 X113.208 Y115.46 E.00799
G1 X115.837 Y117.303 E.16207
G1 X118.598 Y118.607 E.15413
G1 X118.746 Y118.662 E.00797
G1 X121.685 Y119.466 E.15381
G1 X121.84 Y119.494 E.00795
G1 X123.841 Y119.682 E.10145
G1 X123.841 Y127.844 E.41201
G1 X105.88 Y127.844 E.90665
G1 X105.88 Y107.736 E1.01503
;WIDTH:0.690498
G1 X105.9 Y106.972 E.04115
;WIDTH:0.730997
M73 P1 R28
G1 X105.921 Y106.209 E.04367
;WIDTH:0.771496
G1 X105.941 Y105.446 E.04624
;WIDTH:0.811994
G1 X105.961 Y104.683 E.04881
;WIDTH:0.844909
G1 X105.977 Y104.436 E.01651
G1 X105.956 Y103.419 E.06783
;WIDTH:0.802086
G1 X105.935 Y102.403 E.06415
;WIDTH:0.759262
G1 X105.913 Y101.387 E.06053
;WIDTH:0.716438
G1 X105.928 Y101.134 E.01419
;WIDTH:0.720266
G1 X106.168 Y98.261 E.16238
G1 X106.261 Y97.825 E.02511
;WIDTH:0.727766
G1 X106.914 Y95.25 E.15128
G1 X107.159 Y94.625 E.03823
;WIDTH:0.733887
G1 X108.136 Y92.4 E.13962
G1 X108.596 Y91.628 E.05163
;WIDTH:0.738635
G1 X109.801 Y89.785 E.12738
G1 X110.181 Y89.333 E.03416
;WIDTH:0.712084
G1 X110.527 Y88.926 E.02972
;WIDTH:0.713775
G1 X111.196 Y88.199 E.05511
;WIDTH:0.742017
G1 X111.865 Y87.472 E.05743
G1 X112.299 Y87.099 E.03327
;WIDTH:0.714971
G1 X112.691 Y86.765 E.02878
;WIDTH:0.687924
G1 X112.857 Y86.63 E.01148
;WIDTH:0.715819
G1 X113.567 Y86.076 E.05039
;WIDTH:0.745776
G1 X114.276 Y85.523 E.05255
G1 X114.881 Y85.156 E.04135
;WIDTH:0.714676
G1 X115.438 Y84.821 E.03631
;WIDTH:0.683575
G1 X115.63 Y84.712 E.01176
;WIDTH:0.713744
G1 X116.299 Y84.349 E.04246
;WIDTH:0.744703
G1 X117.021 Y83.963 E.04777
G1 X117.733 Y83.682 E.04467
;WIDTH:0.713746
G1 X118.445 Y83.402 E.04268
;WIDTH:0.683468
G1 X118.649 Y83.327 E.01158
;WIDTH:0.713734
G1 X119.262 Y83.116 E.03616
;WIDTH:0.743999
G1 X119.929 Y82.89 E.04105
G1 X120.789 Y82.707 E.05126
;WIDTH:0.713763
G1 X121.648 Y82.524 E.04899
;WIDTH:0.685518
G1 X121.861 Y82.484 E.01158
;WIDTH:0.713725
G1 X122.389 Y82.395 E.02987
;WIDTH:0.741931
G1 X122.973 Y82.3 E.03439
G1 X123.964 Y82.256 E.05766
;WIDTH:0.713779
G1 X124.955 Y82.212 E.05533
;WIDTH:0.688937
M73 Q2 S29
G1 X125.172 Y82.207 E.01166
;WIDTH:0.73849
M73 P2 R28
G1 X126.072 Y82.209 E.05205
G1 X128.266 Y82.475 E.12782
;WIDTH:0.693738
G1 X128.482 Y82.506 E.01181
;WIDTH:0.733693
G1 X129.145 Y82.619 E.03863
G1 X131.483 Y83.306 E.13997
;WIDTH:0.693933
G1 X131.523 Y83.318 E.00226
;WIDTH:0.727528
G1 X132.113 Y83.519 E.03548
G1 X134.51 Y84.68 E.15161
;WIDTH:0.719984
G1 X134.897 Y84.885 E.02466
G1 X137.256 Y86.556 E.16275
;WIDTH:0.711196
G1 X137.471 Y86.729 E.01533
;WIDTH:0.716482
G1 X139.589 Y88.83 E.16709
G1 X139.76 Y89.049 E.01556
;WIDTH:0.72651
G1 X141.55 Y91.53 E.17389
G1 X141.696 Y91.679 E.01186
;WIDTH:0.710607
G1 X142.007 Y91.781 E.01817
;WIDTH:0.680303
G1 X142.318 Y91.883 E.01735
;WIDTH:0.649999
G1 X144.12 Y91.883 E.09096
G1 X144.12 Y93.112 E.06204
G1 X144.12 Y94.824 E.08642
;WIDTH:0.689641
G1 X144.1 Y96.351 E.08212
;WIDTH:0.729282
G1 X144.08 Y97.878 E.08716
;WIDTH:0.755126
G1 X144.067 Y97.995 E.00697
;WIDTH:0.78097
G1 X144.055 Y98.113 E.00728
G1 X144.077 Y99.131 E.06249
;WIDTH:0.735149
G1 X144.1 Y100.149 E.05861
;WIDTH:0.689327
G1 X144.123 Y101.167 E.05473
;WIDTH:0.643505
G1 X144.123 Y101.377 E.01049
;WIDTH:0.686087
G1 X144.102 Y102.394 E.0544
;WIDTH:0.728972
G1 X144.081 Y103.412 E.05808
;WIDTH:0.771856
G1 X144.068 Y104.664 E.07589
;WIDTH:0.754733
G1 X144.085 Y105.682 E.06026
;WIDTH:0.719822
G1 X144.103 Y106.699 E.05725
;WIDTH:0.684911
G1 X144.12 Y107.717 E.05435
;WIDTH:0.649999
G1 X144.12 Y127.844 E1.01599
G1 X126.305 Y127.844 E.89928
G1 X126.305 Y119.772 E.40747
M204 S1000
G1 X125.698 Y119.129 F10800
M204 S800
;TYPE:External perimeter
G1 F1200
G1 X128.301 Y118.88 E.132
G1 X131.239 Y118.076 E.15376
G1 X134.049 Y116.754 E.15676
G1 X136.587 Y114.965 E.15674
G1 X138.777 Y112.762 E.1568
G1 X140.552 Y110.214 E.15675
G1 X141.859 Y107.396 E.1568
G1 X142.666 Y104.343 E.1594
G1 X142.922 Y101.248 E.15677
G1 X142.639 Y98.155 E.15678
G1 X141.842 Y95.208 E.15411
G1 X140.527 Y92.394 E.15679
G1 X138.711 Y89.816 E.15918
G1 X136.549 Y87.654 E.15434
G1 X133.96 Y85.846 E.1594
G1 X131.142 Y84.539 E.1568
G1 X128.141 Y83.742 E.15674
G1 X125.047 Y83.476 E.15676
G1 X121.953 Y83.751 E.1568
G1 X118.954 Y84.557 E.15676
G1 X116.139 Y85.872 E.15684
G1 X113.563 Y87.688 E.1591
G1 X111.401 Y89.85 E.15434
G1 X109.645 Y92.348 E.15413
G1 X108.323 Y95.158 E.15676
G1 X107.507 Y98.155 E.15679
G1 X107.223 Y101.248 E.15679
G1 X107.48 Y104.343 E.15677
G1 X108.287 Y107.396 E.1594
G1 X109.594 Y110.214 E.1568
G1 X111.368 Y112.762 E.15672
G1 X113.558 Y114.965 E.1568
G1 X116.097 Y116.754 E.15679
G1 X118.907 Y118.076 E.15676
G1 X121.845 Y118.88 E.15376
G1 X124.448 Y119.129 E.132
G1 X124.448 Y128.451 E.47056
G1 X105.273 Y128.451 E.96793
G1 X105.273 Y101.347 E1.36818
G1 X105.534 Y98.129 E.16297
G1 X106.307 Y95.017 E.16186
G1 X107.571 Y92.07 E.16187
G1 X109.295 Y89.366 E.16188
G1 X111.433 Y86.976 E.16187
G1 X113.929 Y84.962 E.1619
G1 X116.717 Y83.377 E.16189
G1 X119.724 Y82.264 E.16185
G1 X122.871 Y81.65 E.16185
G1 X126.077 Y81.553 E.16191
G1 X129.256 Y81.974 E.16187
G1 X132.325 Y82.903 E.16186
G1 X135.204 Y84.316 E.16189
G1 X137.817 Y86.175 E.16188
G1 X140.096 Y88.431 E.16187
G1 X142.072 Y91.151 E.16971
G1 X142.318 Y91.276 E.01393
G1 X144.727 Y91.276 E.1216
G1 X144.727 Y128.451 E1.87655
G1 X125.698 Y128.451 E.96056
G1 X125.698 Y119.219 E.46602
M204 S1000
M73 P3 R28
M73 Q3 S29
G1 X126.296 Y119.182 F10800
;WIPE_START
M73 Q3 S28
G1 F8640
G1 X128.301 Y118.88 E-.60612
G1 X129.946 Y118.43 E-.39388
;WIPE_END
G1 Z.4 F720
G1 X122.991 Y121.72 F10800
G1 Z.2 F720
G1 E1 F1500
M204 S800
;TYPE:Solid infill
;WIDTH:0.666195
G1 F1200
G1 X121.899 Y120.628 E.08004
G1 X121.397 Y120.552 E.02631
G1 X120.769 Y120.38 E.03375
G1 X122.718 Y122.328 E.14281
G1 X122.718 Y123.21 E.04571
G1 X119.556 Y120.048 E.23175
G1 X118.327 Y119.701 E.06618
G1 X122.718 Y124.091 E.32179
G1 X122.718 Y124.973 E.04571
G1 X116.123 Y118.378 E.48336
M204 S1000
;WIPE_START
G1 F8640
G1 X119.185 Y121.44 E-1
;WIPE_END
G1 Z.4 F720
G1 X108.005 Y110.26 F10800
G1 Z.2 F720
G1 E1 F1500
M204 S800
G1 F1200
G1 X107.003 Y109.258 E.07344
G1 X107.003 Y110.139 E.04566
G1 X108.418 Y111.554 E.10371
G1 X109.919 Y113.716 E.1364
G1 X110.133 Y113.974 E.01737
G1 X112.296 Y116.155 E.15919
G1 X112.552 Y116.372 E.01739
G1 X114.887 Y118.023 E.14821
G1 X122.718 Y125.854 E.57395
G1 X122.718 Y126.72 E.04488
G1 X107.003 Y111.021 E1.1512
G1 X107.003 Y111.902 E.04566
G1 X121.821 Y126.72 E1.08605
G1 X120.94 Y126.72 E.04566
G1 X107.003 Y112.784 E1.02144
G1 X107.003 Y113.665 E.04566
G1 X120.058 Y126.72 E.95683
G1 X119.177 Y126.72 E.04566
G1 X107.003 Y114.547 E.89222
G1 X107.003 Y115.428 E.04566
G1 X118.295 Y126.72 E.82762
G1 X117.414 Y126.72 E.04566
G1 X107.003 Y116.31 E.76301
G1 X107.003 Y117.191 E.04566
G1 X116.533 Y126.72 E.69844
G1 X115.651 Y126.72 E.04571
G1 X107.003 Y118.072 E.63383
G1 X107.003 Y118.954 E.04571
G1 X114.77 Y126.72 E.56923
G1 X113.888 Y126.72 E.04571
G1 X107.003 Y119.835 E.50462
G1 X107.003 Y120.717 E.04571
G1 X113.007 Y126.72 E.44001
G1 X112.125 Y126.72 E.04571
G1 X107.003 Y121.598 E.3754
G1 X107.003 Y122.48 E.04571
G1 X111.244 Y126.72 E.3108
G1 X110.362 Y126.72 E.04571
G1 X107.003 Y123.361 E.24619
G1 X107.003 Y124.243 E.04571
G1 X109.481 Y126.72 E.18158
G1 X108.6 Y126.72 E.04566
G1 X107.003 Y125.124 E.11701
G1 X107.003 Y126.005 E.04566
G1 X107.991 Y126.994 E.07245
M204 S1000
;WIPE_START
G1 F8640
G1 X107.003 Y126.005 E-.32279
G1 X107.003 Y125.124 E-.20343
G1 X108.454 Y126.574 E-.47378
;WIPE_END
G1 Z.4 F720
G1 X143.27 Y109.964 F10800
G1 Z.2 F720
G1 E1 F1500
M204 S800
;WIDTH:0.652791
G1 F1200
G1 X142.797 Y109.491 E.03392
G1 X142.525 Y110.081 E.03295
G1 X142.997 Y110.553 E.03385
G1 X142.997 Y111.416 E.04376
G1 X142.252 Y110.671 E.05343
G1 X142.145 Y110.902 E.01291
G1 X141.951 Y111.232 E.01941
G1 X142.997 Y112.278 E.07502
G1 X142.997 Y113.141 E.04376
G1 X141.598 Y111.742 E.10033
G1 X141.245 Y112.251 E.03141
G1 X142.997 Y114.003 E.12565
G1 X142.997 Y114.865 E.04371
G1 X140.891 Y112.76 E.151
G1 X140.538 Y113.269 E.03141
M73 P4 R28
G1 X142.997 Y115.728 E.17635
