; generated by PrusaSlicer 2.6.0+win64 on 2023-07-22 at 15:27:37 UTC


;
;
; 

; external perimeters extrusion width = 0.65mm
; perimeters extrusion width = 0.65mm
; infill extrusion width = 0.65mm
; solid infill extrusion width = 0.65mm
; top infill extrusion width = 0.60mm
; first layer extrusion width = 0.65mm

M73 P0 R30
M73 Q0 S31
M201 X1000 Y1000 Z200 E5000 ; sets maximum accelerations, mm/sec^2
M203 X200 Y200 Z12 E120 ; sets maximum feedrates, mm / sec
M204 S1250 T1250 ; sets acceleration (S) and retract acceleration (R), mm/sec^2
M205 X8.00 Y8.00 Z0.40 E4.50 ; sets the jerk limits, mm/sec
M205 S0 T0 ; sets the minimum extruding and travel feed rate, mm/sec
;TYPE:Custom
M862.3 P "MK3S" ; printer model check
M862.1 P0.6 ; nozzle diameter check
M115 U3.12.2 ; tell printer latest fw version
G90 ; use absolute coordinates
M83 ; extruder relative mode
M104 S240 ; set extruder temp
M140 S85 ; set bed temp
M190 S85 ; wait for bed temp
M109 S240 ; wait for extruder temp
G28 W ; home all without mesh bed level
G80 ; mesh bed leveling

G1 Z0.2 F720
G1 Y-3 F1000 ; go outside print area
G92 E0
G1 X60 E9 F1000 ; intro line
G1 X100 E12.5 F1000 ; intro line

G92 E0
M221 S95
G21 ; set units to millimeters
G90 ; use absolute coordinates
M83 ; use relative distances for extrusion
M900 K0.04 ; Filament gcode LA 1.5
M900 K24 ; Filament gcode LA 1.0
M107
;LAYER_CHANGE
;Z:0.2
;HEIGHT:0.2
;BEFORE_LAYER_CHANGE
G92 E0.0
;0.2


G1 E-1 F2100
G1 Z.2 F720
;AFTER_LAYER_CHANGE
;0.2
G1 Z.4
G1 X106.355 Y87.978 F10800
G1 Z.2 F720
G1 E1 F1500
M204 S800
;TYPE:Skirt/Brim
;WIDTH:0.65
G1 F1200
G1 X108.691 Y85.208 E.18291
G1 X111.433 Y82.84 E.18288
G1 X114.485 Y80.948 E.18126
G1 X118.244 Y79.405 E.20511
G1 X121.779 Y78.609 E.18291
G1 X125.394 Y78.378 E.18285
G1 X128.596 Y78.65 E.16222
G1 X132.121 Y79.489 E.18291
G1 X135.834 Y81.06 E.20351
G1 X138.89 Y83.006 E.18288
G1 X147.103 Y90.371 E.55686
G1 X147.957 Y92.301 E.10654
G1 X147.957 Y129.025 E1.85379
G1 X147.565 Y130.401 E.07222
G1 X146.506 Y131.362 E.07219
G1 X145.35 Y131.632 E.05992
G1 X104.65 Y131.632 E2.05449
G1 X103.275 Y131.24 E.07217
G1 X102.313 Y130.181 E.07222
G1 X102.043 Y129.025 E.05992
G1 X102.043 Y101.375 E1.39574
G1 X102.369 Y97.561 E.19323
G1 X103.122 Y94.437 E.16221
G1 X104.483 Y91.079 E.1829
G1 X106.309 Y88.055 E.17832
M204 S1000
; printing object Right_Motor_Bracket_34,8mm_rev0 id:0 copy 0
;WIPE_START
G1 F8640
G1 X108.691 Y85.208 E-.85712
G1 X109.159 Y84.804 E-.14288
;WIPE_END
G1 Z.4 F720
G1 X143.581 Y96.723 F10800
G1 Z.2 F720
G1 E1 F1500
M204 S800
;TYPE:Perimeter
;WIDTH:0.709619
G1 F1200
G1 X143.09 Y94.907 E.10429
G1 X142.997 Y94.654 E.01494
G1 X142.663 Y93.942 E.0436
G1 X143.195 Y94.07 E.03033
G1 X143.581 Y94.07 E.0214
G1 X143.581 Y96.633 E.14208
M204 S1000
;WIPE_START
G1 F8640
G1 X143.09 Y94.907 E-.41435
G1 X142.997 Y94.654 E-.06224
G1 X142.663 Y93.942 E-.18159
G1 X143.195 Y94.07 E-.12635
G1 X143.581 Y94.07 E-.08913
G1 X143.581 Y94.617 E-.12634
;WIPE_END
G1 Z.4 F720
G1 X126.889 Y120.36 F10800
G1 Z.2 F720
G1 E1 F1500
M204 S800
;WIDTH:0.649999
G1 F1200
G1 X128.348 Y120.223 E.07397
G1 X128.608 Y120.176 E.01334
G1 X131.562 Y119.368 E.15459
G1 X131.81 Y119.276 E.01335
G1 X134.582 Y117.966 E.15477
G1 X134.81 Y117.833 E.01332
G1 X137.314 Y116.063 E.15479
G1 X137.515 Y115.892 E.01332
G1 X139.674 Y113.715 E.15477
G1 X139.843 Y113.512 E.01333
M73 Q1 S30
G1 X141.592 Y110.993 E.1548
G1 X141.723 Y110.764 E.01332
G1 X143.008 Y107.98 E.15478
M73 P1 R30
G1 X143.098 Y107.732 E.01332
G1 X143.611 Y105.792 E.10129
G1 X143.611 Y127.286 E1.08499
G1 X126.889 Y127.286 E.84411
G1 X126.889 Y120.45 E.34507
M204 S1000
;WIPE_START
G1 F8640
G1 X128.348 Y120.223 E-.34094
G1 X128.608 Y120.176 E-.06101
G1 X131.106 Y119.493 E-.59805
;WIPE_END
G1 Z.4 F720
G1 X123.211 Y120.36 F10800
G1 Z.2 F720
G1 E1 F1500
M204 S800
G1 F1200
G1 X123.211 Y127.286 E.34962
G1 X106.389 Y127.286 E.84915
G1 X106.389 Y105.413 E1.10412
G1 X107.002 Y107.732 E.12108
G1 X107.092 Y107.98 E.01332
G1 X108.377 Y110.764 E.15478
G1 X108.508 Y110.993 E.01332
G1 X110.257 Y113.512 E.1548
G1 X110.426 Y113.715 E.01333
G1 X112.585 Y115.892 E.15477
G1 X112.786 Y116.063 E.01332
G1 X114.861 Y117.53 E.12828
G1 X115.518 Y117.966 E.0398
G1 X118.29 Y119.276 E.15477
G1 X118.538 Y119.368 E.01335
G1 X121.492 Y120.176 E.15459
G1 X121.751 Y120.223 E.01329
G1 X123.121 Y120.351 E.06946
M204 S1000
G1 X123.818 Y119.807 F10800
M204 S800
G1 F1200
G1 X123.818 Y127.893 E.40817
G1 X105.782 Y127.893 E.91044
G1 X105.782 Y107.812 E1.01367
;WIDTH:0.690606
G1 X105.802 Y107.045 E.04132
;WIDTH:0.731212
G1 X105.823 Y106.279 E.04386
;WIDTH:0.771819
G1 X105.843 Y105.512 E.0465
;WIDTH:0.812425
G1 X105.863 Y104.745 E.04909
;WIDTH:0.845481
G1 X105.88 Y104.498 E.01652
G1 X105.858 Y103.477 E.06815
;WIDTH:0.802441
G1 X105.837 Y102.456 E.06449
;WIDTH:0.7594
G1 X105.815 Y101.434 E.0609
;WIDTH:0.716359
G1 X105.828 Y101.198 E.01324
;WIDTH:0.723385
G1 X106.061 Y98.356 E.16134
G1 X106.166 Y97.864 E.02846
;WIDTH:0.732644
G1 X106.769 Y95.439 E.14331
G1 X107.068 Y94.654 E.04818
;WIDTH:0.739328
G1 X107.93 Y92.644 E.12664
G1 X108.232 Y92.121 E.03497
;WIDTH:0.71291
G1 X108.508 Y91.647 E.03056
;WIDTH:0.714964
G1 X109.012 Y90.856 E.05241
;WIDTH:0.743435
G1 X109.515 Y90.065 E.0546
G1 X109.925 Y89.56 E.03789
;WIDTH:0.714534
G1 X110.302 Y89.098 E.0333
;WIDTH:0.685633
G1 X110.444 Y88.933 E.01163
;WIDTH:0.714764
G1 X110.964 Y88.35 E.04364
;WIDTH:0.744967
G1 X111.485 Y87.767 E.04564
G1 X112.087 Y87.23 E.04709
;WIDTH:0.714727
G1 X112.651 Y86.732 E.04203
;WIDTH:0.685216
G1 X112.817 Y86.592 E.0116
;WIDTH:0.714573
G1 X113.303 Y86.199 E.03491
;WIDTH:0.743929
G1 X113.834 Y85.773 E.03968
G1 X114.603 Y85.289 E.05296
;WIDTH:0.714926
G1 X115.371 Y84.806 E.0507
;WIDTH:0.688455
G1 X115.557 Y84.694 E.01165
;WIDTH:0.714385
G1 X115.99 Y84.449 E.02778
;WIDTH:0.740314
G1 X116.423 Y84.204 E.02885
G1 X118.338 Y83.394 E.12057
;WIDTH:0.695207
G1 X118.538 Y83.314 E.01168
;WIDTH:0.737358
G1 X119.226 Y83.061 E.04233
G1 X121.592 Y82.484 E.14062
;WIDTH:0.696573
G1 X121.633 Y82.475 E.00228
;WIDTH:0.725354
G1 X122.172 Y82.367 E.03119
G1 X124.915 Y82.157 E.15611
;WIDTH:0.714
G1 X125.166 Y82.143 E.01403
;WIDTH:0.717313
G1 X128.158 Y82.399 E.16839
G1 X128.511 Y82.475 E.02025
;WIDTH:0.727969
G1 X131.097 Y83.128 E.15193
G1 X131.725 Y83.371 E.03836
;WIDTH:0.736043
G1 X133.885 Y84.307 E.13567
G1 X134.735 Y84.804 E.05675
;WIDTH:0.71507
G1 X135.594 Y85.356 E.05707
;WIDTH:0.74154
G1 X136.454 Y85.909 E.05939
G1 X136.893 Y86.267 E.03291
;WIDTH:0.714433
G1 X137.288 Y86.592 E.02856
;WIDTH:0.687326
G1 X137.453 Y86.734 E.01166
;WIDTH:0.714871
G1 X138.097 Y87.313 E.04839
;WIDTH:0.74446
G1 X138.74 Y87.892 E.05047
G1 X139.219 Y88.434 E.04219
;WIDTH:0.714623
G1 X139.659 Y88.936 E.03728
;WIDTH:0.684786
G1 X139.799 Y89.102 E.01159
;WIDTH:0.714677
G1 X140.243 Y89.656 E.03966
;WIDTH:0.74481
G1 X140.719 Y90.254 E.04461
G1 X141.155 Y90.953 E.04808
;WIDTH:0.714819
G1 X141.592 Y91.652 E.04606
;WIDTH:0.686385
G1 X141.703 Y91.839 E.01164
;WIDTH:0.720731
G1 X142.036 Y92.428 E.03813
;WIDTH:0.755076
G1 X142.369 Y93.017 E.04007
;WIDTH:0.761659
G1 X142.404 Y93.078 E.0042
G1 X142.53 Y93.163 E.00908
;WIDTH:0.724439
G1 X142.656 Y93.248 E.00861
;WIDTH:0.687219
G1 X142.782 Y93.334 E.00817
;WIDTH:0.649999
G1 X143.195 Y93.433 E.02144
G1 X144.218 Y93.433 E.05164
G1 X144.218 Y94.403 E.04896
G1 X144.218 Y94.842 E.02216
;WIDTH:0.696244
G1 X144.195 Y96.375 E.08329
;WIDTH:0.742488
G1 X144.172 Y97.908 E.08918
;WIDTH:0.77352
G1 X144.156 Y98.028 E.00735
;WIDTH:0.804552
G1 X144.141 Y98.148 E.00766
G1 X144.164 Y99.17 E.06474
;WIDTH:0.758538
G1 X144.187 Y100.192 E.06083
;WIDTH:0.712524
G1 X144.21 Y101.214 E.05692
;WIDTH:0.666509
G1 X144.21 Y101.428 E.0111
;WIDTH:0.709273
G1 X144.188 Y102.45 E.05664
;WIDTH:0.752345
G1 X144.167 Y103.472 E.0603
;WIDTH:0.795417
G1 X144.145 Y104.494 E.06396
G1 X144.156 Y104.733 E.01497
;WIDTH:0.773365
G1 X144.177 Y105.755 E.06209
;WIDTH:0.732243
G1 X144.197 Y106.777 E.05859
;WIDTH:0.691121
G1 X144.218 Y107.799 E.0551
;WIDTH:0.649999
G1 X144.218 Y127.893 E1.01432
G1 X126.282 Y127.893 E.90539
G1 X126.282 Y119.807 E.40817
G1 X128.292 Y119.619 E.10191
G1 X128.447 Y119.59 E.00796
G1 X131.402 Y118.782 E.15464
G1 X131.551 Y118.727 E.00802
G1 X134.323 Y117.418 E.15474
G1 X134.46 Y117.338 E.00801
G1 X136.963 Y115.567 E.15478
G1 X137.084 Y115.465 E.00799
G1 X139.243 Y113.288 E.15477
G1 X139.344 Y113.166 E.00799
G1 X141.093 Y110.647 E.1548
G1 X141.172 Y110.51 E.00798
G1 X142.457 Y107.726 E.15478
G1 X142.511 Y107.577 E.008
;WIDTH:0.691121
G1 X142.792 Y106.594 E.0551
;WIDTH:0.732243
G1 X143.073 Y105.611 E.0586
;WIDTH:0.773365
G1 X143.354 Y104.628 E.0621
;WIDTH:0.795417
G1 X143.394 Y104.463 E.01062
G1 X143.459 Y103.442 E.06401
;WIDTH:0.752345
G1 X143.523 Y102.422 E.06029
;WIDTH:0.709273
G1 X143.588 Y101.402 E.05663
;WIDTH:0.666509
G1 X143.587 Y101.242 E.0083
;WIDTH:0.712524
G1 X143.518 Y100.222 E.05692
;WIDTH:0.758538
G1 X143.45 Y99.202 E.06083
;WIDTH:0.804552
G1 X143.381 Y98.182 E.06474
G1 X143.35 Y98.101 E.00549
;WIDTH:0.77352
G1 X143.32 Y98.021 E.00519
;WIDTH:0.742488
G1 X142.898 Y96.547 E.08919
;WIDTH:0.696244
G1 X142.475 Y95.073 E.08331
;WIDTH:0.649999
G1 X142.02 Y94.071 E.05555
;WIDTH:0.685025
G1 X141.927 Y93.831 E.01374
;WIDTH:0.720051
G1 X141.834 Y93.591 E.01449
;WIDTH:0.755076
G1 X141.741 Y93.352 E.01519
G1 X141.438 Y92.746 E.04012
;WIDTH:0.720731
G1 X141.135 Y92.14 E.03819
;WIDTH:0.686385
G1 X141.054 Y92.001 E.00861
;WIDTH:0.714819
G1 X140.592 Y91.319 E.04602
;WIDTH:0.74481
G1 X140.131 Y90.636 E.04809
G1 X139.711 Y90.065 E.04137
;WIDTH:0.714677
G1 X139.29 Y89.493 E.03967
;WIDTH:0.684786
G1 X139.187 Y89.369 E.0086
;WIDTH:0.714623
G1 X138.724 Y88.887 E.03733
;WIDTH:0.74446
G1 X138.262 Y88.405 E.03895
G1 X137.639 Y87.805 E.05046
;WIDTH:0.714871
G1 X137.016 Y87.204 E.04837
;WIDTH:0.687326
G1 X136.892 Y87.099 E.00871
;WIDTH:0.714433
G1 X136.481 Y86.795 E.02854
;WIDTH:0.74154
G1 X136.069 Y86.491 E.02974
G1 X135.224 Y85.917 E.05934
;WIDTH:0.71507
G1 X134.379 Y85.343 E.05709
;WIDTH:0.69246
G1 X134.24 Y85.26 E.00874
;WIDTH:0.736043
G1 X133.604 Y84.941 E.04101
G1 X131.46 Y83.966 E.13574
;WIDTH:0.694491
G1 X131.43 Y83.953 E.00177
;WIDTH:0.727969
G1 X130.926 Y83.791 E.03016
G1 X128.347 Y83.114 E.15188
;WIDTH:0.717313
G1 X128.1 Y83.071 E.01406
G1 X125.135 Y82.814 E.16689
;WIDTH:0.714
G1 X124.968 Y82.818 E.00932
;WIDTH:0.725354
G1 X122.227 Y83.047 E.15608
G1 X121.752 Y83.118 E.02725
;WIDTH:0.737358
G1 X119.396 Y83.734 E.14062
G1 X118.597 Y83.988 E.04841
;WIDTH:0.740314
G1 X116.702 Y84.843 E.12056
G1 X116.212 Y85.093 E.0319
;WIDTH:0.713119
G1 X115.722 Y85.344 E.03068
;WIDTH:0.714926
G1 X114.969 Y85.852 E.05076
;WIDTH:0.743929
G1 X114.217 Y86.36 E.0529
G1 X113.713 Y86.73 E.03644
;WIDTH:0.714573
G1 X113.208 Y87.1 E.03496
;WIDTH:0.685216
G1 X113.085 Y87.204 E.0086
;WIDTH:0.714727
G1 X112.542 Y87.724 E.042
;WIDTH:0.744967
G1 X111.999 Y88.244 E.04389
G1 X111.456 Y88.807 E.04566
;WIDTH:0.714764
G1 X110.913 Y89.369 E.04366
;WIDTH:0.685633
M73 Q2 S30
G1 X110.809 Y89.492 E.00861
;WIDTH:0.714534
M73 P2 R30
G1 X110.455 Y89.971 E.03326
;WIDTH:0.743435
G1 X110.1 Y90.45 E.03473
G1 X109.573 Y91.226 E.05464
;WIDTH:0.714964
G1 X109.046 Y92.001 E.05237
;WIDTH:0.68937
G1 X108.963 Y92.14 E.0087
;WIDTH:0.739328
G1 X108.567 Y92.926 E.05096
G1 X107.661 Y94.916 E.12661
;WIDTH:0.695699
G1 X107.603 Y95.067 E.00878
;WIDTH:0.732644
G1 X107.437 Y95.61 E.03256
G1 X106.801 Y98.027 E.14334
;WIDTH:0.723385
G1 X106.737 Y98.44 E.02365
G1 X106.492 Y101.24 E.15903
;WIDTH:0.716359
G1 X106.487 Y101.406 E.0093
;WIDTH:0.7594
G1 X106.552 Y102.426 E.06089
;WIDTH:0.802441
G1 X106.616 Y103.445 E.06448
;WIDTH:0.845481
G1 X106.681 Y104.465 E.06821
G1 X106.727 Y104.633 E.01162
;WIDTH:0.812425
G1 X106.942 Y105.369 E.04906
;WIDTH:0.771819
G1 X107.158 Y106.105 E.04649
;WIDTH:0.731212
G1 X107.373 Y106.841 E.04388
;WIDTH:0.690606
G1 X107.589 Y107.577 E.04131
;WIDTH:0.649999
G1 X107.643 Y107.726 E.008
G1 X108.928 Y110.51 E.15478
G1 X109.007 Y110.647 E.00798
G1 X110.756 Y113.166 E.1548
G1 X110.857 Y113.288 E.00799
G1 X113.016 Y115.465 E.15477
G1 X113.137 Y115.567 E.00799
G1 X115.777 Y117.418 E.16276
G1 X118.549 Y118.727 E.15474
G1 X118.698 Y118.782 E.00802
G1 X121.653 Y119.59 E.15464
G1 X121.808 Y119.619 E.00796
G1 X123.728 Y119.798 E.09734
M204 S1000
G1 X124.425 Y119.254 F10800
M204 S800
;TYPE:External perimeter
G1 F1200
G1 X124.425 Y128.5 E.46673
G1 X105.175 Y128.5 E.97172
G1 X105.175 Y101.396 E1.36818
G1 X105.423 Y98.254 E.1591
G1 X106.157 Y95.211 E.15801
G1 X107.359 Y92.321 E.158
G1 X109 Y89.655 E.15803
G1 X111.04 Y87.28 E.15804
G1 X113.427 Y85.255 E.15801
G1 X116.103 Y83.63 E.15804
G1 X119 Y82.445 E.158
G1 X122.048 Y81.73 E.15804
G1 X125.17 Y81.502 E.15801
G1 X128.289 Y81.768 E.15801
G1 X131.328 Y82.519 E.15802
G1 X134.211 Y83.739 E.15802
G1 X136.867 Y85.397 E.15805
G1 X139.229 Y87.45 E.15797
G1 X141.24 Y89.85 E.15806
G1 X142.935 Y92.678 E.16643
G1 X143.057 Y92.793 E.00846
G1 X143.195 Y92.826 E.00716
G1 X144.825 Y92.826 E.08228
G1 X144.825 Y128.5 E1.80078
G1 X125.675 Y128.5 E.96667
G1 X125.675 Y119.254 E.46673
G1 X128.287 Y119.005 E.13245
G1 X131.242 Y118.196 E.15465
G1 X134.064 Y116.869 E.15741
G1 X136.613 Y115.072 E.15743
G1 X138.812 Y112.86 E.15745
G1 X140.594 Y110.301 E.15741
G1 X141.906 Y107.471 E.15746
G1 X142.717 Y104.405 E.16009
G1 X142.975 Y101.297 E.15743
G1 X142.69 Y98.191 E.15745
G1 X141.871 Y95.182 E.15742
G1 X140.543 Y92.36 E.15744
G1 X138.746 Y89.811 E.15743
G1 X136.534 Y87.612 E.15745
G1 X133.975 Y85.83 E.15741
G1 X131.145 Y84.519 E.15744
G1 X128.183 Y83.726 E.15478
G1 X125.079 Y83.451 E.1573
G1 X121.916 Y83.727 E.16027
G1 X118.862 Y84.557 E.15975
G1 X116.08 Y85.857 E.15501
G1 X113.526 Y87.646 E.15741
G1 X111.32 Y89.852 E.15748
G1 X109.531 Y92.406 E.15741
G1 X108.229 Y95.182 E.15478
G1 X107.41 Y98.191 E.15742
G1 X107.125 Y101.297 E.15745
G1 X107.392 Y104.457 E.16008
G1 X108.194 Y107.471 E.15744
G1 X109.506 Y110.301 E.15746
G1 X111.288 Y112.86 E.15741
G1 X113.487 Y115.072 E.15745
G1 X116.036 Y116.869 E.15743
G1 X118.858 Y118.196 E.15741
G1 X121.813 Y119.005 E.15465
G1 X124.335 Y119.245 E.12788
M204 S1000
G1 X124.093 Y119.754 F10800
;WIPE_START
G1 F8640
G1 X124.377 Y123.576 E-1
;WIPE_END
G1 Z.4 F720
G1 X122.968 Y121.845 F10800
G1 Z.2 F720
G1 E1 F1500
M204 S800
;TYPE:Solid infill
;WIDTH:0.666182
G1 F1200
G1 X121.876 Y120.753 E.08003
G1 X121.365 Y120.676 E.02678
G1 X120.749 Y120.508 E.03309
G1 X122.695 Y122.453 E.14259
G1 X122.695 Y123.335 E.04571
G1 X119.536 Y120.176 E.23153
G1 X118.312 Y119.833 E.06588
G1 X122.695 Y124.216 E.32123
G1 X122.695 Y125.098 E.04571
G1 X116.114 Y118.517 E.48233
M204 S1000
;WIPE_START
G1 F8640
G1 X119.176 Y121.579 E-1
;WIPE_END
G1 Z.4 F720
G1 X107.894 Y110.296 F10800
G1 Z.2 F720
M73 P3 R30
M73 Q3 S30
G1 E1 F1500
M204 S800
G1 F1200
G1 X106.905 Y109.308 E.07245
G1 X106.905 Y110.189 E.04566
G1 X108.268 Y111.552 E.0999
G1 X109.838 Y113.814 E.1427
G1 X110.053 Y114.072 E.0174
G1 X112.225 Y116.262 E.15985
G1 X112.481 Y116.479 E.01739
G1 X114.919 Y118.203 E.15475
G1 X122.695 Y125.979 E.56991
G1 X122.695 Y126.77 E.04099
G1 X122.604 Y126.77 E.00472
G1 X106.905 Y111.071 E1.15059
G1 X106.905 Y111.952 E.04566
M73 P3 R29
G1 X121.723 Y126.77 E1.08602
G1 X120.842 Y126.77 E.04566
G1 X106.905 Y112.834 E1.02142
G1 X106.905 Y113.715 E.04566
G1 X119.96 Y126.77 E.95681
G1 X119.079 Y126.77 E.04566
G1 X106.905 Y114.596 E.89224
G1 X106.905 Y115.478 E.04571
G1 X118.197 Y126.77 E.8276
G1 X117.316 Y126.77 E.04566
G1 X106.905 Y116.359 E.76303
G1 X106.905 Y117.241 E.04571
G1 X116.434 Y126.77 E.69839
G1 X115.553 Y126.77 E.04566
G1 X106.905 Y118.122 E.63382
G1 X106.905 Y119.004 E.04571
G1 X114.672 Y126.77 E.56921
G1 X113.79 Y126.77 E.04571
G1 X106.905 Y119.885 E.50461
G1 X106.905 Y120.766 E.04566
G1 X112.909 Y126.77 E.44004
G1 X112.027 Y126.77 E.04571
G1 X106.905 Y121.648 E.3754
G1 X106.905 Y122.529 E.04566
G1 X111.146 Y126.77 E.31083
G1 X110.264 Y126.77 E.04571
G1 X106.905 Y123.411 E.24618
G1 X106.905 Y124.292 E.04566
G1 X109.383 Y126.77 E.18161
G1 X108.502 Y126.77 E.04566
G1 X106.905 Y125.174 E.11701
G1 X106.905 Y126.055 E.04566
G1 X107.893 Y127.043 E.07241
M204 S1000
;WIPE_START
G1 F8640
