; generated by PrusaSlicer 2.6.0+win64 on 2023-08-02 at 09:32:16 UTC


;
;
; 

; external perimeters extrusion width = 0.45mm
; perimeters extrusion width = 0.45mm
; infill extrusion width = 0.45mm
; solid infill extrusion width = 0.45mm
; top infill extrusion width = 0.40mm
; support material extrusion width = 0.35mm
; first layer extrusion width = 0.42mm

M73 P0 R68
M73 Q0 S69
M201 X1000 Y1000 Z200 E5000 ; sets maximum accelerations, mm/sec^2
M203 X200 Y200 Z12 E120 ; sets maximum feedrates, mm / sec
M204 S1250 T1250 ; sets acceleration (S) and retract acceleration (R), mm/sec^2
M205 X8.00 Y8.00 Z0.40 E4.50 ; sets the jerk limits, mm/sec
M205 S0 T0 ; sets the minimum extruding and travel feed rate, mm/sec
;TYPE:Custom
M862.3 P "MK3S" ; printer model check
M862.1 P0.4 ; nozzle diameter check
M115 U3.12.2 ; tell printer latest fw version
G90 ; use absolute coordinates
M83 ; extruder relative mode
M104 S240 ; set extruder temp
M140 S85 ; set bed temp
M190 S85 ; wait for bed temp
M109 S240 ; wait for extruder temp
G28 W ; home all without mesh bed level
G80 ; mesh bed leveling

G1 Z0.2 F720
G1 Y-3 F1000 ; go outside print area
G92 E0
G1 X60 E9 F1000 ; intro line
G1 X100 E12.5 F1000 ; intro line

G92 E0
M221 S95

; Don't change E values below. Excessive value can damage the printer.

M907 E538 ; set extruder motor current
G21 ; set units to millimeters
G90 ; use absolute coordinates
M83 ; use relative distances for extrusion
M900 K0.08 ; Filament gcode LA 1.5
M900 K45 ; Filament gcode LA 1.0
M107
;LAYER_CHANGE
;Z:0.2
;HEIGHT:0.2
;BEFORE_LAYER_CHANGE
G92 E0.0
;0.2


G1 E-1 F2100
G1 Z.2 F720
;AFTER_LAYER_CHANGE
;0.2
G1 Z.4
G1 X113.009 Y68.694 F10800
G1 Z.2 F720
G1 E1 F2100
M204 S800
;TYPE:Skirt/Brim
;WIDTH:0.42
G1 F1200
G1 X113.944 Y67.7 E.04279
G1 X114.61 Y67.439 E.02243
G1 X123.647 Y65.396 E.2905
G1 X125.039 Y65.192 E.04411
G1 X126.454 Y65.225 E.04438
G1 X127.839 Y65.498 E.04426
G1 X129.154 Y65.998 E.04411
G1 X136.064 Y70.012 E.25056
G1 X136.995 Y71.01 E.04279
G1 X137.225 Y71.781 E.02523
G1 X144.163 Y129.742 E1.8303
G1 X144.163 Y147.164 E.54625
G1 X143.771 Y148.471 E.04278
G1 X142.726 Y149.347 E.04275
G1 X141.786 Y149.541 E.03009
G1 X131.285 Y149.541 E.32925
G1 X130.533 Y149.419 E.02389
G1 X123.301 Y146.983 E.23927
G1 X118.686 Y144.676 E.16177
G1 X118.069 Y144.231 E.02385
G1 X108.84 Y135.002 E.40923
G1 X108.395 Y134.384 E.02388
G1 X106.088 Y129.77 E.16174
G1 X105.908 Y129.284 E.01625
G1 X103.601 Y120.055 E.29827
G1 X103.53 Y119.479 E.0182
G1 X103.53 Y102.057 E.54625
G1 X103.601 Y101.48 E.01823
G1 X110.522 Y73.795 E.89476
G1 X110.702 Y73.309 E.01625
G1 X112.982 Y68.748 E.15988
M204 S1000
; printing object Right_Gripper_rev0-1 id:0 copy 0
;WIPE_START
G1 F8640
M73 Q0 S68
G1 X113.944 Y67.7 E-.32848
G1 X114.61 Y67.439 E-.16517
G1 X116.749 Y66.955 E-.50635
;WIPE_END
G1 Z.4 F720
G1 X119.816 Y70.584 F10800
G1 Z.2 F720
G1 E1 F2100
M204 S800
;TYPE:Support material
G1 F1200
G1 X119.386 Y71.667 E.03654
G1 X119.169 Y72.686 E.03267
G1 X119.123 Y73.749 E.03336
G1 X119.267 Y74.871 E.03547
G1 X119.574 Y75.875 E.03292
G1 X120.062 Y76.851 E.03421
G1 X120.708 Y77.73 E.0342
G1 X121.524 Y78.512 E.03544
G1 X122.394 Y79.1 E.03292
G1 X123.387 Y79.553 E.03422
G1 X124.481 Y79.838 E.03545
G1 X125.568 Y79.927 E.0342
G1 X126.655 Y79.831 E.03421
G1 X127.671 Y79.566 E.03292
G1 X128.666 Y79.12 E.03419
G1 X129.572 Y78.512 E.03421
G1 X130.361 Y77.76 E.03418
G1 X131.013 Y76.885 E.03421
G1 X131.525 Y75.867 E.03573
G1 X131.838 Y74.832 E.0339
G1 X131.971 Y73.79 E.03294
G1 X131.928 Y72.7 E.0342
G1 X131.795 Y72.065 E.02034
G1 X134.865 Y72.065 E.09626
G1 X134.865 Y82.566 E.32925
G1 X132.558 Y82.566 E.07233
M73 P0 R67
G1 X132.558 Y89.487 E.217
G1 X130.251 Y89.487 E.07233
G1 X130.251 Y94.101 E.14467
G1 X127.943 Y94.101 E.07237
G1 X127.943 Y98.715 E.14467
G1 X125.636 Y98.715 E.07233
G1 X125.636 Y105.636 E.217
G1 X123.329 Y105.636 E.07233
G1 X123.329 Y115.899 E.32179
G1 X125.636 Y115.899 E.07233
G1 X125.636 Y120.513 E.14467
G1 X127.943 Y120.513 E.07233
G1 X127.943 Y122.82 E.07233
G1 X130.251 Y122.82 E.07237
G1 X130.251 Y125.127 E.07233
G1 X132.558 Y125.127 E.07233
G1 X132.558 Y127.434 E.07233
G1 X134.865 Y127.434 E.07233
G1 X134.865 Y129.742 E.07237
G1 X141.786 Y129.742 E.217
G1 X141.786 Y147.164 E.54625
G1 X131.285 Y147.164 E.32925
G1 X131.285 Y144.857 E.07233
G1 X124.364 Y144.857 E.217
G1 X124.364 Y142.55 E.07233
G1 X119.749 Y142.55 E.1447
G1 X119.749 Y140.243 E.07233
G1 X117.442 Y140.243 E.07233
G1 X117.442 Y137.935 E.07237
G1 X115.135 Y137.935 E.07233
G1 X115.135 Y135.628 E.07233
G1 X112.828 Y135.628 E.07233
G1 X112.828 Y133.321 E.07233
G1 X110.521 Y133.321 E.07233
G1 X110.521 Y128.707 E.14467
G1 X108.214 Y128.707 E.07233
G1 X108.214 Y119.479 E.28934
G1 X105.907 Y119.479 E.07233
G1 X105.907 Y102.057 E.54625
G1 X108.214 Y102.057 E.07233
G1 X108.214 Y92.828 E.28937
G1 X110.521 Y92.828 E.07233
G1 X110.521 Y83.6 E.28934
G1 X112.828 Y83.6 E.07233
G1 X112.828 Y74.372 E.28934
G1 X115.135 Y74.372 E.07233
G1 X115.135 Y69.757 E.1447
G1 X120.324 Y69.757 E.1627
G1 X119.845 Y70.536 E.02867
M204 S1000
;WIPE_START
G1 F8640
G1 X120.324 Y69.757 E-.21116
G1 X116.908 Y69.757 E-.78884
;WIPE_END
G1 Z.4 F720
G1 X141.34 Y146.994 F10800
G1 Z.2 F720
G1 E1 F2100
M204 S800
G1 F1200
G1 X141.34 Y130.081 E.5303
G1 X140.921 Y130.081 E.01314
G1 X140.921 Y146.824 E.52497
G1 X140.502 Y146.824 E.01314
G1 X140.502 Y130.081 E.52497
G1 X140.083 Y130.081 E.01314
G1 X140.083 Y146.824 E.52497
G1 X139.664 Y146.824 E.01314
G1 X139.664 Y130.081 E.52497
G1 X139.245 Y130.081 E.01314
G1 X139.245 Y146.824 E.52497
G1 X138.826 Y146.824 E.01314
G1 X138.826 Y130.081 E.52497
G1 X138.407 Y130.081 E.01314
G1 X138.407 Y146.824 E.52497
G1 X137.988 Y146.824 E.01314
G1 X137.988 Y130.081 E.52497
G1 X137.569 Y130.081 E.01314
G1 X137.569 Y146.824 E.52497
G1 X137.15 Y146.824 E.01314
M73 P1 R67
M73 Q1 S68
G1 X137.15 Y130.081 E.52497
G1 X136.731 Y130.081 E.01314
G1 X136.731 Y146.824 E.52497
G1 X136.312 Y146.824 E.01314
G1 X136.312 Y130.081 E.52497
G1 X135.893 Y130.081 E.01314
G1 X135.893 Y146.824 E.52497
G1 X135.474 Y146.824 E.01314
G1 X135.474 Y130.081 E.52497
G1 X135.055 Y130.081 E.01314
G1 X135.055 Y146.824 E.52497
G1 X134.636 Y146.824 E.01314
G1 X134.636 Y130.081 E.52497
G1 X134.525 Y130.081 E.00348
G1 X134.525 Y127.774 E.07233
G1 X134.217 Y127.774 E.00966
G1 X134.217 Y146.824 E.5973
G1 X133.799 Y146.824 E.01311
G1 X133.799 Y127.774 E.5973
G1 X133.38 Y127.774 E.01314
G1 X133.38 Y146.824 E.5973
G1 X132.961 Y146.824 E.01314
G1 X132.961 Y127.774 E.5973
G1 X132.542 Y127.774 E.01314
G1 X132.542 Y146.824 E.5973
G1 X132.123 Y146.824 E.01314
G1 X132.123 Y125.467 E.66963
G1 X131.704 Y125.467 E.01314
G1 X131.704 Y146.824 E.66963
G1 X131.624 Y146.824 E.00251
G1 X131.624 Y144.517 E.07233
G1 X131.285 Y144.517 E.01063
G1 X131.285 Y125.467 E.5973
G1 X130.866 Y125.467 E.01314
G1 X130.866 Y144.517 E.5973
G1 X130.447 Y144.517 E.01314
G1 X130.447 Y125.467 E.5973
G1 X130.028 Y125.467 E.01314
G1 X130.028 Y144.517 E.5973
G1 X129.609 Y144.517 E.01314
G1 X129.609 Y123.16 E.66963
G1 X129.19 Y123.16 E.01314
G1 X129.19 Y144.517 E.66963
G1 X128.771 Y144.517 E.01314
G1 X128.771 Y123.16 E.66963
G1 X128.352 Y123.16 E.01314
G1 X128.352 Y144.517 E.66963
G1 X127.933 Y144.517 E.01314
G1 X127.933 Y123.16 E.66963
G1 X127.604 Y123.16 E.01032
G1 X127.604 Y120.853 E.07233
G1 X127.514 Y120.853 E.00282
G1 X127.514 Y144.517 E.74197
G1 X127.095 Y144.517 E.01314
G1 X127.095 Y120.853 E.74197
G1 X126.676 Y120.853 E.01314
G1 X126.676 Y144.517 E.74197
G1 X126.257 Y144.517 E.01314
G1 X126.257 Y120.853 E.74197
G1 X125.838 Y120.853 E.01314
G1 X125.838 Y144.517 E.74197
G1 X125.419 Y144.517 E.01314
G1 X125.419 Y120.853 E.74197
G1 X125.297 Y120.853 E.00383
G1 X125.297 Y116.238 E.1447
G1 X125 Y116.238 E.00931
G1 X125 Y144.517 E.88667
G1 X124.703 Y144.517 E.00931
G1 X124.703 Y142.21 E.07233
G1 X124.581 Y142.21 E.00383
G1 X124.581 Y116.238 E.81433
G1 X124.162 Y116.238 E.01314
G1 X124.162 Y142.21 E.81433
G1 X123.743 Y142.21 E.01314
G1 X123.743 Y116.238 E.81433
G1 X123.324 Y116.238 E.01314
M73 Q1 S67
G1 X123.324 Y142.21 E.81433
G1 X122.905 Y142.21 E.01314
G1 X122.905 Y79.708 E1.95971
G1 X123.324 Y79.891 E.01434
M73 P2 R66
G1 X123.324 Y105.297 E.79659
G1 X123.743 Y105.297 E.01314
M73 Q2 S67
G1 X123.743 Y80 E.79317
G1 X124.162 Y80.109 E.01357
G1 X124.162 Y105.297 E.78975
G1 X124.581 Y105.297 E.01314
G1 X124.581 Y80.187 E.78731
G1 X125 Y80.223 E.01319
G1 X125 Y105.297 E.78618
G1 X125.297 Y105.297 E.00931
G1 X125.297 Y98.376 E.217
G1 X125.419 Y98.376 E.00383
G1 X125.419 Y80.258 E.56808
G1 X125.583 Y80.266 E.00515
G1 X125.838 Y80.244 E.00803
G1 X125.838 Y98.376 E.56852
G1 X126.257 Y98.376 E.01314
G1 X126.257 Y80.209 E.56961
G1 X126.676 Y80.172 E.01319
G1 X126.676 Y98.376 E.57077
G1 X127.095 Y98.376 E.01314
G1 X127.095 Y80.067 E.57407
G1 X127.514 Y79.958 E.01357
G1 X127.514 Y98.376 E.57748
G1 X127.604 Y98.376 E.00282
G1 X127.604 Y93.762 E.14467
G1 X127.933 Y93.762 E.01032
G1 X127.933 Y79.824 E.43702
G1 X128.352 Y79.635 E.01441
G1 X128.352 Y93.762 E.44294
G1 X128.771 Y93.762 E.01314
G1 X128.771 Y79.445 E.4489
G1 X129.19 Y79.18 E.01554
G1 X129.19 Y93.762 E.45721
G1 X129.609 Y93.762 E.01314
G1 X129.609 Y78.897 E.46608
G1 X129.828 Y78.742 E.00841
G1 X130.028 Y78.55 E.00869
G1 X130.028 Y89.147 E.33226
G1 X130.447 Y89.147 E.01314
G1 X130.447 Y78.149 E.34483
G1 X130.653 Y77.943 E.00913
G1 X130.866 Y77.655 E.01123
G1 X130.866 Y89.147 E.36032
G1 X131.285 Y89.147 E.01314
G1 X131.285 Y77.088 E.3781
G1 X131.704 Y76.276 E.02865
G1 X131.704 Y89.147 E.40356
G1 X132.123 Y89.147 E.01314
G1 X132.123 Y75.073 E.44128
G1 X132.173 Y74.889 E.00598
G1 X132.313 Y73.749 E.03601
G1 X132.267 Y72.671 E.03383
G1 X132.215 Y72.404 E.00853
G1 X132.542 Y72.404 E.01025
G1 X132.542 Y82.226 E.30796
G1 X132.961 Y82.226 E.01314
G1 X132.961 Y72.404 E.30796
G1 X133.38 Y72.404 E.01314
G1 X133.38 Y82.226 E.30796
G1 X133.799 Y82.226 E.01314
G1 X133.799 Y72.404 E.30796
G1 X134.217 Y72.404 E.01311
G1 X134.217 Y82.396 E.31329
M204 S1000
;WIPE_START
G1 F8640
G1 X134.217 Y78.065 E-1
;WIPE_END
G1 Z.4 F720
G1 X122.486 Y142.38 F10800
G1 Z.2 F720
G1 E1 F2100
M204 S800
G1 F1200
G1 X122.486 Y79.518 E1.97099
G1 X122.277 Y79.424 E.00719
G1 X122.067 Y79.289 E.00783
G1 X122.067 Y142.21 E1.97284
G1 X121.648 Y142.21 E.01314
G1 X121.648 Y79.006 E1.98172
G1 X121.229 Y78.704 E.01619
G1 X121.229 Y142.21 E1.99119
G1 X120.81 Y142.21 E.01314
G1 X120.81 Y78.303 E2.00376
G1 X120.489 Y77.995 E.01395
G1 X120.391 Y77.873 E.00491
G1 X120.391 Y142.21 E2.01724
G1 X120.089 Y142.21 E.00947
M73 P3 R66
M73 Q3 S67
G1 X120.089 Y139.903 E.07233
G1 X119.972 Y139.903 E.00367
G1 X119.972 Y77.306 E1.96268
G1 X119.765 Y77.016 E.01117
G1 X119.553 Y76.596 E.01475
G1 X119.553 Y139.903 E1.98495
G1 X119.134 Y139.903 E.01314
G1 X119.134 Y75.599 E2.01621
G1 X118.923 Y74.889 E.02322
G1 X118.783 Y73.749 E.03601
G1 X118.837 Y72.611 E.03572
G1 X119.065 Y71.548 E.03409
G1 X119.134 Y71.36 E.00628
G1 X119.134 Y70.097 E.0396
G1 X119.553 Y70.097 E.01314
G1 X119.553 Y70.772 E.02116
M204 S1000
;WIPE_START
G1 F8640
G1 X119.553 Y70.097 E-.15586
G1 X119.134 Y70.097 E-.09675
G1 X119.134 Y71.36 E-.29163
G1 X119.065 Y71.548 E-.04624
G1 X118.837 Y72.611 E-.25103
G1 X118.804 Y73.297 E-.15849
;WIPE_END
G1 Z.4 F720
G1 X118.715 Y140.073 F10800
G1 Z.2 F720
G1 E1 F2100
M204 S800
G1 F1200
G1 X118.715 Y70.097 E2.19405
G1 X118.296 Y70.097 E.01314
M73 P3 R65
M73 Q3 S66
G1 X118.296 Y139.903 E2.18872
G1 X117.877 Y139.903 E.01314
G1 X117.877 Y70.097 E2.18872
G1 X117.458 Y70.097 E.01314
G1 X117.458 Y137.596 E2.11638
G1 X117.039 Y137.596 E.01314
G1 X117.039 Y70.097 E2.11638
G1 X116.62 Y70.097 E.01314
G1 X116.62 Y137.596 E2.11638
G1 X116.201 Y137.596 E.01314
G1 X116.201 Y70.097 E2.11638
G1 X115.783 Y70.097 E.01311
G1 X115.783 Y137.596 E2.11638
G1 X115.475 Y137.596 E.00966
M73 P4 R65
G1 X115.475 Y135.289 E.07233
G1 X115.364 Y135.289 E.00348
G1 X115.364 Y74.711 E1.89938
G1 X114.945 Y74.711 E.01314
M73 Q4 S66
G1 X114.945 Y135.289 E1.89938
G1 X114.526 Y135.289 E.01314
G1 X114.526 Y74.711 E1.89938
G1 X114.107 Y74.711 E.01314
G1 X114.107 Y135.289 E1.89938
G1 X113.688 Y135.289 E.01314
G1 X113.688 Y74.711 E1.89938
G1 X113.269 Y74.711 E.01314
G1 X113.269 Y135.289 E1.89938
G1 X113.168 Y135.289 E.00317
G1 X113.168 Y132.982 E.07233
G1 X112.85 Y132.982 E.00997
G1 X112.85 Y83.939 E1.53771
G1 X112.431 Y83.939 E.01314
G1 X112.431 Y132.982 E1.53771
G1 X112.012 Y132.982 E.01314
G1 X112.012 Y83.939 E1.53771
G1 X111.593 Y83.939 E.01314
G1 X111.593 Y132.982 E1.53771
G1 X111.174 Y132.982 E.01314
G1 X111.174 Y83.939 E1.53771
G1 X110.861 Y83.939 E.00981
G1 X110.861 Y93.168 E.28937
G1 X110.755 Y93.168 E.00332
G1 X110.755 Y128.368 E1.10367
G1 X110.336 Y128.368 E.01314
M73 Q4 S65
G1 X110.336 Y93.168 E1.10367
G1 X109.917 Y93.168 E.01314
G1 X109.917 Y128.368 E1.10367
G1 X109.498 Y128.368 E.01314
M73 P4 R64
G1 X109.498 Y93.168 E1.10367
G1 X109.079 Y93.168 E.01314
G1 X109.079 Y128.368 E1.10367
G1 X108.66 Y128.368 E.01314
G1 X108.66 Y93.168 E1.10367
G1 X108.553 Y93.168 E.00335
M73 P5 R64
G1 X108.553 Y102.396 E.28934
G1 X108.241 Y102.396 E.00978
M73 Q5 S65
G1 X108.241 Y119.139 E.52497
G1 X107.822 Y119.139 E.01314
G1 X107.822 Y102.396 E.52497
G1 X107.403 Y102.396 E.01314
G1 X107.403 Y119.139 E.52497
G1 X106.984 Y119.139 E.01314
G1 X106.984 Y102.396 E.52497
G1 X106.565 Y102.396 E.01314
G1 X106.565 Y119.309 E.5303
M204 S1000
;WIPE_START
G1 F8640
G1 X106.565 Y114.978 E-1
;WIPE_END
G1 Z.4 F720
G1 X126.176 Y69.832 F10800
G1 Z.2 F720
G1 E1 F2100
M204 S800
G1 F1200
G1 X126.787 Y69.991 E.0198
G1 X127.361 Y70.251 E.01976
G1 X127.884 Y70.604 E.01978
G1 X128.339 Y71.04 E.01976
G1 X128.714 Y71.547 E.01977
G1 X128.998 Y72.11 E.01977
G1 X129.183 Y72.713 E.01978
G1 X129.263 Y73.339 E.01979
G1 X129.236 Y73.969 E.01977
G1 X129.103 Y74.586 E.01979
G1 X128.868 Y75.171 E.01977
G1 X128.537 Y75.708 E.01978
G1 X128.121 Y76.181 E.01975
G1 X127.63 Y76.577 E.01978
G1 X127.08 Y76.885 E.01976
G1 X126.485 Y77.095 E.01978
G1 X125.853 Y77.203 E.0201
G1 X125.548 Y77.216 E.00957
G1 X125.243 Y77.203 E.00957
G1 X124.611 Y77.095 E.0201
G1 X124.016 Y76.885 E.01978
G1 X123.466 Y76.577 E.01976
G1 X122.975 Y76.181 E.01978
G1 X122.558 Y75.708 E.01977
G1 X122.228 Y75.171 E.01976
G1 X121.993 Y74.586 E.01977
G1 X121.86 Y73.969 E.01979
G1 X121.833 Y73.339 E.01977
G1 X121.913 Y72.713 E.01979
G1 X122.098 Y72.11 E.01978
G1 X122.382 Y71.547 E.01977
G1 X122.757 Y71.04 E.01977
G1 X123.212 Y70.604 E.01976
G1 X123.735 Y70.251 E.01978
G1 X124.309 Y69.991 E.01976
G1 X124.92 Y69.832 E.0198
G1 X125.548 Y69.779 E.01976
G1 X126.12 Y69.827 E.018
M204 S1000
G1 X128.771 Y74.958 F10800
M204 S800
G1 F1200
G1 X128.771 Y72.527 E.07622
G1 X128.682 Y72.237 E.00951
G1 X128.424 Y71.726 E.01795
G1 X128.352 Y71.628 E.00381
G1 X128.352 Y75.362 E.11708
G1 X128.264 Y75.505 E.00526
G1 X127.933 Y75.881 E.01571
G1 X127.933 Y71.121 E.14925
G1 X127.67 Y70.869 E.01142
G1 X127.514 Y70.763 E.00591
G1 X127.514 Y76.235 E.17157
G1 X127.439 Y76.295 E.00301
G1 X127.095 Y76.488 E.01237
G1 X127.095 Y70.503 E.18766
G1 X126.676 Y70.313 E.01443
G1 X126.676 Y76.668 E.19926
G1 X126.399 Y76.766 E.00921
G1 X126.257 Y76.79 E.00452
G1 X126.257 Y70.204 E.2065
G1 X126.119 Y70.168 E.00447
G1 X125.838 Y70.144 E.00884
G1 X125.838 Y76.862 E.21064
G1 X125.419 Y76.871 E.01314
G1 X125.419 Y70.13 E.21136
G1 X125 Y70.166 E.01319
G1 X125 Y76.817 E.20854
G1 X124.697 Y76.766 E.00963
G1 X124.581 Y76.725 E.00386
G1 X124.581 Y70.271 E.20236
G1 X124.423 Y70.312 E.00512
G1 X124.162 Y70.43 E.00898
G1 X124.162 Y76.577 E.19273
G1 X123.743 Y76.344 E.01503
G1 X123.743 Y70.655 E.17837
G1 X123.426 Y70.869 E.01199
G1 X123.324 Y70.967 E.00444
G1 X123.324 Y76.027 E.15865
G1 X123.211 Y75.935 E.00457
G1 X122.905 Y75.588 E.01451
G1 X122.905 Y71.41 E.131
G1 X122.672 Y71.726 E.01231
G1 X122.486 Y72.094 E.01293
G1 X122.486 Y75.267 E.09949
M204 S1000
;WIPE_START
G1 F8640
G1 X122.486 Y72.094 E-.73265
G1 X122.672 Y71.726 E-.09521
G1 X122.905 Y71.41 E-.09066
G1 X122.905 Y71.763 E-.08148
;WIPE_END
G1 Z.4 F720
G1 X122.069 Y77.806 F10800
G1 Z.2 F720
G1 E1 F2100
M204 S800
;TYPE:External perimeter
;WIDTH:0.419999
G1 F1200
G1 X121.39 Y77.156 E.02947
