; generated by PrusaSlicer 2.6.1+win64 on 2023-09-12 at 08:51:55 UTC


;
;
; 

; external perimeters extrusion width = 0.65mm
; perimeters extrusion width = 0.65mm
; infill extrusion width = 0.65mm
; solid infill extrusion width = 0.65mm
; top infill extrusion width = 0.60mm
; first layer extrusion width = 0.65mm

M73 P0 R35
M73 Q0 S35
M201 X1000 Y1000 Z200 E5000 ; sets maximum accelerations, mm/sec^2
M203 X200 Y200 Z12 E120 ; sets maximum feedrates, mm / sec
M204 S1250 T1250 ; sets acceleration (S) and retract acceleration (R), mm/sec^2
M205 X8.00 Y8.00 Z0.40 E4.50 ; sets the jerk limits, mm/sec
M205 S0 T0 ; sets the minimum extruding and travel feed rate, mm/sec
;TYPE:Custom
M862.3 P "MK3S" ; printer model check
M862.1 P0.6 ; nozzle diameter check
M115 U3.12.2 ; tell printer latest fw version
G90 ; use absolute coordinates
M83 ; extruder relative mode
M104 S240 ; set extruder temp
M140 S85 ; set bed temp
M190 S85 ; wait for bed temp
M109 S240 ; wait for extruder temp
G28 W ; home all without mesh bed level
G80 ; mesh bed leveling

G1 Z0.2 F720
G1 Y-3 F1000 ; go outside print area
G92 E0
G1 X60 E9 F1000 ; intro line
G1 X100 E12.5 F1000 ; intro line

G92 E0
M221 S95
G21 ; set units to millimeters
G90 ; use absolute coordinates
M83 ; use relative distances for extrusion
M900 K0.04 ; Filament gcode LA 1.5
M900 K24 ; Filament gcode LA 1.0
M107
;LAYER_CHANGE
;Z:0.2
;HEIGHT:0.2
;BEFORE_LAYER_CHANGE
G92 E0.0
;0.2


G1 E-1 F2100
G1 Z.2 F720
;AFTER_LAYER_CHANGE
;0.2
G1 Z.4
G1 X106.827 Y87.629 F10800
G1 Z.2 F720
G1 E1 F1500
M204 S800
;TYPE:Skirt/Brim
;WIDTH:0.65
G1 F1200
G1 X109.289 Y84.829 E.18821
G1 X112.171 Y82.463 E.18823
G1 X115.397 Y80.594 E.1882
G1 X118.883 Y79.271 E.18822
G1 X122.504 Y78.535 E.18652
G1 X126.684 Y78.408 E.2111
G1 X129.962 Y78.847 E.16695
G1 X133.539 Y79.9 E.18822
G1 X136.898 Y81.518 E.1882
G1 X140.001 Y83.692 E.19125
G1 X146.688 Y88.703 E.42181
G1 X147.554 Y89.842 E.07223
G1 X147.732 Y90.79 E.04869
G1 X147.732 Y129.014 E1.9295
G1 X147.34 Y130.389 E.07217
G1 X146.281 Y131.351 E.07222
G1 X145.125 Y131.621 E.05992
G1 X104.875 Y131.621 E2.03177
G1 X103.5 Y131.229 E.07217
G1 X102.538 Y130.17 E.07222
G1 X102.268 Y129.014 E.05992
G1 X102.268 Y101.364 E1.39574
G1 X102.613 Y97.439 E.19889
G1 X103.545 Y93.829 E.1882
G1 X104.85 Y90.791 E.1669
G1 X106.779 Y87.705 E.18371
M204 S1000
; printing object Right_Motor_Bracket_34,8mm_rev0-5 id:0 copy 0
;WIPE_START
G1 F8640
G1 X109.289 Y84.829 E-.88142
G1 X109.686 Y84.503 E-.11858
;WIPE_END
G1 Z.4 F720
G1 X122.222 Y121.454 F10800
G1 Z.2 F720
G1 E1 F1500
M204 S800
;TYPE:Perimeter
;WIDTH:0.649999
G1 F1200
G1 X122.222 Y126.061 E.23256
G1 X107.828 Y126.061 E.72659
G1 X107.828 Y111.808 E.71947
G1 X109.485 Y114.193 E.1466
G1 X109.789 Y114.559 E.02402
G1 X111.947 Y116.736 E.15473
G1 X112.31 Y117.043 E.024
G1 X114.385 Y118.51 E.12828
G1 X115.224 Y119.053 E.05045
G1 X117.997 Y120.363 E.15481
G1 X118.442 Y120.528 E.02396
G1 X121.397 Y121.336 E.15464
G1 X122.133 Y121.442 E.03754
M204 S1000
G1 X122.829 Y120.902 F10800
M204 S800
G1 F1200
G1 X122.829 Y126.668 E.29106
G1 X107.221 Y126.668 E.78787
G1 X107.221 Y109.211 E.88121
G1 X108.051 Y111.008 E.09992
M73 Q1 S35
G1 X108.235 Y111.328 E.01863
G1 X109.983 Y113.847 E.15477
G1 X110.22 Y114.131 E.01867
M73 P1 R35
G1 X112.378 Y116.309 E.15477
G1 X112.661 Y116.548 E.0187
G1 X114.735 Y118.015 E.12824
G1 X115.483 Y118.504 E.04511
G1 X118.256 Y119.814 E.15481
G1 X118.603 Y119.942 E.01867
G1 X121.557 Y120.75 E.15459
G1 X121.92 Y120.817 E.01863
G1 X122.739 Y120.893 E.04152
M204 S1000
G1 X123.436 Y120.349 F10800
M204 S800
G1 F1200
G1 X123.436 Y127.275 E.34962
G1 X106.614 Y127.275 E.84915
G1 X106.614 Y105.402 E1.10412
G1 X107.227 Y107.721 E.12108
G1 X107.317 Y107.969 E.01332
G1 X108.602 Y110.753 E.15478
G1 X108.733 Y110.982 E.01332
G1 X110.482 Y113.501 E.1548
G1 X110.651 Y113.704 E.01333
G1 X112.81 Y115.881 E.15477
G1 X113.011 Y116.052 E.01332
G1 X115.086 Y117.519 E.12828
G1 X115.743 Y117.955 E.0398
G1 X118.515 Y119.265 E.15477
G1 X118.763 Y119.356 E.01333
G1 X121.717 Y120.165 E.15461
G1 X121.977 Y120.212 E.01334
G1 X123.346 Y120.34 E.06941
M204 S1000
;WIPE_START
G1 F8640
G1 X123.402 Y124.67 E-1
;WIPE_END
G1 Z.4 F720
G1 X128.328 Y121.454 F10800
G1 Z.2 F720
G1 E1 F1500
M204 S800
G1 F1200
G1 X129.153 Y121.336 E.04207
G1 X132.108 Y120.528 E.15464
G1 X132.553 Y120.363 E.02396
G1 X135.326 Y119.053 E.15481
G1 X135.736 Y118.814 E.02396
G1 X138.24 Y117.043 E.15482
G1 X138.603 Y116.736 E.024
G1 X140.761 Y114.559 E.15473
G1 X141.065 Y114.193 E.02402
G1 X142.172 Y112.6 E.09792
G1 X142.172 Y126.061 E.6795
G1 X128.328 Y126.061 E.69883
G1 X128.328 Y121.544 E.22801
M204 S1000
G1 X127.721 Y120.902 F10800
M204 S800
G1 F1200
G1 X128.993 Y120.75 E.06467
G1 X131.947 Y119.942 E.15459
G1 X132.294 Y119.814 E.01867
G1 X135.067 Y118.504 E.15481
G1 X135.386 Y118.318 E.01864
G1 X137.889 Y116.548 E.15475
G1 X138.172 Y116.309 E.0187
G1 X140.33 Y114.131 E.15477
G1 X140.567 Y113.847 E.01867
G1 X142.315 Y111.328 E.15477
G1 X142.499 Y111.008 E.01863
G1 X142.779 Y110.402 E.0337
G1 X142.779 Y126.668 E.82109
G1 X127.721 Y126.668 E.76011
G1 X127.721 Y120.992 E.28652
M204 S1000
G1 X127.114 Y120.349 F10800
M204 S800
G1 F1200
G1 X128.574 Y120.212 E.07402
G1 X128.833 Y120.165 E.01329
G1 X131.787 Y119.356 E.15461
G1 X132.035 Y119.265 E.01333
G1 X134.807 Y117.955 E.15477
G1 X135.035 Y117.822 E.01332
G1 X137.539 Y116.052 E.15479
G1 X137.74 Y115.881 E.01332
G1 X139.899 Y113.704 E.15477
G1 X140.068 Y113.501 E.01333
G1 X141.817 Y110.982 E.1548
G1 X141.948 Y110.753 E.01332
G1 X143.233 Y107.969 E.15478
G1 X143.386 Y107.483 E.02572
G1 X143.386 Y127.275 E.99908
G1 X127.114 Y127.275 E.82139
G1 X127.114 Y120.439 E.34507
M204 S1000
;WIPE_START
G1 F8640
G1 X128.574 Y120.212 E-.34117
G1 X128.833 Y120.165 E-.06078
G1 X131.331 Y119.481 E-.59805
;WIPE_END
G1 Z.4 F720
G1 X143.307 Y94.731 F10800
G1 Z.2 F720
G1 E1 F1500
M204 S800
;WIDTH:0.807989
G1 F1200
G1 X142.257 Y92.469 E.15865
G1 X142.607 Y92.608 E.02396
G1 X143.307 Y92.608 E.04453
G1 X143.307 Y94.641 E.12933
M204 S1000
;WIPE_START
G1 F8640
G1 X142.257 Y92.469 E-.55705
G1 X142.607 Y92.608 E-.08696
G1 X143.307 Y92.608 E-.16163
G1 X143.307 Y93.45 E-.19436
;WIPE_END
G1 Z.4 F720
G1 X126.507 Y119.796 F10800
G1 Z.2 F720
G1 E1 F1500
M204 S800
;WIDTH:0.649999
G1 F1200
G1 X128.517 Y119.608 E.10191
G1 X128.672 Y119.579 E.00796
G1 X131.627 Y118.771 E.15464
G1 X131.776 Y118.716 E.00802
G1 X134.548 Y117.406 E.15477
G1 X134.685 Y117.327 E.00798
G1 X137.188 Y115.556 E.15478
G1 X137.309 Y115.454 E.00799
G1 X139.468 Y113.276 E.15481
G1 X139.569 Y113.155 E.00796
G1 X141.318 Y110.636 E.1548
G1 X141.397 Y110.499 E.00798
G1 X142.682 Y107.715 E.15478
G1 X142.736 Y107.566 E.008
M73 P1 R34
G1 X143.113 Y106.08 E.07739
;WIDTH:0.619245
G1 X143.49 Y104.594 E.07347
;WIDTH:0.58849
G1 X143.507 Y104.442 E.00694
;WIDTH:0.569959
G1 X143.571 Y103.422 E.04479
;WIDTH:0.526886
G1 X143.636 Y102.402 E.04113
;WIDTH:0.483813
G1 X143.7 Y101.381 E.0375
;WIDTH:0.440991
G1 X143.7 Y101.241 E.00463
;WIDTH:0.487005
G1 X143.631 Y100.221 E.03775
;WIDTH:0.533018
G1 X143.562 Y99.201 E.04166
;WIDTH:0.579031
G1 X143.493 Y98.181 E.04557
;WIDTH:0.602833
G1 X143.478 Y98.028 E.00716
;WIDTH:0.649999
G1 X142.7 Y95.062 E.15479
G1 X142.646 Y94.913 E.008
G1 X141.822 Y93.157 E.09791
;WIDTH:0.681054
G1 X141.597 Y92.641 E.02987
;WIDTH:0.712109
G1 X141.372 Y92.124 E.03137
;WIDTH:0.724989
G1 X141.294 Y91.976 E.00949
G1 X139.49 Y89.439 E.17655
;WIDTH:0.714941
G1 X139.388 Y89.314 E.00902
G1 X137.25 Y87.183 E.16868
;WIDTH:0.712644
G1 X137.123 Y87.081 E.00907
;WIDTH:0.721252
G1 X134.776 Y85.432 E.16179
G1 X134.466 Y85.246 E.02039
;WIDTH:0.728539
G1 X132.076 Y84.118 E.15067
G1 X131.533 Y83.9 E.03336
;WIDTH:0.734474
G1 X129.202 Y83.255 E.13908
G1 X128.411 Y83.082 E.04656
;WIDTH:0.713761
G1 X127.319 Y82.974 E.06121
;WIDTH:0.739075
G1 X126.228 Y82.866 E.06346
G1 X125.711 Y82.842 E.02996
;WIDTH:0.712118
G1 X125.194 Y82.817 E.0288
;WIDTH:0.713748
G1 X124.213 Y82.888 E.05486
;WIDTH:0.742335
G1 X123.231 Y82.96 E.05726
G1 X122.685 Y83.022 E.03196
;WIDTH:0.713704
G1 X122.14 Y83.084 E.03059
;WIDTH:0.685073
G1 X121.981 Y83.113 E.00863
;WIDTH:0.713731
G1 X121.135 Y83.323 E.04862
;WIDTH:0.744251
G1 X120.289 Y83.534 E.05085
G1 X119.654 Y83.719 E.03857
;WIDTH:0.713709
G1 X119.019 Y83.905 E.03691
;WIDTH:0.683167
G1 X118.867 Y83.96 E.00861
;WIDTH:0.713721
G1 X118.173 Y84.266 E.04231
;WIDTH:0.744838
G1 X117.478 Y84.573 E.04434
G1 X116.783 Y84.913 E.04516
;WIDTH:0.713724
G1 X116.087 Y85.254 E.04323
;WIDTH:0.6835
G1 X115.945 Y85.335 E.00871
;WIDTH:0.714648
G1 X115.409 Y85.693 E.036
;WIDTH:0.745796
G1 X114.872 Y86.051 E.03772
G1 X114.135 Y86.588 E.05329
;WIDTH:0.7158
G1 X113.397 Y87.124 E.05103
;WIDTH:0.687951
G1 X113.275 Y87.226 E.00853
;WIDTH:0.714968
G1 X112.904 Y87.576 E.0285
;WIDTH:0.741985
G1 X112.533 Y87.927 E.02969
G1 X111.835 Y88.642 E.05808
;WIDTH:0.713751
G1 X111.138 Y89.358 E.05574
;WIDTH:0.688852
G1 X111.033 Y89.48 E.00865
;WIDTH:0.738552
G1 X110.527 Y90.156 E.04884
G1 X109.27 Y91.989 E.12856
;WIDTH:0.69363
G1 X109.186 Y92.128 E.00879
;WIDTH:0.733775
G1 X108.906 Y92.679 E.0355
G1 X107.885 Y94.904 E.14063
;WIDTH:0.69378
G1 X107.872 Y94.932 E.00167
;WIDTH:0.727661
G1 X107.71 Y95.432 E.02993
G1 X107.025 Y98.015 E.15215
;WIDTH:0.720209
G1 X106.971 Y98.342 E.01867
G1 X106.717 Y101.229 E.16321
;WIDTH:0.716434
G1 X106.713 Y101.397 E.00941
;WIDTH:0.759449
G1 X106.777 Y102.416 E.06083
;WIDTH:0.802464
G1 X106.842 Y103.435 E.06449
;WIDTH:0.845479
G1 X106.906 Y104.454 E.06813
G1 X106.952 Y104.622 E.01162
;WIDTH:0.812425
G1 X107.167 Y105.358 E.04906
;WIDTH:0.771819
G1 X107.383 Y106.094 E.04649
;WIDTH:0.731212
G1 X107.598 Y106.83 E.04388
;WIDTH:0.690606
G1 X107.814 Y107.566 E.04131
;WIDTH:0.649999
G1 X107.868 Y107.715 E.008
G1 X109.153 Y110.498 E.15473
G1 X109.232 Y110.636 E.00803
G1 X110.981 Y113.155 E.1548
G1 X111.082 Y113.276 E.00796
G1 X113.241 Y115.454 E.15481
G1 X113.362 Y115.556 E.00799
G1 X116.002 Y117.406 E.16273
G1 X118.774 Y118.716 E.15477
G1 X118.923 Y118.771 E.00802
G1 X121.878 Y119.579 E.15464
G1 X122.033 Y119.608 E.00796
G1 X124.043 Y119.796 E.10191
G1 X124.043 Y127.882 E.40817
G1 X106.007 Y127.882 E.91044
M73 Q2 S35
G1 X106.007 Y107.801 E1.01367
;WIDTH:0.690606
M73 P2 R34
G1 X106.027 Y107.034 E.04132
;WIDTH:0.731212
G1 X106.048 Y106.267 E.04391
;WIDTH:0.771819
G1 X106.068 Y105.501 E.04644
;WIDTH:0.812425
G1 X106.088 Y104.734 E.04909
;WIDTH:0.845479
G1 X106.105 Y104.487 E.01652
G1 X106.083 Y103.467 E.06808
;WIDTH:0.802464
G1 X106.062 Y102.446 E.0645
;WIDTH:0.759449
G1 X106.04 Y101.425 E.06084
;WIDTH:0.716434
G1 X106.054 Y101.183 E.01358
;WIDTH:0.720209
G1 X106.297 Y98.284 E.16383
G1 X106.389 Y97.85 E.02498
;WIDTH:0.727661
G1 X107.047 Y95.26 E.15215
G1 X107.291 Y94.637 E.03809
;WIDTH:0.733775
G1 X108.275 Y92.396 E.1406
G1 X108.733 Y91.629 E.05132
;WIDTH:0.738552
G1 X109.95 Y89.769 E.12857
G1 X110.328 Y89.32 E.03395
;WIDTH:0.712035
G1 X110.672 Y88.916 E.02952
;WIDTH:0.713751
G1 X111.349 Y88.181 E.05574
;WIDTH:0.741985
G1 X112.026 Y87.447 E.05804
G1 X112.456 Y87.077 E.03297
;WIDTH:0.714968
G1 X112.845 Y86.746 E.02854
;WIDTH:0.687951
G1 X113.011 Y86.611 E.01148
;WIDTH:0.7158
G1 X113.73 Y86.05 E.05102
;WIDTH:0.745796
G1 X114.449 Y85.49 E.05326
G1 X115.05 Y85.126 E.04107
;WIDTH:0.714648
G1 X115.603 Y84.795 E.036
;WIDTH:0.6835
G1 X115.795 Y84.686 E.01176
;WIDTH:0.713724
G1 X116.476 Y84.317 E.0432
;WIDTH:0.744838
G1 X117.156 Y83.949 E.04513
G1 X117.915 Y83.648 E.04766
;WIDTH:0.713721
G1 X118.622 Y83.37 E.04237
;WIDTH:0.683167
G1 X118.825 Y83.295 E.01152
;WIDTH:0.713709
G1 X119.451 Y83.081 E.0369
;WIDTH:0.744251
G1 X120.132 Y82.851 E.04192
G1 X120.985 Y82.67 E.05085
;WIDTH:0.713731
G1 X121.837 Y82.489 E.04858
;WIDTH:0.685073
G1 X122.051 Y82.449 E.01162
;WIDTH:0.713704
G1 X122.593 Y82.358 E.03065
;WIDTH:0.742335
G1 X123.191 Y82.262 E.03522
G1 X124.174 Y82.219 E.05722
;WIDTH:0.713748
G1 X125.157 Y82.176 E.05488
;WIDTH:0.688324
G1 X125.375 Y82.171 E.0117
;WIDTH:0.7137
G1 X125.84 Y82.173 E.02594
;WIDTH:0.739075
G1 X126.304 Y82.174 E.02686
G1 X127.393 Y82.308 E.06351
;WIDTH:0.713761
G1 X128.481 Y82.441 E.06114
;WIDTH:0.692925
G1 X128.698 Y82.472 E.01185
;WIDTH:0.734474
G1 X129.392 Y82.591 E.04049
G1 X131.711 Y83.275 E.13903
;WIDTH:0.693076
G1 X131.752 Y83.287 E.00231
;WIDTH:0.728539
G1 X132.372 Y83.5 E.03737
G1 X134.75 Y84.655 E.15071
;WIDTH:0.721252
G1 X135.167 Y84.878 E.02667
G1 X137.506 Y86.539 E.16181
;WIDTH:0.712641
G1 X137.721 Y86.707 E.01519
;WIDTH:0.714941
G1 X139.863 Y88.837 E.1688
G1 X140.023 Y89.041 E.01449
;WIDTH:0.724852
G1 X141.839 Y91.567 E.1764
G1 X141.962 Y91.697 E.01015
;WIDTH:0.712109
G1 X142.285 Y91.809 E.01902
;WIDTH:0.681054
G1 X142.607 Y91.922 E.01811
;WIDTH:0.649999
G1 X143.993 Y91.922 E.06996
G1 X143.993 Y92.99 E.05391
G1 X144.016 Y97.957 E.25073
;WIDTH:0.602833
G1 X144.028 Y98.157 E.00933
;WIDTH:0.579031
G1 X144.051 Y99.179 E.04557
;WIDTH:0.533018
G1 X144.074 Y100.201 E.04166
;WIDTH:0.487005
G1 X144.097 Y101.223 E.03775
;WIDTH:0.440991
G1 X144.098 Y101.398 E.00579
;WIDTH:0.483813
G1 X144.076 Y102.42 E.03748
;WIDTH:0.526886
G1 X144.054 Y103.442 E.04114
;WIDTH:0.569959
G1 X144.033 Y104.464 E.0448
;WIDTH:0.58849
G1 X144.024 Y104.663 E.00904
;WIDTH:0.619245
G1 X144.008 Y106.196 E.07347
;WIDTH:0.649999
G1 X143.993 Y107.729 E.07739
G1 X143.993 Y127.882 E1.0173
G1 X126.507 Y127.882 E.88267
G1 X126.507 Y119.886 E.40363
M204 S1000
G1 X125.9 Y119.243 F10800
M204 S800
;TYPE:External perimeter
G1 F1200
G1 X128.512 Y118.994 E.13245
G1 X131.467 Y118.185 E.15465
G1 X134.289 Y116.858 E.15741
G1 X136.838 Y115.061 E.15743
G1 X139.037 Y112.849 E.15745
G1 X140.819 Y110.29 E.15741
G1 X142.131 Y107.46 E.15746
G1 X142.942 Y104.394 E.16009
G1 X143.2 Y101.286 E.15743
G1 X142.924 Y98.232 E.15479
G1 X142.114 Y95.221 E.1574
G1 X140.794 Y92.395 E.15745
G1 X138.94 Y89.769 E.16227
G1 X136.8 Y87.635 E.15256
G1 X134.2 Y85.819 E.16009
G1 X131.37 Y84.507 E.15746
G1 X128.356 Y83.706 E.15742
G1 X125.249 Y83.439 E.15742
G1 X122.142 Y83.715 E.15746
G1 X119.13 Y84.525 E.15744
G1 X116.304 Y85.846 E.15747
M73 Q2 S34
G1 X113.717 Y87.669 E.15975
G1 X111.545 Y89.841 E.15505
G1 X109.782 Y92.349 E.15475
G1 X108.454 Y95.171 E.15744
G1 X107.635 Y98.18 E.15742
G1 X107.35 Y101.286 E.15745
G1 X107.608 Y104.394 E.15743
G1 X108.401 Y107.411 E.15747
G1 X109.731 Y110.29 E.16009
G1 X111.513 Y112.849 E.15741
G1 X113.712 Y115.061 E.15745
G1 X116.261 Y116.857 E.1574
G1 X119.083 Y118.185 E.15744
G1 X122.038 Y118.994 E.15465
G1 X124.65 Y119.243 E.13245
G1 X124.65 Y128.489 E.46673
G1 X105.4 Y128.489 E.97172
G1 X105.4 Y101.385 E1.36818
G1 X105.663 Y98.153 E.16369
G1 X106.439 Y95.026 E.16264
G1 X107.711 Y92.066 E.16263
G1 X109.444 Y89.35 E.16263
G1 X111.593 Y86.95 E.16262
G1 X114.102 Y84.929 E.16263
G1 X116.905 Y83.339 E.16267
G1 X119.927 Y82.224 E.1626
G1 X123.09 Y81.611 E.16264
G1 X126.31 Y81.518 E.16261
G1 X129.504 Y81.946 E.16267
G1 X132.586 Y82.884 E.16262
G1 X135.476 Y84.308 E.16263
G1 X138.097 Y86.181 E.16262
G1 X140.382 Y88.452 E.16262
G1 X142.361 Y91.189 E.17049
G1 X142.607 Y91.315 E.01395
G1 X144.6 Y91.315 E.1006
G1 X144.6 Y128.489 E1.8765
G1 X125.9 Y128.489 E.94395
G1 X125.9 Y119.333 E.46218
M204 S1000
M73 P3 R34
M73 Q3 S34
G1 X126.498 Y119.296 F10800
;WIPE_START
G1 F8640
G1 X128.512 Y118.994 E-.60818
G1 X130.149 Y118.546 E-.39182
;WIPE_END
G1 Z.4 F720
G1 X120.363 Y121.305 F10800
G1 Z.2 F720
G1 E1 F1500
M204 S800
;TYPE:Solid infill
;WIDTH:0.654488
G1 F1200
G1 X121.706 Y122.648 E.09658
G1 X121.706 Y123.513 E.04399
G1 X119.562 Y121.369 E.15419
G1 X118.371 Y121.043 E.06279
G1 X121.706 Y124.378 E.23984
G1 X121.706 Y125.243 E.04399
G1 X116.859 Y120.396 E.34858
G1 X115.22 Y119.622 E.09217
G1 X121.143 Y125.545 E.42596
G1 X120.278 Y125.545 E.04399
G1 X108.344 Y113.611 E.85824
G1 X108.344 Y114.476 E.04399
G1 X119.413 Y125.545 E.79603
G1 X118.548 Y125.545 E.04399
G1 X108.344 Y115.341 E.73383
G1 X108.344 Y116.206 E.04399
G1 X117.683 Y125.545 E.67162
G1 X116.819 Y125.545 E.04394
G1 X108.344 Y117.071 E.60945
G1 X108.344 Y117.935 E.04394
G1 X115.954 Y125.545 E.54728
G1 X115.089 Y125.545 E.04399
G1 X108.344 Y118.8 E.48507
G1 X108.344 Y119.665 E.04399
