; generated by PrusaSlicer 2.6.0+win64 on 2023-09-06 at 16:45:01 UTC


;
;
; 

; external perimeters extrusion width = 0.65mm
; perimeters extrusion width = 0.65mm
; infill extrusion width = 0.65mm
; solid infill extrusion width = 0.65mm
; top infill extrusion width = 0.60mm
; support material extrusion width = 0.55mm
; first layer extrusion width = 0.65mm

M73 P0 R49
M73 Q0 S50
M201 X1000 Y1000 Z200 E5000 ; sets maximum accelerations, mm/sec^2
M203 X200 Y200 Z12 E120 ; sets maximum feedrates, mm / sec
M204 S1250 T1250 ; sets acceleration (S) and retract acceleration (R), mm/sec^2
M205 X8.00 Y8.00 Z0.40 E4.50 ; sets the jerk limits, mm/sec
M205 S0 T0 ; sets the minimum extruding and travel feed rate, mm/sec
;TYPE:Custom
M862.3 P "MK3S" ; printer model check
M862.1 P0.6 ; nozzle diameter check
M115 U3.12.2 ; tell printer latest fw version
G90 ; use absolute coordinates
M83 ; extruder relative mode
M104 S240 ; set extruder temp
M140 S85 ; set bed temp
M190 S85 ; wait for bed temp
M109 S240 ; wait for extruder temp
G28 W ; home all without mesh bed level
G80 ; mesh bed leveling

G1 Z0.2 F720
G1 Y-3 F1000 ; go outside print area
G92 E0
G1 X60 E9 F1000 ; intro line
G1 X100 E12.5 F1000 ; intro line

G92 E0
M221 S95
G21 ; set units to millimeters
G90 ; use absolute coordinates
M83 ; use relative distances for extrusion
M900 K0.04 ; Filament gcode LA 1.5
M900 K24 ; Filament gcode LA 1.0
M107
;LAYER_CHANGE
;Z:0.2
;HEIGHT:0.2
;BEFORE_LAYER_CHANGE
G92 E0.0
;0.2


G1 E-1 F2100
G1 Z.2 F720
;AFTER_LAYER_CHANGE
;0.2
G1 Z.4
G1 X109.808 Y73.575 F10800
G1 Z.2 F720
G1 E1 F1500
M204 S800
;TYPE:Skirt/Brim
;WIDTH:0.65
G1 F1200
G1 X110.296 Y72.897 E.04217
G1 X117.753 Y65.44 E.53234
G1 X118.431 Y64.952 E.04217
G1 X128.373 Y59.981 E.5611
G1 X129.539 Y59.705 E.06048
G1 X140.346 Y59.705 E.54553
G1 X141.721 Y60.098 E.07219
G1 X142.683 Y61.157 E.07222
G1 X142.951 Y62.216 E.05514
G1 X145.437 Y129.328 E3.39006
G1 X145.439 Y142.716 E.67581
G1 X144.675 Y144.56 E.10076
G1 X139.704 Y149.531 E.35487
G1 X137.86 Y150.295 E.10076
G1 X124.568 Y150.295 E.67097
G1 X122.724 Y149.531 E.10076
G1 X120.239 Y147.045 E.17743
G1 X119.67 Y146.191 E.0518
G1 X107.242 Y115.878 E1.65378
G1 X104.713 Y108.793 E.37974
G1 X104.561 Y107.918 E.04483
G1 X104.561 Y87.169 E1.04739
G1 X104.695 Y86.344 E.04219
G1 X107.181 Y78.887 E.39679
G1 X109.768 Y73.655 E.29463
M204 S1000
; printing object Right_Gripper_rev2-1 id:0 copy 0
;WIPE_START
G1 F8640
G1 X110.296 Y72.897 E-.2133
G1 X112.705 Y70.488 E-.7867
;WIPE_END
G1 Z.4 F720
G1 X140.346 Y83.062 F10800
G1 Z.2 F720
G1 E1 F1500
M204 S800
;TYPE:Support material
G1 F1200
G1 X135.375 Y83.062 E.25093
G1 X135.375 Y85.547 E.12544
G1 X132.889 Y85.547 E.12549
G1 X132.889 Y88.033 E.12549
G1 X130.403 Y88.033 E.12549
G1 X130.403 Y93.004 E.25093
G1 X127.918 Y93.004 E.12544
G1 X127.918 Y102.082 E.45825
G1 X130.403 Y102.082 E.12544
G1 X130.403 Y107.054 E.25098
G1 X132.889 Y107.054 E.12549
G1 X132.889 Y114.51 E.37637
G1 X135.375 Y114.51 E.12549
G1 X135.375 Y119.482 E.25098
G1 X137.86 Y119.482 E.12544
G1 X137.86 Y124.453 E.25093
G1 X140.346 Y124.453 E.12549
G1 X140.346 Y129.424 E.25093
G1 X142.831 Y129.424 E.12544
G1 X142.831 Y142.716 E.67097
G1 X140.346 Y142.716 E.12544
G1 X140.346 Y145.202 E.12549
G1 X137.86 Y145.202 E.12549
G1 X137.86 Y147.688 E.12549
G1 X124.568 Y147.688 E.67097
G1 X124.568 Y145.202 E.12549
G1 X122.082 Y145.202 E.12549
G1 X122.082 Y137.745 E.37642
G1 X119.597 Y137.745 E.12544
G1 X119.597 Y130.977 E.34164
G1 X120.737 Y130.689 E.05935
G1 X121.557 Y132.419 E.09664
G1 X124.189 Y137.307 E.28024
G1 X126.012 Y140.375 E.18015
G1 X126.739 Y141.349 E.06135
G1 X127.546 Y142.118 E.05627
G1 X128.529 Y142.784 E.05994
G1 X129.611 Y143.273 E.05994
G1 X130.76 Y143.57 E.05991
G1 X132.015 Y143.667 E.06354
G1 X133.125 Y143.562 E.05628
G1 X134.272 Y143.257 E.05991
G1 X135.413 Y142.725 E.06355
G1 X136.329 Y142.088 E.05632
G1 X137.178 Y141.259 E.0599
G1 X137.911 Y140.235 E.06357
G1 X138.395 Y139.231 E.05626
G1 X138.728 Y138.091 E.05995
G1 X138.863 Y136.84 E.06352
G1 X138.792 Y135.727 E.0563
G1 X138.522 Y134.571 E.05992
G1 X138.06 Y133.478 E.0599
G1 X137.406 Y132.465 E.06087
G1 X122.329 Y113.136 E1.23743
G1 X121.703 Y112.3 E.05272
G1 X121.053 Y111.358 E.05777
G1 X120.597 Y111.297 E.02322
G1 X120.597 Y109.403 E.09561
G1 X114.49 Y109.403 E.30827
G1 X114.49 Y111.889 E.12549
G1 X112.004 Y111.889 E.12549
G1 X112.004 Y114.889 E.15144
G1 X109.654 Y114.889 E.11863
G1 X109.654 Y107.918 E.35189
G1 X107.169 Y107.918 E.12544
M73 P1 R49
M73 Q1 S50
G1 X107.169 Y87.169 E1.04739
G1 X109.654 Y87.169 E.12544
G1 X109.654 Y79.712 E.37642
G1 X112.14 Y79.712 E.12549
G1 X112.14 Y74.74 E.25098
G1 X114.625 Y74.74 E.12544
G1 X114.625 Y72.255 E.12544
G1 X117.111 Y72.255 E.12549
G1 X117.111 Y69.769 E.12549
G1 X119.597 Y69.769 E.12549
G1 X119.597 Y67.284 E.12544
G1 X124.568 Y67.284 E.25093
G1 X124.568 Y64.798 E.12549
G1 X129.539 Y64.798 E.25093
G1 X129.539 Y62.312 E.12549
G1 X140.346 Y62.312 E.54553
G1 X140.346 Y82.97 E1.04279
M204 S1000
;WIPE_START
G1 F8640
G1 X140.346 Y78.639 E-1
;WIPE_END
G1 Z.4 F720
G1 X141.863 Y142.443 F10800
G1 Z.2 F720
G1 E1 F1500
M204 S800
G1 F1200
G1 X141.863 Y129.97 E.62962
G1 X141.189 Y129.97 E.03402
G1 X141.189 Y142.17 E.61584
G1 X140.514 Y142.17 E.03407
M73 Q1 S49
G1 X140.514 Y129.97 E.61584
G1 X139.84 Y129.97 E.03402
G1 X139.84 Y142.17 E.61584
G1 X139.799 Y142.17 E.00207
G1 X139.799 Y144.656 E.12549
G1 X139.165 Y144.656 E.032
G1 X139.165 Y124.999 E.99226
G1 X138.491 Y124.999 E.03402
G1 X138.491 Y133.127 E.41029
G1 X137.816 Y132.103 E.06191
G1 X137.816 Y124.999 E.3586
G1 X137.314 Y124.999 E.02534
G1 X137.314 Y120.028 E.25093
G1 X137.142 Y120.028 E.00868
G1 X137.142 Y131.238 E.56587
G1 X136.467 Y130.373 E.05539
G1 X136.467 Y120.028 E.5222
G1 X135.793 Y120.028 E.03402
G1 X135.793 Y129.508 E.47854
G1 X135.118 Y128.644 E.05535
G1 X135.118 Y120.028 E.43493
G1 X134.828 Y120.028 E.01464
G1 X134.828 Y115.057 E.25093
G1 X134.443 Y115.057 E.01943
G1 X134.443 Y127.779 E.64219
G1 X133.769 Y126.914 E.05535
G1 X133.769 Y115.057 E.59853
G1 X133.094 Y115.057 E.03407
G1 X133.094 Y126.049 E.55486
G1 X132.42 Y125.184 E.05535
G1 X132.42 Y115.057 E.5112
G1 X132.343 Y115.057 E.00389
G1 X132.343 Y107.6 E.37642
G1 X131.745 Y107.6 E.03019
G1 X131.745 Y124.32 E.84401
G1 X131.071 Y123.455 E.05535
G1 X131.071 Y107.6 E.80034
G1 X130.396 Y107.6 E.03407
G1 X130.396 Y122.59 E.75668
G1 X129.722 Y121.725 E.05535
G1 X129.722 Y102.629 E.96394
G1 X129.047 Y102.629 E.03407
G1 X129.047 Y120.861 E.92033
G1 X128.373 Y119.996 E.05535
G1 X128.373 Y102.629 E.87667
G1 X127.698 Y102.629 E.03407
G1 X127.698 Y119.131 E.833
G1 X127.024 Y118.266 E.05535
G1 X127.024 Y65.344 E2.67144
G1 X127.698 Y65.344 E.03402
G1 X127.698 Y92.458 E1.36868
G1 X128.373 Y92.458 E.03407
G1 X128.373 Y65.344 E1.36868
G1 X129.047 Y65.344 E.03402
M73 P1 R48
G1 X129.047 Y92.458 E1.36868
G1 X129.722 Y92.458 E.03407
M73 P2 R48
G1 X129.722 Y65.344 E1.36868
G1 X130.086 Y65.344 E.01837
M73 Q2 S49
G1 X130.086 Y62.859 E.12544
G1 X130.396 Y62.859 E.01565
G1 X130.396 Y87.486 E1.24314
G1 X131.071 Y87.486 E.03407
G1 X131.071 Y62.859 E1.24314
G1 X131.745 Y62.859 E.03402
G1 X131.745 Y87.486 E1.24314
G1 X132.343 Y87.486 E.03019
G1 X132.343 Y85.001 E.12544
G1 X132.42 Y85.001 E.00389
G1 X132.42 Y62.859 E1.1177
G1 X133.094 Y62.859 E.03402
G1 X133.094 Y85.001 E1.1177
G1 X133.769 Y85.001 E.03407
G1 X133.769 Y62.859 E1.1177
G1 X134.443 Y62.859 E.03402
G1 X134.443 Y85.001 E1.1177
G1 X134.828 Y85.001 E.01943
G1 X134.828 Y82.515 E.12549
G1 X135.118 Y82.515 E.01464
G1 X135.118 Y62.859 E.99221
G1 X135.793 Y62.859 E.03407
G1 X135.793 Y82.515 E.99221
G1 X136.467 Y82.515 E.03402
G1 X136.467 Y62.859 E.99221
G1 X137.142 Y62.859 E.03407
G1 X137.142 Y82.515 E.99221
G1 X137.816 Y82.515 E.03402
G1 X137.816 Y62.859 E.99221
G1 X138.491 Y62.859 E.03407
G1 X138.491 Y82.515 E.99221
G1 X139.165 Y82.515 E.03402
G1 X139.165 Y62.586 E1.00599
M204 S1000
;WIPE_START
G1 F8640
G1 X139.165 Y66.917 E-1
;WIPE_END
G1 Z.4 F720
G1 X138.491 Y144.929 F10800
G1 Z.2 F720
G1 E1 F1500
M204 S800
G1 F1200
G1 X138.491 Y140.29 E.23417
G1 X138.332 Y140.596 E.01741
G1 X137.816 Y141.317 E.04476
G1 X137.816 Y144.656 E.16855
G1 X137.314 Y144.656 E.02534
G1 X137.314 Y147.141 E.12544
G1 X137.142 Y147.141 E.00868
G1 X137.142 Y142.062 E.25638
G1 X136.751 Y142.447 E.0277
G1 X136.467 Y142.658 E.01786
G1 X136.467 Y147.141 E.2263
G1 X135.793 Y147.141 E.03402
G1 X135.793 Y143.127 E.20262
G1 X135.603 Y143.246 E.01132
G1 X135.118 Y143.472 E.02701
G1 X135.118 Y147.141 E.18521
G1 X134.443 Y147.141 E.03407
G1 X134.443 Y143.776 E.16986
G1 X133.769 Y143.96 E.03527
G1 X133.769 Y147.141 E.16057
G1 X133.094 Y147.141 E.03407
G1 X133.094 Y144.114 E.1528
G1 X132.42 Y144.178 E.03418
G1 X132.42 Y147.141 E.14957
G1 X131.745 Y147.141 E.03407
G1 X131.745 Y144.201 E.14841
G1 X131.071 Y144.149 E.03412
G1 X131.071 Y147.141 E.15103
G1 X130.396 Y147.141 E.03407
G1 X130.396 Y144.042 E.15643
G1 X129.722 Y143.871 E.0351
G1 X129.722 Y147.141 E.16507
G1 X129.047 Y147.141 E.03407
G1 X129.047 Y143.62 E.17774
G1 X128.373 Y143.319 E.03726
G1 X128.373 Y147.141 E.19293
G1 X127.698 Y147.141 E.03407
G1 X127.698 Y142.885 E.21484
G1 X127.279 Y142.604 E.02547
G1 X127.024 Y142.375 E.0173
G1 X127.024 Y147.141 E.24058
G1 X126.349 Y147.141 E.03407
G1 X126.349 Y141.732 E.27304
G1 X125.675 Y140.841 E.0564
G1 X125.675 Y147.141 E.31802
G1 X125.114 Y147.141 E.02832
G1 X125.114 Y144.656 E.12544
G1 X125 Y144.656 E.00575
G1 X125 Y139.742 E.24805
G1 X124.325 Y138.607 E.06666
G1 X124.325 Y144.656 E.30535
G1 X123.651 Y144.656 E.03402
G1 X123.651 Y137.461 E.3632
G1 X122.976 Y136.208 E.07184
G1 X122.976 Y144.656 E.42645
G1 X122.629 Y144.656 E.01752
G1 X122.629 Y137.199 E.37642
G1 X122.302 Y137.199 E.01651
G1 X122.302 Y134.955 E.11327
G1 X121.627 Y133.703 E.0718
G1 X121.627 Y137.199 E.17647
G1 X120.953 Y137.199 E.03402
G1 X120.953 Y132.422 E.24114
G1 X120.435 Y131.329 E.06106
G1 X120.278 Y131.368 E.00817
G1 X120.278 Y137.472 E.30812
M204 S1000
;WIPE_START
G1 F8640
G1 X120.278 Y133.141 E-1
;WIPE_END
G1 Z.4 F720
G1 X126.349 Y117.846 F10800
G1 Z.2 F720
G1 E1 F1500
M204 S800
G1 F1200
G1 X126.349 Y65.344 E2.65024
G1 X125.675 Y65.344 E.03402
G1 X125.675 Y116.537 E2.58416
M73 P3 R48
G1 X125 Y115.672 E.05539
M73 Q3 S49
G1 X125 Y67.83 E2.41501
G1 X124.325 Y67.83 E.03407
G1 X124.325 Y114.807 E2.37135
G1 X123.651 Y113.943 E.05531
M73 Q3 S48
G1 X123.651 Y67.83 E2.32773
G1 X122.976 Y67.83 E.03407
G1 X122.976 Y113.078 E2.28407
G1 X122.302 Y112.188 E.05636
G1 X122.302 Y67.83 E2.23914
G1 X121.627 Y67.83 E.03407
G1 X121.627 Y111.23 E2.19078
G1 X121.367 Y110.848 E.02333
G1 X121.143 Y110.819 E.0114
G1 X121.143 Y108.857 E.09904
G1 X120.953 Y108.857 E.00959
G1 X120.953 Y67.83 E2.071
G1 X120.278 Y67.83 E.03407
G1 X120.278 Y108.857 E2.071
G1 X119.604 Y108.857 E.03402
G1 X119.604 Y70.316 E1.94551
G1 X118.929 Y70.316 E.03407
G1 X118.929 Y108.857 E1.94551
G1 X118.255 Y108.857 E.03402
G1 X118.255 Y70.316 E1.94551
G1 X117.657 Y70.316 E.03019
G1 X117.657 Y72.801 E.12544
G1 X117.58 Y72.801 E.00389
G1 X117.58 Y108.857 E1.82007
G1 X116.906 Y108.857 E.03402
M73 P3 R47
G1 X116.906 Y72.801 E1.82007
G1 X116.231 Y72.801 E.03407
M73 P4 R47
G1 X116.231 Y108.857 E1.82007
M73 Q4 S48
G1 X115.557 Y108.857 E.03402
G1 X115.557 Y72.801 E1.82007
G1 X115.172 Y72.801 E.01943
G1 X115.172 Y75.287 E.12549
G1 X114.882 Y75.287 E.01464
G1 X114.882 Y108.857 E1.69458
G1 X114.207 Y108.857 E.03407
G1 X114.207 Y75.287 E1.69458
G1 X113.533 Y75.287 E.03402
G1 X113.533 Y111.343 E1.82007
G1 X112.858 Y111.343 E.03407
G1 X112.858 Y75.287 E1.82007
G1 X112.686 Y75.287 E.00868
G1 X112.686 Y80.258 E.25093
G1 X112.184 Y80.258 E.02534
G1 X112.184 Y111.343 E1.56914
G1 X111.509 Y111.343 E.03407
G1 X111.509 Y80.258 E1.56914
G1 X110.835 Y80.258 E.03402
G1 X110.835 Y114.343 E1.72057
G1 X110.201 Y114.343 E.032
G1 X110.201 Y107.371 E.35194
G1 X110.16 Y107.371 E.00207
G1 X110.16 Y87.715 E.99221
G1 X109.486 Y87.715 E.03402
G1 X109.486 Y107.371 E.99221
G1 X108.811 Y107.371 E.03407
G1 X108.811 Y87.715 E.99221
G1 X108.137 Y87.715 E.03402
G1 X108.137 Y107.645 E1.00604
M204 S1000
;WIPE_START
G1 F8640
G1 X108.137 Y103.314 E-1
;WIPE_END
G1 Z.4 F720
G1 X114.544 Y112.457 F10800
G1 Z.2 F720
G1 E1 F1500
M204 S800
;TYPE:Support material interface
;WIDTH:0.55
G1 F1200
G1 X114.001 Y112.457 E.02289
G1 X114.001 Y114.943 E.10482
G1 X113.216 Y114.943 E.0331
G1 X113.216 Y112.457 E.10482
G1 X112.572 Y112.457 E.02715
G1 X112.572 Y114.943 E.10482
G1 X112.973 Y114.943 E.01691
M204 S1000
;WIPE_START
G1 F8640
G1 X112.572 Y114.943 E-.09259
G1 X112.572 Y112.457 E-.57402
G1 X113.216 Y112.457 E-.1487
G1 X113.216 Y113.257 E-.18469
;WIPE_END
G1 Z.4 F720
G1 X114.732 Y115.51 F10800
G1 Z.2 F720
G1 E1 F1500
M204 S800
;TYPE:Support material
;WIDTH:0.65
G1 F1200
G1 X115.216 Y117.041 E.08105
G1 X112.715 Y116.987 E.12628
G1 X112.275 Y115.51 E.0778
G1 X114.641 Y115.51 E.11943
M204 S1000
G1 X114.207 Y116.746 F10800
M204 S800
G1 F1200
G1 X114.207 Y116.057 E.03478
G1 X113.533 Y116.057 E.03402
G1 X113.533 Y116.731 E.03402
M204 S1000
;WIPE_START
G1 F8640
G1 X113.533 Y116.057 E-.15563
G1 X114.207 Y116.057 E-.15563
G1 X114.207 Y116.746 E-.15909
;WIPE_END
G1 E-.52965 F2100
G1 Z.4 F720
G1 X114.39 Y113.295 F10800
G1 Z.2 F720
G1 E1 F1500
M204 S800
;TYPE:Support material interface
;WIDTH:0.55
G1 F1200
G1 X114.421 Y113.204 E.00405
G1 X114.787 Y112.939 E.01905
G1 X114.787 Y112.457 E.02032
G1 X115.057 Y112.457 E.01138
G1 X115.057 Y109.971 E.10482
G1 X115.573 Y109.971 E.02176
G1 X115.573 Y113.235 E.13762
G1 X116.358 Y112.717 E.03966
G1 X116.358 Y109.971 E.11578
G1 X117.144 Y109.971 E.03314
G1 X117.144 Y112.245 E.09588
G1 X117.929 Y111.765 E.0388
G1 X117.929 Y109.971 E.07564
G1 X118.715 Y109.971 E.03314
G1 X118.715 Y111.341 E.05776
G1 X119.501 Y110.918 E.03764
G1 X119.501 Y109.971 E.03993
G1 X120.029 Y109.971 E.02226
G1 X120.029 Y110.64 E.02821
G1 X119.715 Y110.804 E.01494
M204 S1000
G1 X120.264 Y111.293 F10800
M204 S800
;TYPE:Support material
;WIDTH:0.65
G1 F1200
G1 X120.174 Y111.37 E.00598
G1 X120.002 Y111.416 E.00899
G1 X119.923 Y111.514 E.00635
G1 X118.287 Y112.353 E.09281
G1 X116.487 Y113.451 E.10643
G1 X116.167 Y113.669 E.01955
G1 X115.094 Y114.466 E.06747
G1 X115.063 Y114.364 E.00538
G1 X115.104 Y114.245 E.00635
G1 X116.723 Y113.158 E.09844
G1 X118.244 Y112.239 E.0897
G1 X120.093 Y111.247 E.10592
G1 X120.176 Y111.269 E.00433
M204 S1000
;WIPE_START
G1 F8640
G1 X120.093 Y111.247 E-.01983
G1 X118.244 Y112.239 E-.4845
G1 X116.723 Y113.158 E-.41033
G1 X116.416 Y113.364 E-.08534
;WIPE_END
G1 Z.4 F720
G1 X132.519 Y133.222 F10800
G1 Z.2 F720
G1 E1 F1500
M204 S800
G1 F1200
G1 X133.102 Y133.374 E.03041
G1 X133.651 Y133.622 E.03041
G1 X134.15 Y133.959 E.0304
G1 X134.585 Y134.376 E.03042
G1 X134.944 Y134.86 E.03042
G1 X135.215 Y135.398 E.03041
G1 X135.391 Y135.974 E.0304
G1 X135.468 Y136.572 E.03044
G1 X135.442 Y137.174 E.03042
G1 X135.315 Y137.763 E.03042
G1 X135.091 Y138.322 E.0304
G1 X134.775 Y138.835 E.03041
G1 X134.377 Y139.287 E.0304
G1 X133.908 Y139.666 E.03044
G1 X133.382 Y139.959 E.03039
G1 X132.814 Y140.16 E.03041
G1 X132.22 Y140.262 E.03042
G1 X131.618 Y140.262 E.03039
G1 X131.024 Y140.16 E.03042
G1 X130.456 Y139.959 E.03041
G1 X129.93 Y139.665 E.03042
G1 X129.461 Y139.287 E.03041
G1 X129.063 Y138.835 E.0304
G1 X128.747 Y138.322 E.03041
G1 X128.523 Y137.763 E.0304
G1 X128.396 Y137.174 E.03042
G1 X128.37 Y136.572 E.03042
G1 X128.447 Y135.974 E.03044
G1 X128.623 Y135.398 E.0304
G1 X128.894 Y134.86 E.03041
G1 X129.253 Y134.376 E.03042
G1 X129.688 Y133.959 E.03042
G1 X130.187 Y133.622 E.0304
G1 X130.736 Y133.374 E.03041
G1 X131.319 Y133.222 E.03041
G1 X131.919 Y133.171 E.0304
G1 X132.429 Y133.214 E.02584
M204 S1000
G1 X134.443 Y138.798 F10800
M204 S800
G1 F1200
G1 X134.443 Y135.103 E.18652
G1 X134.174 Y134.738 E.02289
G1 X133.769 Y134.361 E.02793
G1 X133.769 Y139.076 E.23801
G1 X133.601 Y139.211 E.01088
G1 X133.094 Y139.482 E.02902
G1 X133.094 Y133.97 E.27824
G1 X132.92 Y133.891 E.00965
G1 X132.42 Y133.762 E.02607
G1 X132.42 Y139.673 E.29838
G1 X132.174 Y139.715 E.0126
G1 X131.745 Y139.715 E.02166
G1 X131.745 Y133.734 E.30191
G1 X131.411 Y133.762 E.01692
