; generated by PrusaSlicer 2.6.0+win64 on 2023-09-03 at 10:55:57 UTC


;
;
; 

; external perimeters extrusion width = 0.65mm
; perimeters extrusion width = 0.65mm
; infill extrusion width = 0.65mm
; solid infill extrusion width = 0.65mm
; top infill extrusion width = 0.60mm
; support material extrusion width = 0.55mm
; first layer extrusion width = 0.65mm

M73 P0 R25
M73 Q0 S26
M201 X1000 Y1000 Z200 E5000 ; sets maximum accelerations, mm/sec^2
M203 X200 Y200 Z12 E120 ; sets maximum feedrates, mm / sec
M204 S1250 T1250 ; sets acceleration (S) and retract acceleration (R), mm/sec^2
M205 X8.00 Y8.00 Z0.40 E4.50 ; sets the jerk limits, mm/sec
M205 S0 T0 ; sets the minimum extruding and travel feed rate, mm/sec
;TYPE:Custom
M862.3 P "MK3S" ; printer model check
M862.1 P0.6 ; nozzle diameter check
M115 U3.12.2 ; tell printer latest fw version
G90 ; use absolute coordinates
M83 ; extruder relative mode
M104 S240 ; set extruder temp
M140 S85 ; set bed temp
M190 S85 ; wait for bed temp
M109 S240 ; wait for extruder temp
G28 W ; home all without mesh bed level
G80 ; mesh bed leveling

G1 Z0.2 F720
G1 Y-3 F1000 ; go outside print area
G92 E0
G1 X60 E9 F1000 ; intro line
G1 X100 E12.5 F1000 ; intro line

G92 E0
M221 S95
G21 ; set units to millimeters
G90 ; use absolute coordinates
M83 ; use relative distances for extrusion
M900 K0.04 ; Filament gcode LA 1.5
M900 K24 ; Filament gcode LA 1.0
M107
;LAYER_CHANGE
;Z:0.2
;HEIGHT:0.2
;BEFORE_LAYER_CHANGE
G92 E0.0
;0.2


G1 E-1 F2100
G1 Z.2 F720
;AFTER_LAYER_CHANGE
;0.2
G1 Z.4
G1 X108.889 Y84.828 F10800
G1 Z.2 F720
G1 E1 F1500
M204 S800
;TYPE:Skirt/Brim
;WIDTH:0.65
G1 F1200
G1 X109.737 Y84.034 E.05864
G1 X118.505 Y78.923 E.5123
G1 X128.569 Y74.603 E.55285
G1 X129.593 Y74.394 E.05276
G1 X142.971 Y74.394 E.67531
G1 X144.346 Y74.786 E.07217
G1 X145.308 Y75.845 E.07222
G1 X145.578 Y77.001 E.05992
G1 X145.578 Y132.999 E2.82672
G1 X145.186 Y134.375 E.07222
M73 Q0 S25
G1 X144.127 Y135.336 E.07219
G1 X142.971 Y135.606 E.05992
G1 X109.536 Y135.606 E1.68776
G1 X108.161 Y135.214 E.07217
G1 X107.199 Y134.155 E.07222
G1 X106.929 Y132.999 E.05992
G1 X106.929 Y126.244 E.34098
G1 X108.445 Y86.188 E2.02343
G1 X108.861 Y84.914 E.06765
M204 S1000
; printing object Right_MG996R_Back_Plate_rev1-1 id:0 copy 0
;WIPE_START
M73 P1 R25
M73 Q1 S25
G1 F8640
G1 X109.737 Y84.034 E-.28671
G1 X112.406 Y82.478 E-.71329
;WIPE_END
G1 Z.4 F720
G1 X121.652 Y89.306 F10800
G1 Z.2 F720
G1 E1 F1500
M204 S800
;TYPE:Support material
G1 F1200
G1 X121.818 Y89.342 E.00857
G1 X121.976 Y89.405 E.00859
G1 X122.121 Y89.494 E.00859
G1 X122.248 Y89.607 E.00858
G1 X122.355 Y89.739 E.00858
G1 X122.438 Y89.887 E.00857
G1 X122.495 Y90.048 E.00862
G1 X122.523 Y90.215 E.00855
G1 X122.523 Y90.385 E.00858
G1 X122.495 Y90.552 E.00855
G1 X122.438 Y90.713 E.00862
G1 X122.355 Y90.861 E.00857
G1 X122.248 Y90.993 E.00858
G1 X122.121 Y91.106 E.00858
G1 X121.976 Y91.195 E.00859
G1 X121.818 Y91.258 E.00859
G1 X121.652 Y91.294 E.00857
G1 X121.482 Y91.301 E.00859
G1 X121.314 Y91.279 E.00855
G1 X121.151 Y91.23 E.00859
G1 X121 Y91.153 E.00856
G1 X120.863 Y91.052 E.00859
G1 X120.745 Y90.929 E.0086
G1 X120.65 Y90.789 E.00854
G1 X120.58 Y90.634 E.00859
G1 X120.537 Y90.469 E.00861
G1 X120.523 Y90.3 E.00856
G1 X120.537 Y90.131 E.00856
G1 X120.58 Y89.966 E.00861
G1 X120.65 Y89.811 E.00859
G1 X120.745 Y89.671 E.00854
G1 X120.863 Y89.548 E.0086
G1 X121 Y89.447 E.00859
G1 X121.151 Y89.37 E.00856
G1 X121.314 Y89.321 E.00859
G1 X121.561 Y89.302 E.01251
M204 S1000
G1 X121.627 Y91.02 F10800
M204 S800
G1 F1200
G1 X121.627 Y89.58 E.07269
M204 S1000
;WIPE_START
G1 F8640
G1 X121.627 Y91.02 E-.3325
;WIPE_END
G1 E-.6675 F2100
G1 Z.4 F720
G1 X134.45 Y87.22 F10800
G1 Z.2 F720
G1 E1 F1500
M204 S800
G1 F1200
G1 X134.174 Y87.136 E.01456
G1 X133.806 Y86.951 E.02079
G1 X133.475 Y86.706 E.02079
G1 X133.191 Y86.409 E.02074
G1 X132.96 Y86.068 E.02079
G1 X132.791 Y85.693 E.02076
G1 X132.687 Y85.294 E.02081
G1 X132.652 Y84.884 E.02077
G1 X132.687 Y84.474 E.02077
G1 X132.791 Y84.076 E.02077
G1 X132.96 Y83.701 E.02076
G1 X133.191 Y83.359 E.02083
G1 X133.475 Y83.062 E.02074
G1 X133.806 Y82.817 E.02079
G1 X134.174 Y82.632 E.02079
G1 X134.45 Y82.548 E.01456
G1 X134.45 Y87.129 E.23124
M204 S1000
G1 X133.769 Y86.583 F10800
M204 S800
G1 F1200
G1 X133.769 Y83.185 E.17153
M204 S1000
;WIPE_START
G1 F8640
G1 X133.769 Y86.583 E-.78461
;WIPE_END
G1 E-.21539 F2100
G1 Z.4 F720
G1 X135.24 Y82.39 F10800
G1 Z.2 F720
G1 E1 F1500
M204 S800
;TYPE:Support material interface
;WIDTH:0.55
G1 F1200
G1 X135.028 Y82.385 E.00894
G1 X135.028 Y87.383 E.21073
G1 X135.492 Y87.349 E.01962
G1 X135.492 Y82.419 E.20787
G1 X135.9 Y82.522 E.01774
G1 X136.299 Y82.703 E.01847
G1 X136.299 Y87.065 E.18392
G1 X136.837 Y86.714 E.02708
G1 X137.106 Y86.858 E.01286
G1 X137.106 Y83.3 E.15002
G1 X137.535 Y83.098 E.01999
G1 X137.535 Y87.087 E.16819
G1 X137.33 Y86.977 E.00981
M204 S1000
G1 X137.076 Y87.498 F10800
M204 S800
;TYPE:Support material
;WIDTH:0.65
G1 F1200
G1 X137.081 Y88.617 E.05649
G1 X136.929 Y88.736 E.00974
G1 X136.684 Y88.675 E.01274
G1 X136.676 Y87.646 E.05194
G1 X136.578 Y87.572 E.0062
G1 X136.87 Y87.387 E.01745
G1 X136.995 Y87.455 E.00718
M204 S1000
;WIPE_START
G1 F8640
G1 X136.87 Y87.387 E-.03286
G1 X136.578 Y87.572 E-.07982
G1 X136.676 Y87.646 E-.02836
G1 X136.684 Y88.675 E-.23761
G1 X136.929 Y88.736 E-.0583
G1 X137.081 Y88.617 E-.04457
G1 X137.076 Y87.498 E-.25838
;WIPE_END
G1 E-.2601 F2100
G1 Z.4 F720
G1 X135.492 Y90.904 F10800
G1 Z.2 F720
G1 E1 F1500
M204 S800
;TYPE:Support material interface
;WIDTH:0.55
G1 F1200
G1 X135.492 Y89.696 E.05093
G1 X135.675 Y89.484 E.01181
G1 X135.808 Y89.386 E.00697
G1 X136.054 Y89.274 E.0114
G1 X136.299 Y89.227 E.01052
G1 X136.299 Y91.373 E.09048
G1 X136.602 Y91.351 E.01281
G1 X137.058 Y91.233 E.01986
G1 X137.106 Y91.27 E.00256
G1 X137.106 Y89.332 E.08171
G1 X137.535 Y88.997 E.02295
G1 X137.535 Y91.602 E.10984
G1 X137.307 Y91.425 E.01217
M204 S1000
;WIPE_START
G1 F8640
G1 X137.535 Y91.602 E-.06665
G1 X137.535 Y88.997 E-.6015
G1 X137.106 Y89.332 E-.12568
G1 X137.106 Y90.225 E-.20617
;WIPE_END
G1 Z.4 F720
G1 X137.065 Y81.094 F10800
G1 Z.2 F720
G1 E1 F1500
M204 S800
;TYPE:Support material
;WIDTH:0.65
G1 F1200
G1 X137.08 Y82.265 E.05912
G1 X136.872 Y82.382 E.01205
G1 X136.57 Y82.192 E.01801
G1 X136.701 Y82.086 E.00851
G1 X136.676 Y81.574 E.02588
G1 X136.632 Y81.374 E.01034
G1 X136.632 Y80.98 E.01989
G1 X136.951 Y80.98 E.0161
G1 X137.001 Y81.03 E.00357
M204 S1000
G1 X137.31 Y80.521 F10800
M204 S800
;TYPE:Support material interface
;WIDTH:0.55
G1 F1200
G1 X137.535 Y80.746 E.01342
G1 X137.535 Y79.929 E.03445
G1 X137.106 Y79.929 E.01809
G1 X137.106 Y80.401 E.0199
G1 X136.299 Y80.401 E.03403
G1 X136.299 Y79.929 E.0199
G1 X135.492 Y79.929 E.03403
G1 X135.492 Y80.401 E.0199
G1 X135.028 Y80.401 E.01956
G1 X135.028 Y79.929 E.0199
G1 X135.238 Y79.929 E.00885
M204 S1000
;WIPE_START
G1 F8640
G1 X135.028 Y79.929 E-.04849
G1 X135.028 Y80.401 E-.10899
G1 X135.492 Y80.401 E-.10714
G1 X135.492 Y79.929 E-.10899
G1 X136.299 Y79.929 E-.18634
G1 X136.299 Y80.401 E-.10899
G1 X137.106 Y80.401 E-.18634
G1 X137.106 Y79.929 E-.10899
G1 X137.261 Y79.929 E-.03573
;WIPE_END
G1 Z.4 F720
G1 X135.492 Y127.304 F10800
G1 Z.2 F720
G1 E1 F1500
M204 S800
G1 F1200
G1 X135.492 Y126.096 E.05093
G1 X135.675 Y125.884 E.01181
G1 X135.808 Y125.786 E.00697
G1 X136.043 Y125.677 E.01092
G1 X136.299 Y125.627 E.011
G1 X136.299 Y127.773 E.09048
G1 X136.602 Y127.751 E.01281
G1 X137.058 Y127.633 E.01986
G1 X137.106 Y127.67 E.00256
G1 X137.106 Y125.873 E.07577
G1 X137.229 Y125.939 E.00589
G1 X137.535 Y125.756 E.01503
G1 X137.535 Y128.002 E.0947
G1 X137.307 Y127.825 E.01217
M204 S1000
G1 X137.08 Y128.381 F10800
M204 S800
;TYPE:Support material
;WIDTH:0.65
G1 F1200
G1 X137.061 Y128.913 E.02687
G1 X136.948 Y129.02 E.00786
G1 X136.632 Y129.02 E.01595
G1 X136.632 Y128.856 E.00828
G1 X136.712 Y128.32 E.02736
G1 X136.929 Y128.264 E.01131
G1 X137.008 Y128.326 E.00507
M204 S1000
;WIPE_START
G1 F8640
G1 X136.929 Y128.264 E-.02319
G1 X136.712 Y128.32 E-.05175
G1 X136.632 Y128.856 E-.12513
G1 X136.632 Y129.02 E-.03787
G1 X136.948 Y129.02 E-.07297
G1 X137.061 Y128.913 E-.03593
G1 X137.08 Y128.381 E-.12292
;WIPE_END
G1 E-.53024 F2100
G1 Z.4 F720
G1 X137.36 Y130.071 F10800
G1 Z.2 F720
G1 E1 F1500
M204 S800
;TYPE:Support material interface
;WIDTH:0.55
G1 F1200
G1 X137.535 Y130.071 E.00738
G1 X137.535 Y129.26 E.03419
G1 X137.179 Y129.599 E.02073
G1 X137.106 Y129.599 E.00308
G1 X137.106 Y130.071 E.0199
G1 X136.299 Y130.071 E.03403
G1 X136.299 Y129.599 E.0199
G1 X135.492 Y129.599 E.03403
G1 X135.492 Y130.071 E.0199
G1 X135.028 Y130.071 E.01956
G1 X135.028 Y129.599 E.0199
G1 X135.238 Y129.599 E.00885
M204 S1000
;WIPE_START
G1 F8640
G1 X135.028 Y129.599 E-.04849
G1 X135.028 Y130.071 E-.10899
G1 X135.492 Y130.071 E-.10714
G1 X135.492 Y129.599 E-.10899
G1 X136.299 Y129.599 E-.18634
G1 X136.299 Y130.071 E-.10899
G1 X137.106 Y130.071 E-.18634
G1 X137.106 Y129.599 E-.10899
G1 X137.179 Y129.599 E-.01686
G1 X137.238 Y129.543 E-.01887
;WIPE_END
G1 Z.4 F720
G1 X142.971 Y132.999 F10800
G1 Z.2 F720
G1 E1 F1500
M204 S800
;TYPE:Support material
;WIDTH:0.65
G1 F1200
G1 X135.114 Y132.999 E.39661
G1 X135.114 Y130.649 E.11863
G1 X138.114 Y130.649 E.15144
G1 X138.114 Y121.971 E.43806
G1 X137.08 Y121.971 E.0522
G1 X137.08 Y125.019 E.15386
G1 X136.92 Y125.142 E.01019
G1 X136.683 Y125.075 E.01243
G1 X136.66 Y105.832 E.97137
G1 X136.683 Y91.925 E.70201
G1 X136.929 Y91.864 E.01279
G1 X137.08 Y91.981 E.00964
G1 X137.08 Y93.043 E.05361
G1 X138.114 Y93.043 E.0522
G1 X138.114 Y79.351 E.69116
G1 X134.45 Y79.351 E.18495
G1 X134.45 Y80.33 E.04942
G1 X129.593 Y80.33 E.24518
G1 X129.593 Y77.001 E.16804
G1 X142.971 Y77.001 E.67531
G1 X142.971 Y132.908 E2.82212
M204 S1000
M73 Q2 S25
G1 X141.863 Y132.726 F10800
M204 S800
M73 P2 R25
G1 F1200
G1 X141.863 Y77.547 E2.78537
G1 X141.189 Y77.547 E.03402
G1 X141.189 Y132.453 E2.77159
G1 X140.514 Y132.453 E.03407
G1 X140.514 Y77.547 E2.77159
G1 X139.84 Y77.547 E.03402
G1 X139.84 Y132.453 E2.77159
G1 X139.165 Y132.453 E.03407
G1 X139.165 Y77.547 E2.77159
G1 X138.491 Y77.547 E.03402
M73 P3 R25
M73 Q3 S25
G1 X138.491 Y132.453 E2.77159
G1 X137.816 Y132.453 E.03407
G1 X137.816 Y131.196 E.06345
G1 X137.142 Y131.196 E.03402
G1 X137.142 Y132.453 E.06345
G1 X136.467 Y132.453 E.03407
G1 X136.467 Y131.196 E.06345
G1 X135.793 Y131.196 E.03402
G1 X135.793 Y132.726 E.07723
M204 S1000
;WIPE_START
G1 F8640
G1 X135.793 Y131.196 E-.35328
G1 X136.467 Y131.196 E-.15563
G1 X136.467 Y132.453 E-.29024
M73 P3 R24
G1 X137.142 Y132.453 E-.15586
G1 X137.142 Y132.258 E-.04499
;WIPE_END
G1 Z.4 F720
G1 X137.816 Y121.698 F10800
G1 Z.2 F720
G1 E1 F1500
M204 S800
G1 F1200
G1 X137.816 Y93.316 E1.43269
M204 S1000
G1 X137.816 Y79.077 F10800
M204 S800
G1 F1200
G1 X137.816 Y77.547 E.07723
G1 X137.142 Y77.547 E.03402
G1 X137.142 Y78.804 E.06345
G1 X136.467 Y78.804 E.03407
G1 X136.467 Y77.547 E.06345
G1 X135.793 Y77.547 E.03402
G1 X135.793 Y78.804 E.06345
G1 X135.118 Y78.804 E.03407
G1 X135.118 Y77.547 E.06345
G1 X134.443 Y77.547 E.03407
G1 X134.443 Y78.804 E.06345
G1 X133.903 Y78.804 E.02726
G1 X133.903 Y79.784 E.04947
G1 X133.769 Y79.784 E.00676
G1 X133.769 Y77.547 E.11292
G1 X133.094 Y77.547 E.03407
G1 X133.094 Y79.784 E.11292
G1 X132.42 Y79.784 E.03402
G1 X132.42 Y77.547 E.11292
G1 X131.745 Y77.547 E.03407
G1 X131.745 Y79.784 E.11292
G1 X131.071 Y79.784 E.03402
G1 X131.071 Y77.547 E.11292
G1 X130.396 Y77.547 E.03407
G1 X130.396 Y80.057 E.1267
M204 S1000
;WIPE_START
G1 F8640
G1 X130.396 Y77.547 E-.57957
G1 X131.071 Y77.547 E-.15586
G1 X131.071 Y78.693 E-.26457
;WIPE_END
G1 Z.4 F720
G1 X121.652 Y125.706 F10800
G1 Z.2 F720
G1 E1 F1500
M204 S800
G1 F1200
G1 X121.818 Y125.742 E.00857
G1 X121.976 Y125.805 E.00859
G1 X122.121 Y125.894 E.00859
G1 X122.248 Y126.007 E.00858
G1 X122.355 Y126.139 E.00858
G1 X122.438 Y126.287 E.00857
G1 X122.495 Y126.448 E.00862
G1 X122.523 Y126.615 E.00855
G1 X122.523 Y126.785 E.00858
G1 X122.495 Y126.952 E.00855
G1 X122.438 Y127.113 E.00862
G1 X122.355 Y127.261 E.00857
G1 X122.248 Y127.393 E.00858
G1 X122.121 Y127.506 E.00858
G1 X121.976 Y127.595 E.00859
G1 X121.818 Y127.658 E.00859
G1 X121.652 Y127.694 E.00857
G1 X121.482 Y127.701 E.00859
G1 X121.314 Y127.679 E.00855
G1 X121.151 Y127.63 E.00859
G1 X121 Y127.553 E.00856
G1 X120.863 Y127.452 E.00859
G1 X120.745 Y127.329 E.0086
G1 X120.65 Y127.189 E.00854
G1 X120.58 Y127.034 E.00859
G1 X120.537 Y126.869 E.00861
G1 X120.523 Y126.7 E.00856
G1 X120.537 Y126.531 E.00856
G1 X120.58 Y126.366 E.00861
G1 X120.65 Y126.211 E.00859
G1 X120.745 Y126.071 E.00854
G1 X120.863 Y125.948 E.0086
G1 X121 Y125.847 E.00859
G1 X121.151 Y125.77 E.00856
G1 X121.314 Y125.721 E.00859
G1 X121.561 Y125.702 E.01251
M204 S1000
G1 X121.627 Y127.42 F10800
M204 S800
G1 F1200
G1 X121.627 Y125.98 E.07269
M204 S1000
;WIPE_START
G1 F8640
G1 X121.627 Y127.42 E-.3325
;WIPE_END
G1 E-.6675 F2100
G1 Z.4 F720
G1 X110.205 Y126.295 F10800
G1 Z.2 F720
G1 E1 F1500
M204 S800
G1 F1200
G1 X110.205 Y127.649 E.06835
G1 X110.655 Y128.135 E.03343
G1 X118.113 Y128.707 E.37758
G1 X118.149 Y128.884 E.00912
G1 X118.21 Y129.045 E.00869
G1 X118.296 Y129.193 E.00864
G1 X118.404 Y129.327 E.00869
G1 X118.531 Y129.443 E.00868
G1 X118.675 Y129.537 E.00868
G1 X118.832 Y129.607 E.00868
G1 X119.062 Y129.662 E.01194
G1 X127.928 Y129.67 E.44755
G1 X127.928 Y132.999 E.16804
G1 X109.536 Y132.999 E.92841
G1 X109.536 Y126.244 E.34098
G1 X110.114 Y126.288 E.02926
M204 S1000
;WIPE_START
G1 F8640
G1 X109.536 Y126.244 E-.13385
G1 X109.536 Y129.995 E-.86615
;WIPE_END
G1 Z.4 F720
G1 X127.024 Y132.726 F10800
G1 Z.2 F720
G1 E1 F1500
M204 S800
G1 F1200
G1 X127.024 Y130.216 E.1267
G1 X126.349 Y130.216 E.03407
G1 X126.349 Y132.453 E.11292
G1 X125.675 Y132.453 E.03402
G1 X125.675 Y130.216 E.11292
G1 X125 Y130.216 E.03407
G1 X125 Y132.453 E.11292
G1 X124.325 Y132.453 E.03407
G1 X124.325 Y130.216 E.11292
G1 X123.651 Y130.216 E.03402
G1 X123.651 Y132.453 E.11292
G1 X122.976 Y132.453 E.03407
G1 X122.976 Y130.216 E.11292
G1 X122.302 Y130.216 E.03402
G1 X122.302 Y132.453 E.11292
G1 X121.627 Y132.453 E.03407
G1 X121.627 Y130.216 E.11292
G1 X120.953 Y130.216 E.03402
G1 X120.953 Y132.453 E.11292
G1 X120.278 Y132.453 E.03407
G1 X120.278 Y130.216 E.11292
G1 X119.604 Y130.216 E.03402
G1 X119.604 Y132.453 E.11292
G1 X118.929 Y132.453 E.03407
G1 X118.929 Y130.194 E.11403
G1 X118.644 Y130.12 E.01486
G1 X118.409 Y130.014 E.01301
G1 X118.255 Y129.917 E.00919
G1 X118.255 Y132.453 E.12801
G1 X117.58 Y132.453 E.03407
M73 P4 R24
G1 X117.58 Y129.214 E.1635
G1 X116.906 Y129.163 E.03412
M73 Q4 S25
G1 X116.906 Y132.453 E.16608
G1 X116.231 Y132.453 E.03407
G1 X116.231 Y129.111 E.1687
G1 X115.557 Y129.059 E.03412
G1 X115.557 Y132.453 E.17133
G1 X114.882 Y132.453 E.03407
G1 X114.882 Y129.007 E.17395
G1 X114.207 Y128.955 E.03417
G1 X114.207 Y132.453 E.17658
G1 X113.533 Y132.453 E.03402
G1 X113.533 Y128.904 E.17915
G1 X112.858 Y128.852 E.03417
G1 X112.858 Y132.453 E.18177
G1 X112.184 Y132.453 E.03402
G1 X112.184 Y128.8 E.1844
G1 X111.509 Y128.748 E.03417
G1 X111.509 Y132.453 E.18702
G1 X110.835 Y132.453 E.03402
G1 X110.835 Y128.696 E.18965
G1 X110.4 Y128.663 E.02202
G1 X110.16 Y128.405 E.01779
G1 X110.16 Y132.726 E.21812
M204 S1000
;WIPE_START
G1 F8640
G1 X110.16 Y128.405 E-.99773
G1 X110.167 Y128.412 E-.00227
;WIPE_END
G1 Z.4 F720
G1 X133.861 Y88.99 F10800
G1 Z.2 F720
G1 E1 F1500
M204 S800
;TYPE:Perimeter
;WIDTH:0.649999
G1 F1200
G1 X133.645 Y89.331 E.02038
G1 X133.468 Y89.81 E.02578
G1 X133.404 Y90.359 E.0279
G1 X133.452 Y90.874 E.02611
G1 X133.591 Y91.364 E.02571
G1 X133.811 Y91.82 E.02556
G1 X134.129 Y92.253 E.02712
G1 X134.706 Y92.764 E.03891
G1 X134.706 Y124.236 E1.58867
G1 X134.522 Y124.371 E.01152
G1 X134.129 Y124.747 E.02746
G1 X133.811 Y125.18 E.02712
G1 X133.591 Y125.636 E.02556
G1 X133.452 Y126.127 E.02576
G1 X133.406 Y126.648 E.0264
G1 X133.473 Y127.194 E.02777
G1 X133.706 Y127.774 E.03155
G1 X133.402 Y127.728 E.01552
G1 X132.861 Y127.698 E.02735
G1 X126.026 Y127.694 E.34502
G1 X124.911 Y127.713 E.05629
G1 X124.193 Y127.775 E.03638
G1 X124.301 Y127.596 E.01055
G1 X124.447 Y127.121 E.02508
