; generated by PrusaSlicer 2.6.0+win64 on 2023-09-01 at 15:15:31 UTC


;
;
; 

; external perimeters extrusion width = 0.65mm
; perimeters extrusion width = 0.65mm
; infill extrusion width = 0.65mm
; solid infill extrusion width = 0.65mm
; top infill extrusion width = 0.60mm
; support material extrusion width = 0.55mm
; first layer extrusion width = 0.65mm

M73 P0 R44
M73 Q0 S45
M201 X1000 Y1000 Z200 E5000 ; sets maximum accelerations, mm/sec^2
M203 X200 Y200 Z12 E120 ; sets maximum feedrates, mm / sec
M204 S1250 T1250 ; sets acceleration (S) and retract acceleration (R), mm/sec^2
M205 X8.00 Y8.00 Z0.40 E4.50 ; sets the jerk limits, mm/sec
M205 S0 T0 ; sets the minimum extruding and travel feed rate, mm/sec
;TYPE:Custom
M862.3 P "MK3S" ; printer model check
M862.1 P0.6 ; nozzle diameter check
M115 U3.12.2 ; tell printer latest fw version
G90 ; use absolute coordinates
M83 ; extruder relative mode
M104 S240 ; set extruder temp
M140 S85 ; set bed temp
M190 S85 ; wait for bed temp
M109 S240 ; wait for extruder temp
G28 W ; home all without mesh bed level
G80 ; mesh bed leveling

G1 Z0.2 F720
G1 Y-3 F1000 ; go outside print area
G92 E0
G1 X60 E9 F1000 ; intro line
G1 X100 E12.5 F1000 ; intro line

G92 E0
M221 S95
G21 ; set units to millimeters
G90 ; use absolute coordinates
M83 ; use relative distances for extrusion
M900 K0.04 ; Filament gcode LA 1.5
M900 K24 ; Filament gcode LA 1.0
M107
;LAYER_CHANGE
;Z:0.2
;HEIGHT:0.2
;BEFORE_LAYER_CHANGE
G92 E0.0
;0.2


G1 E-1 F2100
G1 Z.2 F720
;AFTER_LAYER_CHANGE
;0.2
G1 Z.4
G1 X114.942 Y70.659 F10800
G1 Z.2 F720
G1 E1 F1500
M204 S800
;TYPE:Skirt/Brim
;WIDTH:0.65
G1 F1200
G1 X120.239 Y62.805 E.4782
G1 X122.725 Y60.319 E.17747
G1 X124.568 Y59.556 E.10069
G1 X137.86 Y59.556 E.67097
G1 X139.704 Y60.319 E.10074
G1 X144.675 Y65.291 E.3549
G1 X145.439 Y67.134 E.10071
G1 X145.437 Y80.523 E.67586
G1 X142.951 Y147.635 E3.39006
G1 X142.508 Y148.995 E.0722
G1 X141.415 Y149.916 E.07215
G1 X140.346 Y150.145 E.05519
G1 X129.539 Y150.145 E.54553
G1 X128.373 Y149.87 E.06047
G1 X118.431 Y144.899 E.5611
G1 X117.753 Y144.41 E.0422
G1 X110.297 Y136.954 E.53227
G1 X109.719 Y136.078 E.05298
G1 X104.748 Y123.65 E.67567
G1 X104.562 Y122.682 E.04976
G1 X104.562 Y101.933 E1.04739
G1 X104.64 Y101.301 E.03214
G1 X107.181 Y91.166 E.52744
G1 X109.719 Y83.565 E.40451
G1 X114.691 Y71.137 E.67569
G1 X114.9 Y70.739 E.02269
M204 S1000
; printing object Right_Gripper_rev2 id:0 copy 0
;WIPE_START
G1 F8640
G1 X117.318 Y67.146 E-1
;WIPE_END
G1 Z.4 F720
G1 X132.435 Y70.12 F10800
G1 Z.2 F720
G1 E1 F1500
M204 S800
;TYPE:Support material
G1 F1200
G1 X132.936 Y70.25 E.02613
G1 X133.408 Y70.463 E.02614
G1 X133.837 Y70.753 E.02614
G1 X134.21 Y71.112 E.02613
G1 X134.518 Y71.528 E.02613
G1 X134.751 Y71.99 E.02612
G1 X134.903 Y72.485 E.02614
G1 X134.968 Y72.998 E.0261
G1 X134.946 Y73.516 E.02617
G1 X134.835 Y74.034 E.02674
G1 X134.718 Y74.354 E.0172
G1 X128.268 Y89.378 E.82533
G1 X128.143 Y89.611 E.01335
G1 X128.003 Y89.79 E.01147
G1 X127.834 Y89.943 E.01151
G1 X127.641 Y90.064 E.0115
G1 X127.43 Y90.151 E.01152
G1 X127.208 Y90.2 E.01148
G1 X126.98 Y90.21 E.01152
G1 X126.754 Y90.181 E.0115
G1 X126.537 Y90.113 E.01148
G1 X126.334 Y90.01 E.01149
G1 X126.152 Y89.873 E.0115
G1 X125.996 Y89.706 E.01154
G1 X125.871 Y89.516 E.01148
G1 X125.781 Y89.307 E.01149
G1 X125.728 Y89.085 E.01152
G1 X125.713 Y88.858 E.01148
G1 X125.742 Y88.595 E.01336
G1 X128.926 Y72.516 E.82741
G1 X129.087 Y71.99 E.02777
G1 X129.32 Y71.528 E.02612
G1 X129.628 Y71.112 E.02613
G1 X130.002 Y70.753 E.02617
G1 X130.431 Y70.463 E.02614
G1 X130.903 Y70.25 E.02614
G1 X131.403 Y70.12 E.02608
G1 X131.919 Y70.076 E.02614
G1 X132.344 Y70.112 E.02153
M204 S1000
G1 X133.769 Y75.871 F10800
M204 S800
G1 F1200
G1 X133.769 Y71.445 E.22342
G1 X133.492 Y71.18 E.01935
G1 X133.095 Y70.922 E.0239
G1 X133.095 Y76.75 E.29419
G1 X132.42 Y78.321 E.08631
G1 X132.42 Y70.681 E.38566
G1 X131.919 Y70.624 E.02545
G1 X131.746 Y70.639 E.00877
G1 X131.746 Y79.892 E.46708
G1 X131.071 Y81.464 E.08636
M73 Q0 S44
G1 X131.071 Y70.774 E.53962
G1 X130.698 Y70.942 E.02065
G1 X130.396 Y71.146 E.0184
G1 X130.396 Y83.035 E.60014
G1 X129.722 Y84.606 E.08629
G1 X129.722 Y71.945 E.63911
G1 X129.596 Y72.194 E.01409
G1 X129.456 Y72.651 E.02413
G1 X129.047 Y74.716 E.10626
G1 X129.047 Y86.178 E.57859
G1 X128.373 Y87.749 E.08629
G1 X128.373 Y78.123 E.48591
G1 X127.698 Y81.53 E.17532
G1 X127.698 Y89.285 E.39146
G1 X127.602 Y89.416 E.0082
G1 X127.39 Y89.577 E.01344
G1 X127.267 Y89.627 E.0067
G1 X127.024 Y89.661 E.01239
G1 X127.024 Y84.936 E.23851
G1 X126.349 Y88.343 E.17532
M73 P1 R44
M73 Q1 S44
G1 X126.349 Y89.679 E.06744
M204 S1000
;WIPE_START
G1 F8640
G1 X126.349 Y88.343 E-.30849
G1 X126.931 Y85.405 E-.69151
;WIPE_END
G1 Z.4 F720
G1 X137.86 Y64.649 F10800
G1 Z.2 F720
G1 E1 F1500
M204 S800
G1 F1200
G1 X140.346 Y64.649 E.12549
G1 X140.346 Y67.134 E.12544
G1 X142.832 Y67.134 E.12549
G1 X142.832 Y80.426 E.67097
G1 X140.346 Y80.426 E.12549
G1 X140.346 Y82.912 E.12549
G1 X137.86 Y82.912 E.12549
G1 X137.86 Y85.398 E.12549
G1 X135.375 Y85.398 E.12544
G1 X135.375 Y90.369 E.25093
G1 X131.838 Y90.369 E.17854
G1 X132.314 Y89.301 E.05902
G1 X132.289 Y88.888 E.02089
G1 X131.922 Y88.277 E.03598
G1 X132.622 Y88.141 E.036
G1 X132.946 Y87.884 E.02088
G1 X138.283 Y75.906 E.66194
G1 X138.657 Y74.814 E.05827
G1 X138.844 Y73.657 E.05916
G1 X138.841 Y72.556 E.05558
G1 X138.646 Y71.4 E.05918
G1 X138.23 Y70.228 E.06278
G1 X137.653 Y69.209 E.05911
G1 X136.912 Y68.3 E.0592
G1 X136.029 Y67.529 E.05917
G1 X135.029 Y66.918 E.05916
G1 X134.009 Y66.505 E.05555
G1 X132.865 Y66.248 E.05919
G1 X131.624 Y66.189 E.06272
G1 X130.461 Y66.338 E.05919
G1 X129.406 Y66.653 E.05558
G1 X128.353 Y67.168 E.05917
G1 X127.402 Y67.853 E.05916
G1 X126.534 Y68.742 E.06272
G1 X125.909 Y69.648 E.05556
G1 X125.409 Y70.709 E.05921
G1 X125.092 Y71.856 E.06007
G1 X118.406 Y108.251 E1.86792
G1 X118.051 Y111.119 E.14588
G1 X118.034 Y114.046 E.14775
G1 X118.361 Y116.954 E.14772
G1 X119.079 Y120.002 E.15807
G1 X119.14 Y120.351 E.01788
G1 X119.704 Y121.915 E.08393
G1 X120.461 Y123.628 E.09454
G1 X120.461 Y124.303 E.03407
G1 X120.82 Y124.303 E.01812
G1 X121.305 Y125.214 E.0521
G1 X122.256 Y126.728 E.09025
G1 X123.275 Y128.126 E.08733
G1 X123.583 Y128.425 E.02167
G1 X125.529 Y130.545 E.14526
G1 X127.65 Y132.385 E.14174
G1 X129.965 Y133.974 E.14174
G1 X132.445 Y135.292 E.14177
G1 X135.451 Y136.476 E.16309
G1 X136.189 Y135.973 E.04508
G1 X136.189 Y134.246 E.08718
G1 X137.86 Y134.246 E.08435
G1 X137.86 Y136.732 E.12549
G1 X140.346 Y136.732 E.12549
G1 X140.346 Y147.538 E.54547
G1 X129.539 Y147.538 E.54553
G1 X129.539 Y145.053 E.12544
G1 X124.568 Y145.053 E.25093
G1 X124.568 Y142.567 E.12549
G1 X119.597 Y142.567 E.25093
G1 X119.597 Y140.081 E.12549
G1 X117.111 Y140.081 E.12549
G1 X117.111 Y137.596 E.12544
G1 X114.626 Y137.596 E.12544
G1 X114.626 Y135.11 E.12549
G1 X112.14 Y135.11 E.12549
G1 X112.14 Y127.653 E.37642
G1 X109.654 Y127.653 E.12549
G1 X109.654 Y122.682 E.25093
G1 X107.169 Y122.682 E.12544
G1 X107.169 Y101.933 E1.04739
G1 X109.654 Y101.933 E.12544
G1 X109.654 Y91.99 E.50191
G1 X112.14 Y91.99 E.12549
G1 X112.14 Y84.533 E.37642
G1 X114.626 Y84.533 E.12549
G1 X114.626 Y79.562 E.25093
G1 X117.111 Y79.562 E.12544
G1 X117.111 Y72.105 E.37642
G1 X119.597 Y72.105 E.12549
G1 X119.597 Y69.62 E.12544
G1 X122.082 Y69.62 E.12544
G1 X122.082 Y64.649 E.25093
G1 X124.568 Y64.649 E.12549
G1 X124.568 Y62.163 E.12549
G1 X137.86 Y62.163 E.67097
G1 X137.86 Y64.557 E.12085
M204 S1000
G1 X141.863 Y80.153 F10800
M204 S800
G1 F1200
G1 X141.863 Y67.681 E.62957
G1 X141.189 Y67.681 E.03402
G1 X141.189 Y79.88 E.61579
G1 X140.514 Y79.88 E.03407
G1 X140.514 Y67.681 E.61579
G1 X139.84 Y67.681 E.03402
G1 X139.84 Y79.88 E.61579
G1 X139.8 Y79.88 E.00202
G1 X139.8 Y82.366 E.12549
G1 X139.165 Y82.366 E.03205
G1 X139.165 Y65.195 E.86677
G1 X138.491 Y65.195 E.03402
G1 X138.491 Y69.575 E.2211
G1 X138.158 Y68.981 E.03437
G1 X137.816 Y68.541 E.02813
G1 X137.816 Y65.195 E.1689
G1 X137.314 Y65.195 E.02534
G1 X137.314 Y62.709 E.12549
G1 X137.142 Y62.709 E.00868
G1 X137.142 Y67.774 E.25568
G1 X136.467 Y67.179 E.04542
G1 X136.467 Y62.709 E.22564
G1 X135.793 Y62.709 E.03402
G1 X135.793 Y66.741 E.20353
G1 X135.361 Y66.473 E.02566
G1 X135.118 Y66.365 E.01342
G1 X135.118 Y62.709 E.18455
G1 X134.444 Y62.709 E.03402
G1 X134.444 Y66.091 E.17072
G1 X134.08 Y65.955 E.01961
G1 X133.769 Y65.886 E.01608
G1 X133.769 Y62.709 E.16037
G1 X133.095 Y62.709 E.03402
G1 X133.095 Y65.738 E.1529
G1 X132.843 Y65.693 E.01292
G1 X132.42 Y65.674 E.02137
G1 X132.42 Y62.709 E.14967
G1 X131.746 Y62.709 E.03402
G1 X131.746 Y65.642 E.14805
G1 X131.58 Y65.644 E.00838
G1 X131.071 Y65.706 E.02588
G1 X131.071 Y62.709 E.15129
G1 X130.396 Y62.709 E.03407
G1 X130.396 Y65.793 E.15568
G1 X129.722 Y65.989 E.03543
M73 P1 R43
G1 X129.722 Y62.709 E.16557
G1 X129.047 Y62.709 E.03407
G1 X129.047 Y66.215 E.17698
G1 X128.373 Y66.549 E.03797
G1 X128.373 Y62.709 E.19384
G1 X127.698 Y62.709 E.03407
G1 X127.698 Y66.961 E.21464
G1 X127.024 Y67.457 E.04224
G1 X127.024 Y62.709 E.23967
G1 X126.349 Y62.709 E.03407
G1 X126.349 Y68.141 E.2742
G1 X126.097 Y68.413 E.01872
G1 X125.675 Y69.025 E.03753
G1 X125.675 Y62.709 E.31882
G1 X125.114 Y62.709 E.02832
G1 X125.114 Y65.195 E.12549
M73 P2 R43
G1 X125 Y65.195 E.00575
G1 X125 Y70.292 E.25729
G1 X124.863 Y70.61 E.01748
M73 Q2 S44
G1 X124.57 Y71.688 E.05639
G1 X124.326 Y73.002 E.06746
G1 X124.326 Y65.195 E.39409
G1 X123.651 Y65.195 E.03407
G1 X123.651 Y76.674 E.57945
G1 X122.977 Y80.346 E.18846
G1 X122.977 Y65.195 E.76481
G1 X122.629 Y65.195 E.01757
G1 X122.629 Y70.166 E.25093
G1 X122.302 Y70.166 E.01651
G1 X122.302 Y84.018 E.69923
G1 X121.628 Y87.69 E.18846
G1 X121.628 Y70.166 E.88459
G1 X120.953 Y70.166 E.03407
G1 X120.953 Y91.362 E1.06995
G1 X120.278 Y95.034 E.18846
G1 X120.278 Y70.166 E1.25531
G1 X120.143 Y70.166 E.00681
G1 X120.143 Y72.652 E.12549
G1 X119.604 Y72.652 E.02721
G1 X119.604 Y98.705 E1.31513
G1 X118.929 Y102.377 E.18846
G1 X118.929 Y72.652 E1.50048
G1 X118.255 Y72.652 E.03402
G1 X118.255 Y107.561 E1.76217
M204 S1000
;WIPE_START
G1 F8640
G1 X118.255 Y103.23 E-1
;WIPE_END
G1 Z.4 F720
G1 X139.165 Y147.265 F10800
G1 Z.2 F720
G1 E1 F1500
M204 S800
G1 F1200
G1 X139.165 Y137.278 E.50413
G1 X138.491 Y137.278 E.03402
G1 X138.491 Y146.992 E.49035
G1 X137.816 Y146.992 E.03407
G1 X137.816 Y137.278 E.49035
G1 X137.314 Y137.278 E.02534
G1 X137.314 Y134.792 E.12549
G1 X137.142 Y134.792 E.00868
G1 X137.142 Y146.992 E.61584
G1 X136.467 Y146.992 E.03407
G1 X136.467 Y136.444 E.53245
G1 X135.793 Y136.904 E.04119
G1 X135.793 Y146.992 E.50923
G1 X135.118 Y146.992 E.03407
G1 X135.118 Y136.932 E.50782
G1 X134.444 Y136.667 E.03656
G1 X134.444 Y146.992 E.52119
G1 X133.769 Y146.992 E.03407
G1 X133.769 Y136.402 E.53457
G1 X133.095 Y136.137 E.03656
G1 X133.095 Y146.992 E.54795
G1 X132.42 Y146.992 E.03407
G1 X132.42 Y135.872 E.56133
G1 X132.203 Y135.782 E.01186
G1 X131.746 Y135.539 E.02613
G1 X131.746 Y146.992 E.57813
G1 X131.071 Y146.992 E.03407
G1 X131.071 Y135.182 E.59616
G1 X130.396 Y134.824 E.03857
G1 X130.396 Y146.992 E.61423
G1 X130.086 Y146.992 E.01565
G1 X130.086 Y144.506 E.12549
G1 X129.722 Y144.506 E.01837
G1 X129.722 Y134.466 E.50681
G1 X129.047 Y134.008 E.04118
G1 X129.047 Y144.506 E.52993
G1 X128.373 Y144.506 E.03402
G1 X128.373 Y133.546 E.55325
G1 X127.698 Y133.084 E.04129
G1 X127.698 Y144.506 E.57657
G1 X127.024 Y144.506 E.03402
G1 X127.024 Y132.566 E.60272
G1 X126.349 Y131.982 E.04506
G1 X126.349 Y144.506 E.6322
G1 X125.675 Y144.506 E.03402
G1 X125.675 Y131.398 E.66168
G1 X125.194 Y130.981 E.03213
G1 X125 Y130.777 E.01421
G1 X125 Y142.021 E.56758
G1 X124.326 Y142.021 E.03402
G1 X124.326 Y130.045 E.60453
G1 X123.651 Y129.312 E.0503
M73 P3 R43
G1 X123.651 Y142.021 E.64154
G1 X122.977 Y142.021 E.03402
M73 Q3 S44
G1 X122.977 Y128.603 E.67733
G1 X122.857 Y128.48 E.00867
G1 X122.302 Y127.725 E.0473
G1 X122.302 Y142.021 E.72165
G1 X121.628 Y142.021 E.03402
M73 Q3 S43
G1 X121.628 Y126.754 E.77066
G1 X120.953 Y125.681 E.06399
G1 X120.953 Y142.021 E.82482
G1 X120.278 Y142.021 E.03407
G1 X120.278 Y124.85 E.86677
G1 X119.915 Y124.85 E.01832
G1 X119.914 Y123.746 E.05573
G1 X119.604 Y123.044 E.03874
G1 X119.604 Y139.535 E.83245
G1 X118.929 Y139.535 E.03407
G1 X118.929 Y121.388 E.91604
G1 X118.615 Y120.507 E.04721
G1 X118.544 Y120.114 E.02016
G1 X118.255 Y118.902 E.0629
G1 X118.255 Y139.535 E1.04153
G1 X117.658 Y139.535 E.03014
G1 X117.658 Y137.049 E.12549
G1 X117.58 Y137.049 E.00394
G1 X117.58 Y80.109 E2.87427
G1 X116.906 Y80.109 E.03402
G1 X116.906 Y137.049 E2.87427
G1 X116.231 Y137.049 E.03407
G1 X116.231 Y80.109 E2.87427
G1 X115.557 Y80.109 E.03402
G1 X115.557 Y137.049 E2.87427
G1 X115.172 Y137.049 E.01943
G1 X115.172 Y134.564 E.12544
G1 X114.882 Y134.564 E.01464
G1 X114.882 Y85.08 E2.4979
G1 X114.208 Y85.08 E.03402
G1 X114.208 Y134.564 E2.4979
G1 X113.533 Y134.564 E.03407
G1 X113.533 Y85.08 E2.4979
G1 X112.859 Y85.08 E.03402
M73 P4 R43
G1 X112.859 Y134.564 E2.4979
G1 X112.686 Y134.564 E.00873
M73 Q4 S43
G1 X112.686 Y127.107 E.37642
G1 X112.184 Y127.107 E.02534
G1 X112.184 Y92.537 E1.74505
G1 X111.51 Y92.537 E.03402
M73 P4 R42
G1 X111.51 Y127.107 E1.74505
G1 X110.835 Y127.107 E.03407
G1 X110.835 Y92.537 E1.74505
G1 X110.201 Y92.537 E.032
G1 X110.201 Y102.479 E.50186
G1 X110.16 Y102.479 E.00207
G1 X110.16 Y122.136 E.99226
G1 X109.486 Y122.136 E.03402
G1 X109.486 Y102.479 E.99226
G1 X108.811 Y102.479 E.03407
G1 X108.811 Y122.136 E.99226
G1 X108.137 Y122.136 E.03402
G1 X108.137 Y102.206 E1.00604
M204 S1000
;WIPE_START
G1 F8640
G1 X108.137 Y106.537 E-1
;WIPE_END
G1 Z.4 F720
G1 X138.491 Y82.639 F10800
G1 Z.2 F720
G1 E1 F1500
M204 S800
G1 F1200
G1 X138.491 Y76.785 E.2955
G1 X137.816 Y78.299 E.08368
G1 X137.816 Y82.366 E.2053
G1 X137.314 Y82.366 E.02534
G1 X137.314 Y84.851 E.12544
G1 X137.142 Y84.851 E.00868
G1 X137.142 Y79.812 E.25436
G1 X136.467 Y81.326 E.08368
G1 X136.467 Y84.851 E.17794
G1 X135.793 Y84.851 E.03402
G1 X135.793 Y82.839 E.10156
G1 X135.118 Y84.352 E.08363
G1 X135.118 Y85.125 E.03902
M204 S1000
G1 X134.444 Y90.096 F10800
M204 S800
G1 F1200
G1 X134.444 Y85.866 E.21353
G1 X133.769 Y87.379 E.08363
G1 X133.769 Y89.823 E.12337
G1 X133.095 Y89.823 E.03402
G1 X133.095 Y88.115 E.08622
M204 S1000
;WIPE_START
G1 F8640
G1 X133.095 Y89.823 E-.39438
G1 X133.769 Y89.823 E-.15563
G1 X133.769 Y87.874 E-.44999
;WIPE_END
G1 Z.4 F720
G1 X127.986 Y92.052 F10800
G1 Z.2 F720
G1 E1 F1500
M204 S800
;TYPE:Perimeter
;WIDTH:0.693636
G1 F1200
G1 X127.718 Y92.336 E.02113
;WIDTH:0.660239
G1 X127.461 Y92.882 E.03098
;WIDTH:0.649999
G1 X127.24 Y93.457 E.0311
G1 X127.246 Y93.772 E.0159
G1 X127.359 Y94.065 E.01585
G1 X127.677 Y94.596 E.03124
G1 X127.07 Y94.714 E.03121
G1 X126.776 Y94.826 E.01588
G1 X126.646 Y94.92 E.0081
G1 X126.411 Y95.237 E.01992
G1 X126.023 Y96.172 E.0511
G1 X126.025 Y96.512 E.01716
G1 X126.137 Y96.805 E.01583
G1 X126.456 Y97.336 E.03127
G1 X125.848 Y97.454 E.03126
G1 X125.555 Y97.566 E.01583
G1 X125.425 Y97.66 E.0081
G1 X125.19 Y97.977 E.01992
G1 X124.801 Y98.912 E.05112
G1 X124.79 Y99.157 E.01238
G1 X124.916 Y99.545 E.02059
G1 X125.235 Y100.076 E.03127
G1 X124.627 Y100.194 E.03126
G1 X124.254 Y100.36 E.02061
G1 X123.969 Y100.717 E.02306
G1 X123.58 Y101.652 E.05112
G1 X123.581 Y101.986 E.01686
G1 X123.691 Y102.28 E.01585
G1 X124.014 Y102.817 E.03163
G1 X123.406 Y102.939 E.0313
G1 X123.104 Y103.054 E.01631
G1 X122.741 Y103.468 E.02779
G1 X122.4 Y104.248 E.04297
G1 X122.344 Y104.59 E.01749
G1 X122.476 Y105.037 E.02353
G1 X122.876 Y105.695 E.03887
G1 X122.152 Y105.957 E.03887
G1 X121.778 Y106.212 E.02285
;WIDTH:0.689837
G1 X121.693 Y106.328 E.00774
;WIDTH:0.729675
G1 X121.609 Y106.444 E.00818
;WIDTH:0.769512
G1 X121.525 Y106.56 E.00865
G1 X121.296 Y107.576 E.06292
;WIDTH:0.74446
G1 X121.345 Y107.794 E.01303
;WIDTH:0.694621
G1 X121.555 Y108.168 E.02324
;WIDTH:0.649999
G1 X122.049 Y108.758 E.03884
G1 X121.303 Y109.167 E.04295
;WIDTH:0.693152
G1 X120.881 Y109.82 E.04204
;WIDTH:0.706315
G1 X120.779 Y110.766 E.05249
G1 X120.889 Y111.107 E.01976
;WIDTH:0.657771
G1 X121.113 Y111.4 E.01886
;WIDTH:0.649999
