; generated by PrusaSlicer 2.6.1+win64 on 2023-09-08 at 09:46:13 UTC


;
;
; 

; external perimeters extrusion width = 0.68mm
; perimeters extrusion width = 0.68mm
; infill extrusion width = 0.68mm
; solid infill extrusion width = 0.68mm
; top infill extrusion width = 0.60mm
; support material extrusion width = 0.55mm
; first layer extrusion width = 0.65mm

M73 P0 R164
M73 Q0 S167
M201 X1000 Y1000 Z200 E5000 ; sets maximum accelerations, mm/sec^2
M203 X200 Y200 Z12 E120 ; sets maximum feedrates, mm / sec
M204 S1250 T1250 ; sets acceleration (S) and retract acceleration (R), mm/sec^2
M205 X8.00 Y8.00 Z0.40 E4.50 ; sets the jerk limits, mm/sec
M205 S0 T0 ; sets the minimum extruding and travel feed rate, mm/sec
;TYPE:Custom
M862.3 P "MK3S" ; printer model check
M862.1 P0.6 ; nozzle diameter check
M115 U3.12.2 ; tell printer latest fw version
G90 ; use absolute coordinates
M83 ; extruder relative mode
M104 S240 ; set extruder temp
M140 S85 ; set bed temp
M190 S85 ; wait for bed temp
M109 S240 ; wait for extruder temp
G28 W ; home all without mesh bed level
G80 ; mesh bed leveling

G1 Z0.2 F720
G1 Y-3 F1000 ; go outside print area
G92 E0
G1 X60 E9 F1000 ; intro line
G1 X100 E12.5 F1000 ; intro line

G92 E0
M221 S95
G21 ; set units to millimeters
G90 ; use absolute coordinates
M83 ; use relative distances for extrusion
M900 K0.04 ; Filament gcode LA 1.5
M900 K24 ; Filament gcode LA 1.0
M107
;LAYER_CHANGE
;Z:0.2
;HEIGHT:0.2
;BEFORE_LAYER_CHANGE
G92 E0.0
;0.2


G1 E-1 F2100
G1 Z.2 F720
;AFTER_LAYER_CHANGE
;0.2
G1 Z.4
G1 X44.11 Y20.929 F10800
G1 Z.2 F720
G1 E1 F1500
M204 S800
;TYPE:Skirt/Brim
;WIDTH:0.65
G1 F1200
G1 X44.678 Y20.061 E.05236
G1 X45.852 Y18.884 E.08392
G1 X47.083 Y18.127 E.07295
G1 X48.053 Y17.759 E.05237
G1 X75.065 Y12.902 E1.3854
G1 X142.969 Y12.91 E3.42772
G1 X200.932 Y17.546 E2.93525
G1 X201.945 Y17.757 E.05223
G1 X202.915 Y18.125 E.05237
G1 X204.146 Y18.882 E.07295
G1 X204.912 Y19.58 E.05231
G1 X205.56 Y20.39 E.05236
G1 X206.313 Y21.873 E.08396
G1 X206.585 Y22.873 E.05231
G1 X206.706 Y24.108 E.06264
G1 X206.708 Y187.587 E8.25224
G1 X206.651 Y188.419 E.0421
G1 X206.441 Y189.434 E.05232
G1 X205.89 Y190.768 E.07286
G1 X204.914 Y192.114 E.08393
G1 X204.148 Y192.813 E.05235
G1 X203.282 Y193.383 E.05233
G1 X201.947 Y193.938 E.07298
G1 X200.932 Y194.149 E.05233
G1 X200.101 Y194.206 E.04205
G1 X49.901 Y194.208 E7.58193
G1 X49.07 Y194.151 E.04205
G1 X48.055 Y193.939 E.05234
G1 X46.72 Y193.385 E.07296
G1 X45.376 Y192.406 E.08393
G1 X44.68 Y191.638 E.05232
G1 X44.112 Y190.77 E.05236
G1 X43.561 Y189.436 E.07286
G1 X43.351 Y188.421 E.05232
G1 X43.294 Y187.59 E.04205
G1 X43.292 Y24.11 E8.25229
G1 X43.349 Y23.278 E.0421
M73 Q0 S166
G1 X43.559 Y22.263 E.05232
G1 X44.076 Y21.012 E.06833
M204 S1000
; printing object Roof_rev0-1 id:0 copy 0
;WIPE_START
G1 F8640
G1 X44.678 Y20.061 E-.25989
G1 X45.852 Y18.884 E-.38385
G1 X47.083 Y18.127 E-.33369
G1 X47.174 Y18.092 E-.02257
;WIPE_END
G1 Z.4 F720
G1 X51.929 Y24.099 F10800
G1 Z.2 F720
G1 E1 F1500
M204 S800
;TYPE:Support material interface
;WIDTH:0.55
G1 F1200
G1 X51.762 Y24.016 E.00786
G1 X51.575 Y23.836 E.01094
G1 X51.458 Y23.603 E.01099
G1 X51.426 Y23.371 E.00987
G1 X52.16 Y23.371 E.03095
G1 X52.16 Y24.148 E.03276
G1 X52.19 Y24.15 E.00127
G1 X52.382 Y24.123 E.00818
G1 X52.504 Y24.08 E.00545
G1 X52.719 Y23.934 E.01096
G1 X52.873 Y23.725 E.01095
G1 X52.922 Y23.603 E.00554
G1 X52.935 Y23.371 E.0098
M204 S1000
;WIPE_START
G1 F8640
G1 X52.922 Y23.603 E-.05365
G1 X52.873 Y23.725 E-.03036
G1 X52.719 Y23.934 E-.05994
G1 X52.504 Y24.08 E-.06001
G1 X52.382 Y24.123 E-.02987
G1 X52.19 Y24.15 E-.04477
G1 X52.16 Y24.148 E-.00694
G1 X52.16 Y23.371 E-.17941
G1 X51.426 Y23.371 E-.16948
G1 X51.458 Y23.603 E-.05408
G1 X51.575 Y23.836 E-.0602
G1 X51.762 Y24.016 E-.05993
G1 X51.929 Y24.099 E-.04306
;WIPE_END
G1 E-.1483 F2100
G1 Z.4 F720
G1 X52.398 Y25.786 F10800
G1 Z.2 F720
G1 E1 F1500
M204 S800
G1 F1200
G1 X52.726 Y25.786 E.01383
G1 X52.606 Y25.817 E.00523
G1 X52.19 Y25.853 E.01761
G1 X52.16 Y25.85 E.00127
G1 X52.16 Y25.786 E.0027
G1 X51.653 Y25.786 E.02138
G1 X51.924 Y25.83 E.01158
M204 S1000
;WIPE_START
G1 F8640
G1 X51.653 Y25.786 E-.06339
G1 X52.16 Y25.786 E-.11707
G1 X52.16 Y25.85 E-.01478
G1 X52.19 Y25.853 E-.00696
G1 X52.606 Y25.817 E-.09641
G1 X52.726 Y25.786 E-.02862
G1 X52.398 Y25.786 E-.07574
;WIPE_END
G1 E-.59703 F2100
G1 Z.4 F720
G1 X59.134 Y23.371 F10800
G1 Z.2 F720
G1 E1 F1500
M204 S800
G1 F1200
G1 X59.134 Y23.8 E.01809
G1 X59.157 Y23.836 E.0018
G1 X59.243 Y23.934 E.0055
G1 X59.457 Y24.079 E.0109
G1 X59.579 Y24.123 E.00547
G1 X59.772 Y24.15 E.00822
G1 X59.909 Y24.132 E.00583
G1 X59.909 Y23.371 E.03209
G1 X60.535 Y23.371 E.02639
G1 X60.504 Y23.603 E.00987
G1 X60.455 Y23.725 E.00554
G1 X60.301 Y23.934 E.01095
G1 X60.132 Y24.054 E.00874
M204 S1000
;WIPE_START
G1 F8640
G1 X60.301 Y23.934 E-.04786
G1 X60.455 Y23.725 E-.05994
G1 X60.504 Y23.603 E-.03036
G1 X60.535 Y23.371 E-.05405
G1 X59.909 Y23.371 E-.14455
G1 X59.909 Y24.132 E-.17572
G1 X59.772 Y24.15 E-.03191
G1 X59.579 Y24.123 E-.045
G1 X59.457 Y24.079 E-.02995
G1 X59.243 Y23.934 E-.05969
G1 X59.157 Y23.836 E-.03011
G1 X59.134 Y23.8 E-.00986
G1 X59.134 Y23.371 E-.09906
;WIPE_END
G1 E-.18194 F2100
G1 Z.4 F720
G1 X60.147 Y25.787 F10800
G1 Z.2 F720
G1 E1 F1500
M204 S800
G1 F1200
G1 X60.303 Y25.787 E.00658
G1 X60.188 Y25.817 E.00501
G1 X59.909 Y25.841 E.01181
G1 X59.909 Y25.787 E.00228
G1 X59.24 Y25.787 E.02821
G1 X59.355 Y25.817 E.00501
G1 X59.673 Y25.844 E.01346
M204 S1000
;WIPE_START
G1 F8640
G1 X59.355 Y25.817 E-.07369
G1 X59.24 Y25.787 E-.02744
G1 X59.909 Y25.787 E-.15447
G1 X59.909 Y25.841 E-.01247
G1 X60.188 Y25.817 E-.06466
G1 X60.303 Y25.787 E-.02744
G1 X60.147 Y25.787 E-.03602
;WIPE_END
G1 E-.60381 F2100
G1 Z.4 F720
G1 X95.739 Y28.188 F10800
G1 Z.2 F720
G1 E1 F1500
M204 S800
;TYPE:Support material
;WIDTH:0.65
G1 F1200
G1 X93.283 Y28.6 E.12571
G1 X93.275 Y26.554 E.10328
G1 X93.224 Y26.227 E.01671
G1 X93.1 Y25.839 E.02056
G1 X92.98 Y25.594 E.01377
G1 X92.85 Y25.389 E.01225
G1 X92.679 Y25.177 E.01375
G1 X92.51 Y25.008 E.01206
G1 X92.122 Y24.724 E.02427
G1 X91.908 Y24.614 E.01215
G1 X91.64 Y24.512 E.01448
G1 X91.224 Y24.424 E.02146
G1 X90.908 Y24.408 E.01597
G1 X89.858 Y24.506 E.05323
G1 X86.164 Y24.625 E.18657
G1 X82.261 Y24.304 E.19768
G1 X79.505 Y23.792 E.1415
G1 X77.597 Y23.293 E.09955
G1 X75.749 Y22.691 E.09811
G1 X75.065 Y22.399 E.03754
G1 X75.065 Y15.509 E.3478
G1 X95.739 Y15.509 E1.0436
G1 X95.739 Y28.097 E.63543
M204 S1000
G1 X94.646 Y28.094 F10800
M204 S800
G1 F1200
G1 X94.646 Y16.055 E.60772
G1 X93.971 Y16.055 E.03407
M73 P0 R163
G1 X93.971 Y27.93 E.59944
G1 X93.829 Y27.954 E.00727
G1 X93.828 Y26.696 E.0635
G1 X93.777 Y26.199 E.02522
G1 X93.68 Y25.827 E.01941
G1 X93.572 Y25.552 E.01491
G1 X93.459 Y25.331 E.01253
G1 X93.297 Y25.075 E.01529
G1 X93.297 Y16.055 E.45532
G1 X92.622 Y16.055 E.03407
G1 X92.622 Y24.398 E.42115
G1 X92.324 Y24.212 E.01773
G1 X91.948 Y24.042 E.02083
G1 X91.948 Y16.055 E.40317
G1 X91.273 Y16.055 E.03407
G1 X91.273 Y23.88 E.395
G1 X90.966 Y23.861 E.01553
G1 X90.599 Y23.882 E.01856
G1 X90.599 Y16.055 E.3951
G1 X89.924 Y16.055 E.03407
G1 X89.924 Y23.95 E.39853
G1 X89.25 Y23.979 E.03405
G1 X89.25 Y16.055 E.39999
G1 X88.575 Y16.055 E.03407
G1 X88.575 Y24.001 E.40111
G1 X87.901 Y24.022 E.03404
G1 X87.901 Y16.055 E.40217
G1 X87.226 Y16.055 E.03407
G1 X87.226 Y24.044 E.40328
G1 X86.552 Y24.066 E.03404
G1 X86.552 Y16.055 E.40439
G1 X85.877 Y16.055 E.03407
G1 X85.877 Y24.053 E.40373
G1 X85.203 Y23.997 E.03414
G1 X85.203 Y16.055 E.4009
G1 X84.528 Y16.055 E.03407
G1 X84.528 Y23.942 E.39813
G1 X83.853 Y23.886 E.03419
G1 X83.853 Y16.055 E.3953
G1 X83.179 Y16.055 E.03402
G1 X83.179 Y23.831 E.39252
G1 X82.504 Y23.775 E.03419
G1 X82.504 Y16.055 E.3897
G1 X81.83 Y16.055 E.03402
G1 X81.83 Y23.669 E.38435
G1 X81.155 Y23.543 E.03466
G1 X81.155 Y16.055 E.37799
G1 X80.481 Y16.055 E.03402
G1 X80.481 Y23.418 E.37168
G1 X79.806 Y23.293 E.03465
G1 X79.806 Y16.055 E.36537
G1 X79.132 Y16.055 E.03402
G1 X79.132 Y23.129 E.35709
G1 X78.457 Y22.953 E.03521
G1 X78.457 Y16.055 E.3482
G1 X77.783 Y16.055 E.03402
G1 X77.783 Y22.777 E.33932
G1 X77.108 Y22.559 E.03581
G1 X77.108 Y16.055 E.32831
G1 X76.434 Y16.055 E.03402
G1 X76.434 Y22.339 E.31721
G1 X75.941 Y22.179 E.02616
G1 X75.759 Y22.101 E.01
G1 X75.759 Y15.782 E.31898
M204 S1000
;WIPE_START
G1 F8640
G1 X75.759 Y20.113 E-1
;WIPE_END
G1 Z.4 F720
G1 X142.762 Y19.228 F10800
G1 Z.2 F720
G1 E1 F1500
M204 S800
G1 F1200
G1 X119.613 Y19.228 E1.16854
G1 X119.613 Y15.509 E.18773
G1 X142.762 Y15.509 E1.16854
G1 X142.762 Y19.137 E.18314
M204 S1000
G1 X141.863 Y18.954 F10800
M204 S800
G1 F1200
G1 X141.863 Y16.055 E.14634
G1 X141.189 Y16.055 E.03402
G1 X141.189 Y18.681 E.13256
G1 X140.514 Y18.681 E.03407
G1 X140.514 Y16.055 E.13256
G1 X139.84 Y16.055 E.03402
G1 X139.84 Y18.681 E.13256
G1 X139.165 Y18.681 E.03407
G1 X139.165 Y16.055 E.13256
G1 X138.491 Y16.055 E.03402
G1 X138.491 Y18.681 E.13256
G1 X137.816 Y18.681 E.03407
G1 X137.816 Y16.055 E.13256
G1 X137.141 Y16.055 E.03407
G1 X137.141 Y18.681 E.13256
G1 X136.467 Y18.681 E.03402
G1 X136.467 Y16.055 E.13256
G1 X135.792 Y16.055 E.03407
G1 X135.792 Y18.681 E.13256
G1 X135.118 Y18.681 E.03402
G1 X135.118 Y16.055 E.13256
G1 X134.443 Y16.055 E.03407
G1 X134.443 Y18.681 E.13256
G1 X133.769 Y18.681 E.03402
G1 X133.769 Y16.055 E.13256
G1 X133.094 Y16.055 E.03407
G1 X133.094 Y18.681 E.13256
G1 X132.42 Y18.681 E.03402
G1 X132.42 Y16.055 E.13256
G1 X131.745 Y16.055 E.03407
G1 X131.745 Y18.681 E.13256
G1 X131.071 Y18.681 E.03402
G1 X131.071 Y16.055 E.13256
G1 X130.396 Y16.055 E.03407
G1 X130.396 Y18.681 E.13256
G1 X129.722 Y18.681 E.03402
G1 X129.722 Y16.055 E.13256
G1 X129.047 Y16.055 E.03407
G1 X129.047 Y18.681 E.13256
G1 X128.373 Y18.681 E.03402
G1 X128.373 Y16.055 E.13256
G1 X127.698 Y16.055 E.03407
G1 X127.698 Y18.681 E.13256
G1 X127.023 Y18.681 E.03407
G1 X127.023 Y16.055 E.13256
G1 X126.349 Y16.055 E.03402
G1 X126.349 Y18.681 E.13256
G1 X125.674 Y18.681 E.03407
G1 X125.674 Y16.055 E.13256
G1 X125 Y16.055 E.03402
G1 X125 Y18.681 E.13256
G1 X124.325 Y18.681 E.03407
G1 X124.325 Y16.055 E.13256
G1 X123.651 Y16.055 E.03402
G1 X123.651 Y18.681 E.13256
G1 X122.976 Y18.681 E.03407
G1 X122.976 Y16.055 E.13256
G1 X122.302 Y16.055 E.03402
G1 X122.302 Y18.681 E.13256
G1 X121.627 Y18.681 E.03407
G1 X121.627 Y16.055 E.13256
G1 X120.953 Y16.055 E.03402
G1 X120.953 Y18.681 E.13256
G1 X120.278 Y18.681 E.03407
G1 X120.278 Y15.782 E.14634
M204 S1000
;WIPE_START
G1 F8640
G1 X120.278 Y18.681 E-.66939
G1 X120.953 Y18.681 E-.15586
G1 X120.953 Y17.924 E-.17475
;WIPE_END
G1 Z.4 F720
G1 X116.714 Y83.675 F10800
G1 Z.2 F720
G1 E1 F1500
M204 S800
;TYPE:Support material interface
;WIDTH:0.55
G1 F1200
G1 X116.78 Y83.675 E.00278
G1 X116.476 Y83.714 E.01292
G1 X116.476 Y83.675 E.00164
G1 X115.79 Y83.674 E.02892
G1 X116.24 Y83.727 E.0191
M204 S1000
;WIPE_START
G1 F8640
G1 X115.79 Y83.674 E-.10462
G1 X116.476 Y83.675 E-.1584
G1 X116.476 Y83.714 E-.00901
G1 X116.78 Y83.675 E-.07077
G1 X116.714 Y83.675 E-.01524
;WIPE_END
G1 E-.64196 F2100
G1 Z.4 F720
G1 X108.19 Y83.673 F10800
G1 Z.2 F720
G1 E1 F1500
M204 S800
G1 F1200
G1 X108.434 Y83.673 E.01029
G1 X107.952 Y83.729 E.02046
G1 X107.952 Y83.673 E.00236
G1 X107.433 Y83.673 E.02188
G1 X107.716 Y83.712 E.01205
M204 S1000
;WIPE_START
G1 F8640
G1 X107.433 Y83.673 E-.06596
G1 X107.952 Y83.673 E-.11984
G1 X107.952 Y83.729 E-.01293
G1 X108.434 Y83.673 E-.11204
G1 X108.19 Y83.673 E-.05634
;WIPE_END
G1 E-.63289 F2100
G1 Z.4 F720
G1 X50.031 Y122.556 F10800
G1 Z.2 F720
G1 E1 F1500
M204 S800
G1 F1200
G1 X50.181 Y122.367 E.01017
G1 X49.836 Y122.367 E.01455
G1 X49.836 Y122.69 E.01362
G1 X49.689 Y122.745 E.00662
G1 X49.436 Y122.771 E.01072
G1 X49.286 Y122.745 E.00642
G1 X49.061 Y122.646 E.01036
G1 X49.061 Y122.367 E.01176
G1 X48.795 Y122.367 E.01122
G1 X48.883 Y122.49 E.00638
M204 S1000
;WIPE_START
G1 F8640
G1 X48.795 Y122.367 E-.03492
G1 X49.061 Y122.367 E-.06142
G1 X49.061 Y122.646 E-.06442
G1 X49.286 Y122.745 E-.05676
G1 X49.436 Y122.771 E-.03515
G1 X49.689 Y122.745 E-.05873
G1 X49.836 Y122.69 E-.03624
G1 X49.836 Y122.367 E-.07458
G1 X50.181 Y122.367 E-.07966
G1 X50.031 Y122.556 E-.05571
;WIPE_END
G1 E-.44241 F2100
G1 Z.4 F720
G1 X49.061 Y124.371 F10800
G1 Z.2 F720
G1 E1 F1500
M204 S800
G1 F1200
G1 X49.061 Y124.392 E.00089
G1 X49.264 Y124.428 E.00869
G1 X49.686 Y124.43 E.01779
G1 X49.836 Y124.405 E.00641
G1 X49.836 Y124.371 E.00143
M204 S1000
;WIPE_START
G1 F8640
G1 X49.836 Y124.405 E-.00785
G1 X49.686 Y124.43 E-.03511
G1 X49.264 Y124.428 E-.09744
G1 X49.061 Y124.392 E-.0476
G1 X49.061 Y124.371 E-.00485
;WIPE_END
G1 E-.80715 F2100
G1 Z.4 F720
G1 X50.073 Y166.915 F10800
G1 Z.2 F720
G1 E1 F1500
M204 S800
G1 F1200
G1 X50.249 Y166.974 E.00783
G1 X50.343 Y167.038 E.00479
G1 X50.492 Y167.207 E.0095
G1 X50.576 Y167.418 E.00958
G1 X50.593 Y167.55 E.00561
G1 X50.562 Y167.756 E.00878
G1 X50.46 Y167.959 E.00958
G1 X50.298 Y168.115 E.00948
G1 X50.093 Y168.208 E.00949
G1 X49.982 Y168.227 E.00475
G1 X49.836 Y168.221 E.00616
G1 X49.836 Y166.915 E.05507
G1 X49.705 Y166.928 E.00555
G1 X49.508 Y167.038 E.00951
G1 X49.359 Y167.207 E.0095
G1 X49.275 Y167.418 E.00958
G1 X49.26 Y167.531 E.00481
G1 X49.289 Y167.756 E.00957
G1 X49.332 Y167.862 E.00482
G1 X49.466 Y168.044 E.00953
G1 X49.612 Y168.148 E.00756
M204 S1000
;WIPE_START
G1 F8640
G1 X49.466 Y168.044 E-.04139
G1 X49.332 Y167.862 E-.05219
G1 X49.289 Y167.756 E-.02641
G1 X49.26 Y167.531 E-.05238
G1 X49.275 Y167.418 E-.02632
G1 X49.359 Y167.207 E-.05244
G1 X49.508 Y167.038 E-.05202
G1 X49.705 Y166.928 E-.0521
G1 X49.836 Y166.915 E-.0304
G1 X49.836 Y168.221 E-.30156
G1 X49.982 Y168.227 E-.03374
G1 X50.093 Y168.208 E-.026
G1 X50.298 Y168.115 E-.05198
G1 X50.46 Y167.959 E-.05193
G1 X50.562 Y167.756 E-.05246
G1 X50.593 Y167.55 E-.0481
G1 X50.576 Y167.418 E-.03073
G1 X50.547 Y167.346 E-.01785
;WIPE_END
G1 Z.4 F720
G1 X49.599 Y170.007 F10800
G1 Z.2 F720
G1 E1 F1500
M204 S800
G1 F1200
G1 X49.387 Y169.967 E.0091
G1 X49.836 Y169.967 E.01893
G1 X49.836 Y170.027 E.00253
G1 X49.926 Y170.035 E.00381
G1 X50.342 Y169.999 E.01761
G1 X50.464 Y169.967 E.00532
G1 X50.073 Y169.967 E.01649
M204 S1000
;WIPE_START
G1 F8640
G1 X50.464 Y169.967 E-.09028
G1 X50.342 Y169.999 E-.02912
G1 X49.926 Y170.035 E-.09641
G1 X49.836 Y170.027 E-.02086
G1 X49.836 Y169.967 E-.01385
G1 X49.387 Y169.967 E-.10368
G1 X49.599 Y170.007 E-.04982
;WIPE_END
G1 E-.59598 F2100
G1 Z.4 F720
G1 X62.773 Y170.622 F10800
G1 Z.2 F720
G1 E1 F1500
M204 S800
G1 F1200
G1 X62.671 Y170.596 E.00444
G1 X63.009 Y170.596 E.01425
G1 X63.009 Y170.645 E.00207
G1 X63.201 Y170.661 E.00812
G1 X63.617 Y170.625 E.01761
G1 X63.73 Y170.596 E.00492
G1 X63.246 Y170.596 E.02041
M204 S1000
;WIPE_START
G1 F8640
G1 X63.73 Y170.596 E-.11176
G1 X63.617 Y170.625 E-.02694
G1 X63.201 Y170.661 E-.09641
G1 X63.009 Y170.645 E-.04449
G1 X63.009 Y170.596 E-.01131
G1 X62.671 Y170.596 E-.07805
G1 X62.773 Y170.622 E-.02431
;WIPE_END
G1 E-.60673 F2100
G1 Z.4 F720
G1 X186.754 Y170.655 F10800
G1 Z.2 F720
G1 E1 F1500
M204 S800
G1 F1200
G1 X186.351 Y170.615 E.01708
G1 X186.991 Y170.615 E.02698
G1 X186.991 Y170.643 E.00118
G1 X187.25 Y170.615 E.01098
G1 X187.228 Y170.615 E.00093
M204 S1000
;WIPE_START
G1 F8640
G1 X187.25 Y170.615 E-.00508
G1 X186.991 Y170.643 E-.06015
G1 X186.991 Y170.615 E-.00647
G1 X186.351 Y170.615 E-.14778
G1 X186.754 Y170.655 E-.09351
;WIPE_END
G1 E-.68701 F2100
G1 Z.4 F720
G1 X199.928 Y170.02 F10800
G1 Z.2 F720
G1 E1 F1500
M204 S800
G1 F1200
G1 X199.634 Y169.991 E.01246
G1 X200.164 Y169.991 E.02235
G1 X200.164 Y170.025 E.00143
G1 X200.516 Y169.991 E.01491
G1 X200.402 Y169.991 E.00481
M204 S1000
;WIPE_START
G1 F8640
G1 X200.516 Y169.991 E-.02632
G1 X200.164 Y170.025 E-.08166
G1 X200.164 Y169.991 E-.00785
G1 X199.634 Y169.991 E-.12238
G1 X199.928 Y170.02 E-.06821
;WIPE_END
G1 E-.69358 F2100
G1 Z.4 F720
G1 X199.928 Y168.21 F10800
G1 Z.2 F720
G1 E1 F1500
M204 S800
G1 F1200
G1 X199.704 Y168.113 E.01029
G1 X199.541 Y167.957 E.00951
G1 X199.482 Y167.86 E.00479
G1 X199.439 Y167.754 E.00482
G1 X199.408 Y167.548 E.00878
G1 X199.458 Y167.307 E.01038
G1 X199.577 Y167.114 E.00956
