; generated by PrusaSlicer 2.6.1+win64 on 2023-09-21 at 20:47:56 UTC


;
;
; 

; external perimeters extrusion width = 0.68mm
; perimeters extrusion width = 0.68mm
; infill extrusion width = 0.68mm
; solid infill extrusion width = 0.68mm
; top infill extrusion width = 0.60mm
; support material extrusion width = 0.55mm
; first layer extrusion width = 0.65mm

M73 P0 R174
M73 Q0 S177
M201 X1000 Y1000 Z200 E5000 ; sets maximum accelerations, mm/sec^2
M203 X200 Y200 Z12 E120 ; sets maximum feedrates, mm / sec
M204 S1250 T1250 ; sets acceleration (S) and retract acceleration (R), mm/sec^2
M205 X8.00 Y8.00 Z0.40 E4.50 ; sets the jerk limits, mm/sec
M205 S0 T0 ; sets the minimum extruding and travel feed rate, mm/sec
;TYPE:Custom
M862.3 P "MK3S" ; printer model check
M862.1 P0.6 ; nozzle diameter check
M115 U3.12.2 ; tell printer latest fw version
G90 ; use absolute coordinates
M83 ; extruder relative mode
M104 S240 ; set extruder temp
M140 S85 ; set bed temp
M190 S85 ; wait for bed temp
M109 S240 ; wait for extruder temp
G28 W ; home all without mesh bed level
G80 ; mesh bed leveling

G1 Z0.2 F720
G1 Y-3 F1000 ; go outside print area
G92 E0
G1 X60 E9 F1000 ; intro line
G1 X100 E12.5 F1000 ; intro line

G92 E0
M221 S95
G21 ; set units to millimeters
G90 ; use absolute coordinates
M83 ; use relative distances for extrusion
M900 K0.04 ; Filament gcode LA 1.5
M900 K24 ; Filament gcode LA 1.0
M107
;LAYER_CHANGE
;Z:0.2
;HEIGHT:0.2
;BEFORE_LAYER_CHANGE
G92 E0.0
;0.2


G1 E-1 F2100
G1 Z.2 F720
;AFTER_LAYER_CHANGE
;0.2
G1 Z.4
G1 X38.603 Y26.219 F10800
G1 Z.2 F720
G1 E1 F1500
M204 S800
;TYPE:Skirt/Brim
;WIDTH:0.65
G1 F1200
G1 X39.253 Y25.411 E.05235
G1 X40.352 Y24.475 E.07287
G1 X41.819 Y23.728 E.0831
G1 X42.835 Y23.45 E.05317
G1 X44.07 Y23.329 E.06264
G1 X207.549 Y23.334 E8.25224
G1 X208.783 Y23.455 E.06259
M73 Q0 S176
G1 X209.783 Y23.728 E.05233
G1 X210.729 Y24.153 E.05235
G1 X212.075 Y25.128 E.0839
G1 X212.774 Y25.895 E.05238
G1 X213.344 Y26.761 E.05233
G1 X213.771 Y27.706 E.05235
G1 X214.045 Y28.706 E.05234
G1 X217.141 Y47.853 E.97907
G1 X217.14 Y58.517 E.53831
G1 X214.161 Y180.205 E6.14451
G1 X214.04 Y181.378 E.05953
M73 P0 R173
G1 X213.766 Y182.378 E.05234
G1 X213.338 Y183.323 E.05237
G1 X212.359 Y184.666 E.08389
G1 X211.591 Y185.363 E.05235
G1 X210.359 Y186.115 E.07286
G1 X208.777 Y186.628 E.08395
G1 X207.542 Y186.749 E.06264
G1 X44.064 Y186.743 E8.25219
G1 X42.829 Y186.622 E.06264
G1 X41.829 Y186.35 E.05231
G1 X40.346 Y185.597 E.08396
G1 X39.536 Y184.949 E.05236
G1 X38.838 Y184.183 E.05231
G1 X38.268 Y183.317 E.05233
G1 X37.841 Y182.372 E.05235
G1 X37.567 Y181.372 E.05234
G1 X32.86 Y154.974 E1.35356
G1 X32.868 Y87.069 E3.42777
G1 X37.572 Y28.7 E2.95595
G1 X37.846 Y27.699 E.05239
G1 X38.562 Y26.3 E.07933
M204 S1000
; printing object Roof_rev0-1 id:0 copy 0
;WIPE_START
G1 F8640
G1 X39.253 Y25.411 E-.25999
G1 X40.352 Y24.475 E-.33332
G1 X41.819 Y23.728 E-.38012
G1 X41.93 Y23.698 E-.02657
;WIPE_END
G1 Z.4 F720
G1 X46.845 Y32.06 F10800
G1 Z.2 F720
G1 E1 F1500
M204 S800
;TYPE:Support material interface
;WIDTH:0.55
G1 F1200
G1 X46.844 Y31.098 E.04056
G1 X46.984 Y31.406 E.01427
G1 X47.09 Y31.811 E.01765
G1 X47.125 Y32.227 E.0176
G1 X47.09 Y32.643 E.0176
G1 X46.984 Y33.048 E.01765
G1 X46.845 Y33.353 E.01413
G1 X46.845 Y32.266 E.04583
G1 X46.737 Y32.238 E.0047
G1 X46.737 Y32.214 E.00101
M204 S1000
;WIPE_START
G1 F8640
G1 X46.737 Y32.238 E-.00554
G1 X46.845 Y32.266 E-.02576
G1 X46.845 Y33.353 E-.25099
G1 X46.984 Y33.048 E-.07739
G1 X47.09 Y32.643 E-.09667
G1 X47.125 Y32.227 E-.09639
G1 X47.09 Y31.811 E-.09639
G1 X46.984 Y31.406 E-.09667
G1 X46.844 Y31.098 E-.07812
G1 X46.845 Y31.861 E-.17608
;WIPE_END
G1 Z.4 F720
G1 X39.186 Y96.75 F10800
G1 Z.2 F720
G1 E1 F1500
M204 S800
;TYPE:Support material
;WIDTH:0.65
G1 F1200
G1 X39.186 Y105.476 E.44048
G1 X35.467 Y105.476 E.18773
G1 X35.467 Y87.277 E.91867
G1 X39.186 Y87.277 E.18773
G1 X39.186 Y96.659 E.47359
M204 S1000
G1 X37.986 Y105.203 F10800
M204 S800
G1 F1200
G1 X37.986 Y87.823 E.87732
G1 X37.311 Y87.823 E.03407
G1 X37.311 Y104.93 E.86354
G1 X36.637 Y104.93 E.03402
G1 X36.637 Y87.55 E.87732
M204 S1000
;WIPE_START
G1 F8640
G1 X36.637 Y91.881 E-1
;WIPE_END
G1 Z.4 F720
G1 X48.586 Y136.764 F10800
G1 Z.2 F720
G1 E1 F1500
M204 S800
G1 F1200
G1 X46.511 Y136.772 E.10474
G1 X46.186 Y136.822 E.0166
G1 X45.8 Y136.946 E.02047
G1 X45.556 Y137.065 E.0137
G1 X45.352 Y137.195 E.01221
G1 X45.141 Y137.364 E.01365
G1 X44.972 Y137.533 E.01206
G1 X44.691 Y137.92 E.02414
G1 X44.496 Y138.35 E.02383
G1 X44.415 Y138.666 E.01647
G1 X44.376 Y139.126 E.0233
G1 X44.474 Y140.174 E.05313
G1 X44.592 Y143.87 E.18666
G1 X44.271 Y147.774 E.19773
G1 X43.759 Y150.532 E.1416
G1 X43.259 Y152.441 E.09961
G1 X42.657 Y154.29 E.09816
G1 X42.365 Y154.974 E.03754
G1 X35.467 Y154.974 E.3482
G1 X35.467 Y134.3 E1.0436
G1 X48.128 Y134.3 E.63911
G1 X48.569 Y136.675 E.12194
M204 S1000
G1 X47.429 Y136.491 F10800
M204 S800
G1 F1200
G1 X47.429 Y134.846 E.08304
G1 X46.755 Y134.846 E.03402
G1 X46.755 Y136.218 E.06926
G1 X46.383 Y136.235 E.0188
G1 X46.08 Y136.286 E.01551
G1 X46.08 Y134.846 E.07269
G1 X45.406 Y134.846 E.03402
G1 X45.406 Y136.529 E.08496
G1 X45.042 Y136.745 E.02137
G1 X44.731 Y137 E.0203
G1 X44.731 Y134.846 E.10873
G1 X44.056 Y134.846 E.03407
G1 X44.056 Y137.968 E.1576
G1 X43.955 Y138.244 E.01484
G1 X43.887 Y138.511 E.01391
G1 X43.844 Y138.798 E.01465
G1 X43.829 Y139.069 E.0137
G1 X43.928 Y140.211 E.05786
G1 X44.045 Y143.856 E.18409
G1 X43.728 Y147.708 E.1951
G1 X43.382 Y149.572 E.0957
G1 X43.382 Y134.846 E.74335
G1 X42.707 Y134.846 E.03407
G1 X42.707 Y152.371 E.88464
G1 X42.145 Y154.098 E.09168
G1 X42.033 Y154.359 E.01434
G1 X42.033 Y134.846 E.98499
G1 X41.358 Y134.846 E.03407
G1 X41.358 Y154.428 E.98848
G1 X40.684 Y154.428 E.03402
G1 X40.684 Y134.846 E.98848
G1 X40.009 Y134.846 E.03407
G1 X40.009 Y154.428 E.98848
G1 X39.335 Y154.428 E.03402
G1 X39.335 Y134.846 E.98848
G1 X38.66 Y134.846 E.03407
G1 X38.66 Y154.428 E.98848
G1 X37.986 Y154.428 E.03402
G1 X37.986 Y134.846 E.98848
G1 X37.311 Y134.846 E.03407
G1 X37.311 Y154.428 E.98848
G1 X36.637 Y154.428 E.03402
G1 X36.637 Y134.573 E1.00226
M204 S1000
;WIPE_START
G1 F8640
G1 X36.637 Y138.904 E-1
;WIPE_END
G1 Z.4 F720
G1 X43.837 Y169.689 F10800
G1 Z.2 F720
G1 E1 F1500
M204 S800
;TYPE:Support material interface
;WIDTH:0.55
G1 F1200
G1 X43.971 Y169.835 E.00836
G1 X44.034 Y169.949 E.00549
G1 X44.146 Y170.263 E.01406
G1 X44.034 Y170.578 E.0141
G1 X43.971 Y170.691 E.00545
G1 X43.791 Y170.878 E.01094
G1 X43.637 Y170.964 E.00744
G1 X43.637 Y169.563 E.05907
G1 X43.43 Y169.504 E.00908
G1 X43.329 Y169.499 E.00426
G1 X43.329 Y171.027 E.06443
G1 X43.409 Y171.024 E.00338
M204 S1000
;WIPE_START
G1 F8640
G1 X43.329 Y171.027 E-.01849
G1 X43.329 Y169.499 E-.35282
G1 X43.43 Y169.504 E-.02335
G1 X43.637 Y169.563 E-.0497
G1 X43.637 Y170.964 E-.32349
G1 X43.791 Y170.878 E-.04073
G1 X43.971 Y170.691 E-.05993
G1 X44.034 Y170.578 E-.02987
G1 X44.146 Y170.263 E-.0772
G1 X44.11 Y170.163 E-.02442
;WIPE_END
G1 Z.4 F720
G1 X45.593 Y171.052 F10800
G1 Z.2 F720
G1 E1 F1500
M204 S800
G1 F1200
G1 X45.593 Y171.245 E.00814
G1 X45.666 Y171.084 E.00745
G1 X45.772 Y170.68 E.01761
G1 X45.807 Y170.263 E.01764
G1 X45.772 Y169.847 E.0176
G1 X45.666 Y169.443 E.01761
G1 X45.592 Y169.28 E.00755
G1 X45.593 Y170.98 E.07168
M204 S1000
;WIPE_START
G1 F8640
G1 X45.592 Y169.28 E-.39253
G1 X45.666 Y169.443 E-.04133
G1 X45.772 Y169.847 E-.09644
G1 X45.807 Y170.263 E-.09639
G1 X45.772 Y170.68 E-.09663
G1 X45.666 Y171.084 E-.09644
G1 X45.593 Y171.245 E-.04082
G1 X45.593 Y171.052 E-.04456
;WIPE_END
G1 E-.09486 F2100
G1 Z.4 F720
G1 X43.837 Y177.27 F10800
G1 Z.2 F720
G1 E1 F1500
M204 S800
G1 F1200
G1 X43.97 Y177.417 E.00836
G1 X44.034 Y177.53 E.00548
G1 X44.145 Y177.845 E.01408
G1 X44.034 Y178.16 E.01408
G1 X43.97 Y178.273 E.00548
G1 X43.79 Y178.46 E.01094
G1 X43.637 Y178.545 E.00738
G1 X43.637 Y177.145 E.05903
G1 X43.43 Y177.086 E.00908
G1 X43.329 Y177.081 E.00426
G1 X43.329 Y178.609 E.06443
G1 X43.409 Y178.605 E.00338
M204 S1000
;WIPE_START
G1 F8640
G1 X43.329 Y178.609 E-.0185
G1 X43.329 Y177.081 E-.35282
G1 X43.43 Y177.086 E-.02335
G1 X43.637 Y177.145 E-.0497
G1 X43.637 Y178.545 E-.32326
G1 X43.79 Y178.46 E-.04041
G1 X43.97 Y178.273 E-.05993
G1 X44.034 Y178.16 E-.02999
G1 X44.145 Y177.845 E-.07712
G1 X44.109 Y177.743 E-.02492
;WIPE_END
G1 Z.4 F720
G1 X45.596 Y178.638 F10800
G1 Z.2 F720
G1 E1 F1500
M204 S800
G1 F1200
G1 X45.596 Y178.819 E.00763
G1 X45.666 Y178.666 E.00709
G1 X45.771 Y178.261 E.01764
G1 X45.807 Y177.845 E.01761
G1 X45.771 Y177.429 E.01761
G1 X45.666 Y177.024 E.01764
G1 X45.596 Y176.869 E.00717
G1 X45.596 Y178.567 E.07159
M204 S1000
;WIPE_START
G1 F8640
G1 X45.596 Y176.869 E-.39207
G1 X45.666 Y177.024 E-.03927
G1 X45.771 Y177.429 E-.09661
G1 X45.807 Y177.845 E-.09641
G1 X45.771 Y178.261 E-.09641
G1 X45.666 Y178.666 E-.09661
G1 X45.596 Y178.819 E-.03885
G1 X45.596 Y178.638 E-.04179
;WIPE_END
G1 E-.10198 F2100
G1 Z.4 F720
G1 X103.508 Y122.672 F10800
G1 Z.2 F720
G1 E1 F1500
M204 S800
G1 F1200
G1 X103.508 Y122.717 E.0019
G1 X103.546 Y122.633 E.00389
G1 X103.652 Y122.229 E.01761
G1 X103.688 Y121.813 E.01761
G1 X103.652 Y121.396 E.01765
G1 X103.546 Y120.992 E.01761
G1 X103.507 Y120.906 E.00398
G1 X103.508 Y121.771 E.03647
G1 X103.397 Y121.798 E.00482
G1 X103.508 Y121.819 E.00476
G1 X103.508 Y122.6 E.03293
M204 S1000
;WIPE_START
G1 F8640
G1 X103.508 Y121.819 E-.18034
G1 X103.397 Y121.798 E-.02608
G1 X103.508 Y121.771 E-.02638
G1 X103.507 Y120.906 E-.19973
G1 X103.546 Y120.992 E-.0218
G1 X103.652 Y121.396 E-.09644
G1 X103.688 Y121.813 E-.09664
G1 X103.652 Y122.229 E-.09641
G1 X103.546 Y122.633 E-.09644
G1 X103.508 Y122.717 E-.02129
G1 X103.508 Y122.672 E-.01039
;WIPE_END
G1 E-.12806 F2100
G1 Z.4 F720
G1 X103.513 Y112.61 F10800
G1 Z.2 F720
G1 E1 F1500
M204 S800
G1 F1200
M73 Q0 S175
G1 X103.652 Y112.13 E.02107
G1 X103.688 Y111.713 E.01765
G1 X103.652 Y111.297 E.01761
G1 X103.547 Y110.893 E.0176
G1 X103.503 Y110.796 E.00449
G1 X103.504 Y112.579 E.07518
M204 S1000
;WIPE_START
G1 F8640
G1 X103.503 Y110.796 E-.4117
G1 X103.547 Y110.893 E-.02459
G1 X103.652 Y111.297 E-.09638
G1 X103.688 Y111.713 E-.09641
G1 X103.652 Y112.13 E-.09664
G1 X103.513 Y112.61 E-.11539
;WIPE_END
G1 E-.15889 F2100
G1 Z.4 F720
G1 X142.325 Y179.861 F10800
G1 Z.2 F720
G1 E1 F1500
M204 S800
G1 F1200
G1 X142.501 Y179.997 E.00938
G1 X142.587 Y180.103 E.00576
G1 X142.699 Y180.35 E.01144
G1 X142.734 Y180.552 E.00864
G1 X142.699 Y180.754 E.00864
G1 X142.587 Y181.001 E.01144
G1 X142.501 Y181.107 E.00576
G1 X142.325 Y181.242 E.00935
G1 X142.325 Y179.933 E.05519
M204 S1000
;WIPE_START
G1 F8640
G1 X142.325 Y181.242 E-.30225
G1 X142.501 Y181.107 E-.05122
G1 X142.587 Y181.001 E-.03152
G1 X142.699 Y180.754 E-.06262
G1 X142.734 Y180.552 E-.04734
G1 X142.699 Y180.35 E-.04734
G1 X142.587 Y180.103 E-.06262
G1 X142.501 Y179.997 E-.03152
G1 X142.325 Y179.861 E-.05136
;WIPE_END
G1 E-.31221 F2100
G1 Z.4 F720
G1 X144.333 Y180.051 F10800
G1 Z.2 F720
G1 E1 F1500
M204 S800
G1 F1200
G1 X144.282 Y179.846 E.00891
G1 X144.282 Y181.26 E.05962
G1 X144.373 Y180.828 E.01861
G1 X144.373 Y180.285 E.02289
M204 S1000
;WIPE_START
G1 F8640
G1 X144.373 Y180.828 E-.12538
G1 X144.282 Y181.26 E-.10194
G1 X144.282 Y179.846 E-.3265
G1 X144.333 Y180.051 E-.04878
;WIPE_END
G1 E-.3974 F2100
G1 Z.4 F720
G1 X186.991 Y179.698 F10800
G1 Z.2 F720
G1 E1 F1500
M204 S800
G1 F1200
G1 X186.991 Y180.534 E.03525
G1 X187.161 Y180.682 E.0095
G1 X187.262 Y180.733 E.00477
G1 X187.484 Y180.781 E.00958
G1 X187.598 Y180.776 E.00481
G1 X187.766 Y180.73 E.00734
G1 X187.766 Y179.502 E.05178
G1 X187.912 Y179.581 E.007
G1 X187.997 Y179.656 E.00478
G1 X188.069 Y179.744 E.00479
G1 X188.161 Y179.949 E.00947
G1 X188.18 Y180.172 E.00944
G1 X188.124 Y180.389 E.00945
G1 X188.069 Y180.488 E.00478
G1 X187.966 Y180.604 E.00654
M204 S1000
;WIPE_START
G1 F8640
G1 X188.069 Y180.488 E-.03582
G1 X188.124 Y180.389 E-.02615
G1 X188.18 Y180.172 E-.05175
G1 X188.161 Y179.949 E-.05168
G1 X188.069 Y179.744 E-.05188
G1 X187.997 Y179.656 E-.02625
G1 X187.912 Y179.581 E-.02617
G1 X187.766 Y179.502 E-.03833
G1 X187.766 Y180.73 E-.28355
G1 X187.598 Y180.776 E-.04022
G1 X187.484 Y180.781 E-.02635
G1 X187.262 Y180.733 E-.05244
G1 X187.161 Y180.682 E-.02613
G1 X186.991 Y180.534 E-.05204
G1 X186.991 Y179.698 E-.19303
;WIPE_END
G1 E-.01821 F2100
G1 Z.4 F720
G1 X189.924 Y180.577 F10800
G1 Z.2 F720
G1 E1 F1500
M204 S800
G1 F1200
G1 X189.924 Y179.589 E.04166
G1 X189.953 Y179.7 E.00484
G1 X189.988 Y180.116 E.0176
G1 X189.953 Y180.532 E.0176
G1 X189.926 Y180.634 E.00445
M204 S1000
;WIPE_START
G1 F8640
G1 X189.953 Y180.532 E-.02436
G1 X189.988 Y180.116 E-.09639
G1 X189.953 Y179.7 E-.09639
G1 X189.924 Y179.589 E-.02649
G1 X189.924 Y180.577 E-.22813
;WIPE_END
G1 E-.52824 F2100
G1 Z.4 F720
G1 X190.545 Y167.254 F10800
G1 Z.2 F720
G1 E1 F1500
M204 S800
G1 F1200
G1 X190.545 Y167.388 E.00565
G1 X190.579 Y167.257 E.00571
G1 X190.615 Y166.841 E.01761
G1 X190.579 Y166.425 E.01761
G1 X190.545 Y166.292 E.00579
G1 X190.545 Y167.183 E.03757
M204 S1000
;WIPE_START
G1 F8640
G1 X190.545 Y166.292 E-.20573
G1 X190.579 Y166.425 E-.0317
G1 X190.615 Y166.841 E-.09641
G1 X190.579 Y167.257 E-.09641
G1 X190.545 Y167.388 E-.03125
G1 X190.545 Y167.254 E-.03094
;WIPE_END
G1 E-.50756 F2100
G1 Z.4 F720
G1 X214.534 Y58.453 F10800
G1 Z.2 F720
G1 E1 F1500
M204 S800
;TYPE:Support material
;WIDTH:0.65
G1 F1200
G1 X191.385 Y58.453 E1.16854
G1 X191.385 Y55.483 E.14992
G1 X192.284 Y55.049 E.05039
G1 X193.268 Y54.721 E.05236
G1 X194.29 Y54.522 E.05256
G1 X195.338 Y54.455 E.05301
G1 X211.919 Y54.456 E.83699
G1 X212.428 Y53.947 E.03634
G1 X212.428 Y49.959 E.20131
G1 X214.534 Y47.853 E.15034
G1 X214.534 Y58.362 E.53048
M204 S1000
G1 X213.364 Y58.18 F10800
M204 S800
G1 F1200
G1 X213.364 Y49.796 E.42321
G1 X212.975 Y50.185 E.02777
G1 X212.974 Y54.173 E.20131
G1 X212.689 Y54.458 E.02035
G1 X212.689 Y57.907 E.1741
G1 X212.015 Y57.907 E.03402
G1 X212.015 Y55.002 E.14664
G1 X211.34 Y55.002 E.03407
G1 X211.34 Y57.907 E.14664
G1 X210.666 Y57.907 E.03402
G1 X210.666 Y55.002 E.14664
G1 X209.991 Y55.002 E.03407
G1 X209.991 Y57.907 E.14664
G1 X209.317 Y57.907 E.03402
G1 X209.317 Y55.002 E.14664
G1 X208.642 Y55.002 E.03407
G1 X208.642 Y57.907 E.14664
G1 X207.968 Y57.907 E.03402
G1 X207.968 Y55.002 E.14664
G1 X207.293 Y55.002 E.03407
G1 X207.293 Y57.907 E.14664
G1 X206.619 Y57.907 E.03402
G1 X206.619 Y55.002 E.14664
G1 X205.944 Y55.002 E.03407
G1 X205.944 Y57.907 E.14664
G1 X205.27 Y57.907 E.03402
G1 X205.27 Y55.002 E.14664
G1 X204.595 Y55.002 E.03407
G1 X204.595 Y57.907 E.14664
G1 X203.921 Y57.907 E.03402
G1 X203.921 Y55.001 E.14669
G1 X203.246 Y55.001 E.03407
G1 X203.246 Y57.907 E.14669
G1 X202.572 Y57.907 E.03402
G1 X202.572 Y55.001 E.14669
G1 X201.897 Y55.001 E.03407
G1 X201.897 Y57.907 E.14669
G1 X201.222 Y57.907 E.03407
G1 X201.222 Y55.001 E.14669
G1 X200.548 Y55.001 E.03402
G1 X200.548 Y57.907 E.14669
G1 X199.873 Y57.907 E.03407
G1 X199.873 Y55.001 E.14669
G1 X199.199 Y55.001 E.03402
G1 X199.199 Y57.907 E.14669
G1 X198.524 Y57.907 E.03407
M73 P0 R172
G1 X198.524 Y55.001 E.14669
G1 X197.85 Y55.001 E.03402
G1 X197.85 Y57.907 E.14669
G1 X197.175 Y57.907 E.03407
G1 X197.175 Y55.001 E.14669
G1 X196.501 Y55.001 E.03402
G1 X196.501 Y57.907 E.14669
G1 X195.826 Y57.907 E.03407
G1 X195.826 Y55.001 E.14669
G1 X195.365 Y55.001 E.02327
G1 X195.152 Y55.014 E.01077
G1 X195.152 Y57.907 E.14604
G1 X194.477 Y57.907 E.03407
G1 X194.477 Y55.058 E.14381
G1 X194.36 Y55.065 E.00592
G1 X193.803 Y55.174 E.02865
G1 X193.803 Y57.907 E.13796
G1 X193.128 Y57.907 E.03407
G1 X193.128 Y55.344 E.12938
G1 X192.454 Y55.574 E.03595
G1 X192.454 Y58.18 E.13155
M204 S1000
;WIPE_START
G1 F8640
G1 X192.454 Y55.574 E-.60173
G1 X193.128 Y55.344 E-.16444
G1 X193.128 Y56.357 E-.23383
;WIPE_END
G1 Z.4 F720
G1 X190.49 Y43.939 F10800
G1 Z.2 F720
G1 E1 F1500
M204 S800
;TYPE:Support material interface
;WIDTH:0.55
G1 F1200
G1 X190.49 Y44.017 E.00329
G1 X190.584 Y43.657 E.01569
G1 X190.62 Y43.241 E.01761
G1 X190.584 Y42.825 E.01761
G1 X190.489 Y42.462 E.01582
G1 X190.49 Y43.868 E.05928
M204 S1000
;WIPE_START
G1 F8640
G1 X190.489 Y42.462 E-.32465
