; generated by PrusaSlicer 2.6.0+win64 on 2023-09-06 at 14:04:33 UTC


;
;
; 

; external perimeters extrusion width = 0.65mm
; perimeters extrusion width = 0.65mm
; infill extrusion width = 0.65mm
; solid infill extrusion width = 0.65mm
; top infill extrusion width = 0.60mm
; first layer extrusion width = 0.65mm

M73 P0 R37
M73 Q0 S38
M201 X1000 Y1000 Z200 E5000 ; sets maximum accelerations, mm/sec^2
M203 X200 Y200 Z12 E120 ; sets maximum feedrates, mm / sec
M204 S1250 T1250 ; sets acceleration (S) and retract acceleration (R), mm/sec^2
M205 X8.00 Y8.00 Z0.40 E4.50 ; sets the jerk limits, mm/sec
M205 S0 T0 ; sets the minimum extruding and travel feed rate, mm/sec
;TYPE:Custom
M862.3 P "MK3S" ; printer model check
M862.1 P0.6 ; nozzle diameter check
M115 U3.12.2 ; tell printer latest fw version
G90 ; use absolute coordinates
M83 ; extruder relative mode
M104 S240 ; set extruder temp
M140 S85 ; set bed temp
M190 S85 ; wait for bed temp
M109 S240 ; wait for extruder temp
G28 W ; home all without mesh bed level
G80 ; mesh bed leveling

G1 Z0.2 F720
G1 Y-3 F1000 ; go outside print area
G92 E0
G1 X60 E9 F1000 ; intro line
G1 X100 E12.5 F1000 ; intro line

G92 E0
M221 S95
G21 ; set units to millimeters
G90 ; use absolute coordinates
M83 ; use relative distances for extrusion
M900 K0.04 ; Filament gcode LA 1.5
M900 K24 ; Filament gcode LA 1.0
M107
;LAYER_CHANGE
;Z:0.2
;HEIGHT:0.2
;BEFORE_LAYER_CHANGE
G92 E0.0
;0.2


G1 E-1 F2100
G1 Z.2 F720
;AFTER_LAYER_CHANGE
;0.2
G1 Z.4
G1 X90.327 Y86.476 F10800
G1 Z.2 F720
G1 E1 F1500
M204 S800
;TYPE:Skirt/Brim
;WIDTH:0.65
G1 F1200
G1 X91.152 Y85.758 E.05521
G1 X92.45 Y85.412 E.06781
G1 X157.55 Y85.412 E3.28617
G1 X158.813 Y85.738 E.06584
G1 X159.673 Y86.476 E.0572
G1 X159.872 Y86.742 E.01677
G1 X160.317 Y87.683 E.05254
G1 X160.595 Y88.87 E.06154
G1 X160.661 Y89.522 E.03308
G1 X160.685 Y115.716 E1.32224
G1 X160.501 Y118.671 E.14945
G1 X160.003 Y121.431 E.14157
G1 X159.192 Y124.093 E.14047
G1 X158.224 Y126.324 E.12276
G1 X156.869 Y128.651 E.13593
G1 X155.011 Y131.007 E.15146
G1 X153.393 Y132.561 E.11324
G1 X151.327 Y134.063 E.12894
G1 X148.704 Y135.37 E.14793
G1 X146.304 Y136.08 E.12634
G1 X143.993 Y136.38 E.11764
G1 X106.7 Y136.397 E1.88251
G1 X104.454 Y136.217 E.11374
G1 X101.639 Y135.498 E.14666
G1 X99.37 Y134.47 E.12574
G1 X97.57 Y133.319 E.10785
G1 X95.346 Y131.384 E.14881
G1 X93.656 Y129.394 E.13179
G1 X92.379 Y127.445 E.11762
G1 X91.17 Y125.006 E.13741
G1 X90.253 Y122.402 E.13936
G1 X89.597 Y119.385 E.15585
G1 X89.332 Y116.549 E.14378
G1 X89.339 Y89.522 E1.36429
G1 X89.405 Y88.87 E.03308
G1 X89.683 Y87.683 E.06154
G1 X90.128 Y86.742 E.05254
G1 X90.273 Y86.548 E.01223
M204 S1000
; printing object Top_Gripper_Plate_rev0-2 id:0 copy 0
;WIPE_START
G1 F8640
G1 X91.152 Y85.758 E-.27289
G1 X92.45 Y85.412 E-.31018
G1 X94.256 Y85.412 E-.41693
;WIPE_END
G1 Z.4 F720
G1 X128.382 Y131.402 F10800
G1 Z.2 F720
G1 E1 F1500
M204 S800
;TYPE:Perimeter
;WIDTH:0.649999
G1 F1200
G1 X143.277 Y131.394 E.75188
G1 X144.438 Y131.333 E.05869
G1 X145.494 Y131.16 E.05402
;WIDTH:0.699025
G1 X145.597 Y131.161 E.00562
;WIDTH:0.74805
G1 X145.7 Y131.161 E.00604
;WIDTH:0.797076
G1 X145.802 Y131.162 E.0064
;WIDTH:0.846101
G1 X145.905 Y131.163 E.00688
;WIDTH:0.895127
G1 X146.008 Y131.163 E.0073
;WIDTH:0.944152
G1 X146.111 Y131.164 E.00772
G1 X146.315 Y131.109 E.01583
;WIDTH:0.939028
G1 X147.235 Y130.799 E.07234
G1 X148.178 Y130.37 E.07719
;WIDTH:0.935446
G1 X149.229 Y129.746 E.09071
;WIDTH:0.909444
G1 X149.753 Y129.422 E.04439
;WIDTH:0.883442
G1 X149.825 Y129.373 E.00609
;WIDTH:0.900508
G1 X150.238 Y129.045 E.03761
G1 X150.792 Y128.566 E.05222
;WIDTH:0.875207
G1 X151.345 Y128.087 E.05063
;WIDTH:0.864122
G1 X151.671 Y127.746 E.03221
G1 X152.755 Y126.478 E.11391
;WIDTH:0.829839
G1 X152.963 Y126.188 E.02335
G1 X153.952 Y124.635 E.12047
;WIDTH:0.79875
G1 X154.079 Y124.398 E.0169
G1 X154.916 Y122.6 E.12464
;WIDTH:0.770554
G1 X155.622 Y120.41 E.13922
;WIDTH:0.750151
G1 X156.054 Y118.119 E.1371
;WIDTH:0.738096
G1 X156.204 Y115.784 E.13525
;WIDTH:0.737548
G1 X156.205 Y105.881 E.57198
;WIDTH:0.734487
G1 X156.204 Y105.824 E.00328
;WIDTH:0.764416
G1 X156.158 Y104.811 E.06084
;WIDTH:0.768866
G1 X156.154 Y104.742 E.00417
;WIDTH:0.810198
G1 X156.091 Y104.109 E.04058
;WIDTH:0.851529
G1 X156.029 Y103.475 E.04283
;WIDTH:0.86003
G1 X155.949 Y103.155 E.02241
;WIDTH:0.818024
G1 X155.876 Y102.908 E.0166
;WIDTH:0.776018
G1 X155.804 Y102.661 E.01568
;WIDTH:0.734012
G1 X155.732 Y102.413 E.01484
;WIDTH:0.692006
G1 X155.659 Y102.166 E.0139
;WIDTH:0.649999
G1 X155.347 Y101.011 E.06039
G1 X154.954 Y99.819 E.06336
G1 X154.517 Y98.669 E.0621
G1 X154.025 Y97.497 E.06416
G1 X153.501 Y96.349 E.0637
G1 X153.227 Y95.678 E.03659
G1 X153.002 Y94.996 E.03625
G1 X152.709 Y93.945 E.05508
G1 X152.426 Y92.671 E.06588
G1 X152.325 Y92.121 E.02823
G1 X152.217 Y91.262 E.0437
G1 X152.177 Y90.41 E.04306
G1 X152.178 Y89.64 E.03887
G1 X152.286 Y89.151 E.02528
G1 X156.827 Y89.151 E.22922
G1 X156.922 Y89.639 E.0251
M73 P1 R37
G1 X156.934 Y102.036 E.62579
;WIDTH:0.692006
M73 Q1 S38
G1 X156.913 Y102.292 E.01386
;WIDTH:0.734012
G1 X156.892 Y102.549 E.01482
;WIDTH:0.776018
G1 X156.871 Y102.806 E.01572
;WIDTH:0.818024
G1 X156.85 Y103.063 E.01662
;WIDTH:0.86003
G1 X156.834 Y103.422 E.02442
;WIDTH:0.851529
G1 X156.855 Y104.058 E.04279
;WIDTH:0.810198
G1 X156.877 Y104.694 E.0406
;WIDTH:0.768866
G1 X156.879 Y104.789 E.00574
;WIDTH:0.764416
G1 X156.895 Y105.803 E.06084
;WIDTH:0.734487
G1 X156.895 Y105.881 E.00449
;WIDTH:0.737548
G1 X156.895 Y115.821 E.57412
;WIDTH:0.738096
G1 X156.764 Y118.043 E.12866
G1 X156.739 Y118.225 E.01062
;WIDTH:0.750151
G1 X156.353 Y120.402 E.13002
G1 X156.293 Y120.618 E.01318
;WIDTH:0.770554
G1 X155.682 Y122.63 E.12722
G1 X155.572 Y122.898 E.01753
;WIDTH:0.79875
G1 X154.767 Y124.711 E.12467
G1 X154.587 Y125.029 E.02297
;WIDTH:0.829839
G1 X153.631 Y126.604 E.12056
G1 X153.351 Y126.974 E.03036
;WIDTH:0.864122
G1 X152.302 Y128.271 E.1139
G1 X151.884 Y128.688 E.04032
;WIDTH:0.875207
G1 X151.347 Y129.186 E.05068
;WIDTH:0.900508
G1 X150.761 Y129.724 E.05673
G1 X150.21 Y130.126 E.04864
;WIDTH:0.909444
G1 X149.701 Y130.473 E.04439
;WIDTH:0.935446
G1 X149.132 Y130.854 E.05082
G1 X148.427 Y131.219 E.05892
;WIDTH:0.946584
G1 X147.414 Y131.7 E.08426
G1 X146.35 Y132.033 E.08377
;WIDTH:0.944152
G1 X146.242 Y132.092 E.00922
;WIDTH:0.895127
G1 X146.134 Y132.151 E.00872
;WIDTH:0.846101
G1 X146.027 Y132.21 E.00816
;WIDTH:0.797076
G1 X145.919 Y132.27 E.00775
;WIDTH:0.74805
G1 X145.811 Y132.329 E.00722
;WIDTH:0.699025
G1 X145.704 Y132.388 E.00667
;WIDTH:0.649999
G1 X143.834 Y132.643 E.09527
G1 X143.285 Y132.658 E.02772
G1 X128.382 Y132.658 E.75229
G1 X128.382 Y131.492 E.05886
M204 S1000
G1 X127.775 Y130.795 F10800
M204 S800
;TYPE:External perimeter
G1 F1200
G1 X143.276 Y130.786 E.78247
G1 X144.349 Y130.732 E.05423
G1 X145.353 Y130.57 E.05134
G1 X146.078 Y130.396 E.03764
G1 X146.938 Y130.109 E.04577
G1 X147.802 Y129.734 E.04754
G1 X149.385 Y128.798 E.09283
M73 Q1 S37
G1 X150.926 Y127.512 E.10132
G1 X152.262 Y125.987 E.10234
G1 X153.405 Y124.229 E.10585
G1 X154.331 Y122.277 E.10906
G1 X155.008 Y120.171 E.11167
G1 X155.416 Y117.999 E.11156
G1 X155.557 Y115.725 E.11501
G1 X155.556 Y105.881 E.49691
G1 X155.493 Y104.829 E.0532
G1 X155.323 Y103.546 E.06533
G1 X155.065 Y102.288 E.06482
G1 X154.762 Y101.17 E.05847
G1 X154.392 Y100.047 E.05969
G1 X153.96 Y98.913 E.06126
G1 X153.473 Y97.75 E.06365
G1 X152.943 Y96.59 E.06438
G1 X152.657 Y95.888 E.03826
G1 X152.421 Y95.172 E.03806
G1 X152.12 Y94.093 E.05655
G1 X151.83 Y92.792 E.06728
G1 X151.725 Y92.213 E.0297
G1 X151.612 Y91.314 E.04574
G1 X151.57 Y90.424 E.04498
G1 X151.571 Y89.573 E.04296
G1 X151.799 Y88.544 E.0532
G1 X157.303 Y88.544 E.27784
G1 X157.486 Y89.29 E.03877
G1 X157.529 Y89.638 E.0177
G1 X157.553 Y115.703 E1.31573
G1 X157.409 Y118.17 E.12474
G1 X156.99 Y120.573 E.12313
G1 X156.304 Y122.88 E.12149
G1 X155.366 Y125.043 E.11901
G1 X154.194 Y127.021 E.11606
G1 X152.814 Y128.775 E.11266
G1 X151.255 Y130.271 E.10907
G1 X149.55 Y131.484 E.10562
G1 X147.731 Y132.392 E.10263
G1 X145.836 Y132.983 E.1002
G1 X143.884 Y133.249 E.09945
G1 X143.293 Y133.265 E.02984
G1 X127.775 Y133.265 E.78333
G1 X127.775 Y130.885 E.12014
M204 S1000
G1 X128.374 Y130.826 F10800
;WIPE_START
G1 F8640
G1 X132.106 Y130.857 E-1
;WIPE_END
G1 Z.4 F720
G1 X145.662 Y132.147 F10800
G1 Z.2 F720
G1 E1 F1500
M204 S800
;TYPE:Solid infill
;WIDTH:0.672642
G1 F1200
G1 X145.249 Y131.734 E.03058
G1 X144.472 Y131.848 E.04112
G1 X144.638 Y132.013 E.01226
G1 X143.854 Y132.12 E.04143
G1 X143.628 Y131.894 E.01674
G1 X142.753 Y131.909 E.04582
G1 X142.985 Y132.142 E.01722
G1 X142.095 Y132.142 E.0466
G1 X141.863 Y131.91 E.01718
G1 X140.973 Y131.911 E.0466
G1 X141.204 Y132.142 E.01711
G1 X140.314 Y132.142 E.0466
G1 X140.083 Y131.911 E.01711
G1 X139.193 Y131.912 E.0466
G1 X139.423 Y132.142 E.01703
G1 X138.532 Y132.142 E.04665
G1 X138.303 Y131.912 E.01699
G1 X137.413 Y131.913 E.0466
G1 X137.642 Y132.142 E.01696
G1 X136.751 Y132.142 E.04665
G1 X136.523 Y131.913 E.01692
G1 X135.633 Y131.914 E.0466
G1 X135.861 Y132.142 E.01688
G1 X134.97 Y132.142 E.04665
G1 X134.743 Y131.914 E.01685
G1 X133.853 Y131.915 E.0466
G1 X134.08 Y132.142 E.01681
G1 X133.189 Y132.142 E.04665
G1 X132.963 Y131.915 E.01677
G1 X132.073 Y131.916 E.0466
G1 X132.298 Y132.142 E.0167
G1 X131.408 Y132.142 E.0466
G1 X131.182 Y131.916 E.01674
G1 X130.292 Y131.917 E.0466
G1 X130.517 Y132.142 E.01666
G1 X129.627 Y132.142 E.0466
G1 X129.129 Y131.644 E.03688
M204 S1000
;WIPE_START
G1 F8640
G1 X129.627 Y132.142 E-.16262
G1 X130.517 Y132.142 E-.2055
G1 X130.292 Y131.917 E-.07347
G1 X131.182 Y131.916 E-.2055
G1 X131.408 Y132.142 E-.0738
G1 X132.298 Y132.142 E-.2055
G1 X132.073 Y131.916 E-.07361
;WIPE_END
G1 Z.4 F720
G1 X155.378 Y89.394 F10800
G1 Z.2 F720
G1 E1 F1500
M204 S800
;WIDTH:0.663803
G1 F1200
G1 X156.407 Y90.422 E.07509
G1 X156.408 Y91.301 E.04538
G1 X154.773 Y89.667 E.11934
G1 X153.895 Y89.667 E.04533
G1 X156.409 Y92.18 E.18351
G1 X156.409 Y93.059 E.04538
G1 X153.017 Y89.667 E.24765
G1 X152.7 Y89.667 E.01637
G1 X152.693 Y90.221 E.0286
G1 X156.41 Y93.938 E.27138
G1 X156.411 Y94.817 E.04538
G1 X152.728 Y91.134 E.2689
G1 X152.852 Y92.136 E.05212
G1 X156.412 Y95.696 E.25992
G1 X156.413 Y96.574 E.04533
G1 X153.081 Y93.243 E.24324
G1 X153.21 Y93.82 E.03052
G1 X153.376 Y94.416 E.03194
G1 X156.413 Y97.453 E.22173
G1 X156.414 Y98.332 E.04538
G1 X153.801 Y95.719 E.19078
G1 X153.974 Y96.144 E.02369
G1 X154.5 Y97.296 E.06538
G1 X156.415 Y99.211 E.13982
G1 X156.416 Y100.09 E.04538
G1 X155.114 Y98.788 E.09506
G1 X155.438 Y99.64 E.04706
G1 X155.611 Y100.163 E.02844
G1 X156.417 Y100.969 E.05885
G1 X156.417 Y101.848 E.04538
G1 X155.606 Y101.036 E.05925
M204 S1000
;WIPE_START
G1 F8640
G1 X156.417 Y101.848 E-.26499
G1 X156.417 Y100.969 E-.20296
G1 X155.611 Y100.163 E-.2632
G1 X155.438 Y99.64 E-.1272
G1 X155.22 Y99.067 E-.14165
;WIPE_END
G1 Z.4 F720
G1 X125.364 Y130.341 F10800
G1 Z.2 F720
G1 E1 F1500
M204 S800
;TYPE:External perimeter
;WIDTH:0.77146
G1 F1200
G1 X125.364 Y133.404 E.18555
G1 X124.636 Y133.404 E.0441
G1 X124.636 Y130.341 E.18555
G1 X125.274 Y130.341 E.03865
M204 S1000
G1 X125.318 Y130.94 F10800
;WIPE_START
G1 F8640
G1 X125.364 Y133.404 E-.70756
G1 X124.636 Y133.404 E-.1681
G1 X124.636 Y132.866 E-.12434
;WIPE_END
G1 Z.4 F720
G1 X121.618 Y131.402 F10800
G1 Z.2 F720
G1 E1 F1500
M204 S800
;TYPE:Perimeter
;WIDTH:0.649999
G1 F1200
G1 X121.618 Y132.03 E.0317
G1 X121.618 Y132.658 E.0317
G1 X106.748 Y132.658 E.75062
G1 X104.914 Y132.503 E.09291
G1 X104.433 Y132.389 E.02495
;WIDTH:0.699411
G1 X104.343 Y132.34 E.00559
;WIDTH:0.748823
G1 X104.252 Y132.292 E.00604
;WIDTH:0.798235
G1 X104.161 Y132.243 E.00649
;WIDTH:0.847647
G1 X104.07 Y132.194 E.00692
;WIDTH:0.897059
G1 X103.98 Y132.145 E.00728
;WIDTH:0.94647
G1 X103.889 Y132.097 E.00773
G1 X103.596 Y132.023 E.0227
;WIDTH:0.957559
G1 X103.071 Y131.875 E.04148
G1 X102.509 Y131.644 E.04621
;WIDTH:0.944542
G1 X101.411 Y131.155 E.09011
G1 X100.637 Y130.694 E.06754
;WIDTH:0.915485
G1 X99.761 Y130.125 E.07579
G1 X99.312 Y129.756 E.04217
;WIDTH:0.889733
G1 X98.914 Y129.426 E.0364
;WIDTH:0.882694
G1 X98.185 Y128.773 E.06834
G1 X97.848 Y128.402 E.035
;WIDTH:0.857619
G1 X97.511 Y128.031 E.03395
;WIDTH:0.832543
G1 X97.374 Y127.875 E.01363
;WIDTH:0.850149
G1 X96.808 Y127.2 E.05913
G1 X96.147 Y126.236 E.07845
;WIDTH:0.800837
G1 X96.044 Y126.08 E.01178
;WIDTH:0.819521
G1 X95.61 Y125.393 E.05247
G1 X95.018 Y124.231 E.08421
;WIDTH:0.771257
G1 X94.941 Y124.073 E.01064
;WIDTH:0.791475
G1 X94.62 Y123.384 E.04731
G1 X94.138 Y122.052 E.08817
;WIDTH:0.747029
G1 X94.083 Y121.892 E.00991
;WIDTH:0.769264
G1 X93.864 Y121.212 E.04315
M73 P1 R36
G1 X93.524 Y119.741 E.09118
;WIDTH:0.731542
G1 X93.49 Y119.582 E.00931
;WIDTH:0.755033
G1 X93.361 Y118.921 E.03988
G1 X93.189 Y117.351 E.09352
;WIDTH:0.723698
G1 X93.176 Y117.221 E.0074
;WIDTH:0.743478
G1 X93.12 Y116.543 E.03963
G1 X93.098 Y115.702 E.04901
;WIDTH:0.737564
G1 X93.105 Y105.881 E.56726
;WIDTH:0.734473
G1 X93.105 Y105.803 E.00449
;WIDTH:0.7644
G1 X93.121 Y104.789 E.06084
;WIDTH:0.769265
G1 X93.124 Y104.688 E.0061
;WIDTH:0.817793
G1 X93.149 Y103.968 E.04642
;WIDTH:0.866321
G1 X93.173 Y103.247 E.04939
;WIDTH:0.875183
G1 X93.156 Y102.92 E.02266
;WIDTH:0.830147
G1 X93.133 Y102.697 E.01467
;WIDTH:0.78511
G1 X93.111 Y102.474 E.01383
;WIDTH:0.740073
G1 X93.089 Y102.251 E.01299
;WIDTH:0.695036
G1 X93.066 Y102.028 E.01216
;WIDTH:0.649999
G1 X93.078 Y89.64 E.62533
G1 X93.186 Y89.151 E.02528
G1 X97.727 Y89.151 E.22922
G1 X97.822 Y89.602 E.02327
G1 X97.816 Y90.726 E.05674
G1 X97.759 Y91.501 E.03923
G1 X97.644 Y92.309 E.0412
G1 X97.475 Y93.164 E.04399
G1 X97.246 Y94.122 E.04972
G1 X97.001 Y94.995 E.04577
G1 X96.777 Y95.666 E.03571
G1 X95.487 Y98.66 E.16457
G1 X95.046 Y99.819 E.0626
G1 X94.653 Y101.011 E.06336
G1 X94.341 Y102.161 E.06015
;WIDTH:0.695036
G1 X94.273 Y102.375 E.01218
;WIDTH:0.740073
G1 X94.205 Y102.589 E.01302
;WIDTH:0.78511
G1 X94.137 Y102.802 E.0138
;WIDTH:0.830147
G1 X94.069 Y103.016 E.0147
;WIDTH:0.875183
G1 X93.993 Y103.303 E.02055
;WIDTH:0.866321
G1 X93.92 Y104.02 E.04934
;WIDTH:0.817793
G1 X93.847 Y104.738 E.0465
;WIDTH:0.769265
G1 X93.842 Y104.811 E.00442
;WIDTH:0.7644
G1 X93.796 Y105.824 E.06083
;WIDTH:0.734473
G1 X93.795 Y105.881 E.00328
;WIDTH:0.737564
G1 X93.793 Y115.759 E.57055
;WIDTH:0.743478
G1 X93.864 Y117.27 E.08812
;WIDTH:0.755033
M73 P2 R36
G1 X94.068 Y118.836 E.09351
M73 Q2 S37
G1 X94.192 Y119.578 E.04454
;WIDTH:0.769264
G1 X94.569 Y121.04 E.09119
G1 X94.796 Y121.802 E.04802
;WIDTH:0.791475
G1 X95.32 Y123.118 E.08817
G1 X95.661 Y123.889 E.05247
;WIDTH:0.819521
G1 X96.295 Y125.028 E.08418
G1 X96.763 Y125.795 E.05802
;WIDTH:0.850149
G1 X97.464 Y126.73 E.07844
G1 X98.081 Y127.486 E.0655
;WIDTH:0.857619
G1 X98.436 Y127.84 E.03396
;WIDTH:0.882694
G1 X98.791 Y128.193 E.03496
G1 X99.589 Y128.921 E.07543
;WIDTH:0.915485
G1 X100.243 Y129.397 E.05869
G1 X101.109 Y129.98 E.07574
;WIDTH:0.905112
G1 X101.256 Y130.068 E.01228
;WIDTH:0.944542
G1 X101.782 Y130.334 E.04419
G1 X102.874 Y130.834 E.09004
;WIDTH:0.931271
G1 X102.895 Y130.843 E.00169
;WIDTH:0.957559
G1 X103.392 Y131.021 E.04015
G1 X104.099 Y131.218 E.05582
;WIDTH:0.94647
G1 X104.202 Y131.216 E.00774
;WIDTH:0.897059
G1 X104.305 Y131.213 E.00732
;WIDTH:0.847647
G1 X104.408 Y131.211 E.00689
;WIDTH:0.798235
G1 X104.511 Y131.208 E.00647
;WIDTH:0.748823
G1 X104.614 Y131.206 E.00605
;WIDTH:0.699411
G1 X104.717 Y131.203 E.00562
;WIDTH:0.649999
G1 X105.819 Y131.357 E.05617
G1 X106.695 Y131.394 E.04426
G1 X121.528 Y131.402 E.74875
M204 S1000
G1 X122.225 Y130.795 F10800
M204 S800
;TYPE:External perimeter
G1 F1200
G1 X122.225 Y133.265 E.12468
G1 X106.722 Y133.265 E.78257
G1 X104.76 Y133.099 E.09939
G1 X102.857 Y132.612 E.09916
G1 X101.022 Y131.809 E.10111
G1 X99.289 Y130.701 E.10383
G1 X97.69 Y129.307 E.10708
G1 X96.257 Y127.649 E.11062
G1 X95.018 Y125.757 E.11416
G1 X94 Y123.665 E.11744
G1 X93.225 Y121.413 E.12022
G1 X92.711 Y119.044 E.12237
G1 X92.467 Y116.596 E.12418
G1 X92.447 Y115.713 E.04458
G1 X92.471 Y89.573 E1.31952
G1 X92.699 Y88.544 E.0532
G1 X98.203 Y88.544 E.27784
