; generated by PrusaSlicer 2.6.0+win64 on 2023-09-05 at 07:37:55 UTC


;
;
; 

; external perimeters extrusion width = 0.65mm
; perimeters extrusion width = 0.65mm
; infill extrusion width = 0.65mm
; solid infill extrusion width = 0.65mm
; top infill extrusion width = 0.60mm
; support material extrusion width = 0.55mm
; first layer extrusion width = 0.65mm

M73 P0 R43
M73 Q0 S44
M201 X1000 Y1000 Z200 E5000 ; sets maximum accelerations, mm/sec^2
M203 X200 Y200 Z12 E120 ; sets maximum feedrates, mm / sec
M204 S1250 T1250 ; sets acceleration (S) and retract acceleration (R), mm/sec^2
M205 X8.00 Y8.00 Z0.40 E4.50 ; sets the jerk limits, mm/sec
M205 S0 T0 ; sets the minimum extruding and travel feed rate, mm/sec
;TYPE:Custom
M862.3 P "MK3S" ; printer model check
M862.1 P0.6 ; nozzle diameter check
M115 U3.12.2 ; tell printer latest fw version
G90 ; use absolute coordinates
M83 ; extruder relative mode
M104 S240 ; set extruder temp
M140 S85 ; set bed temp
M190 S85 ; wait for bed temp
M109 S240 ; wait for extruder temp
G28 W ; home all without mesh bed level
G80 ; mesh bed leveling

G1 Z0.2 F720
G1 Y-3 F1000 ; go outside print area
G92 E0
G1 X60 E9 F1000 ; intro line
G1 X100 E12.5 F1000 ; intro line

G92 E0
M221 S95
G21 ; set units to millimeters
G90 ; use absolute coordinates
M83 ; use relative distances for extrusion
M900 K0.04 ; Filament gcode LA 1.5
M900 K24 ; Filament gcode LA 1.0
M107
;LAYER_CHANGE
;Z:0.2
;HEIGHT:0.2
;BEFORE_LAYER_CHANGE
G92 E0.0
;0.2


G1 E-1 F2100
G1 Z.2 F720
;AFTER_LAYER_CHANGE
;0.2
G1 Z.4
G1 X82.583 Y80.805 F10800
G1 Z.2 F720
G1 E1 F1500
M204 S800
;TYPE:Skirt/Brim
;WIDTH:0.65
G1 F1200
G1 X83.642 Y79.843 E.07222
G1 X84.798 Y79.573 E.05992
G1 X165.202 Y79.573 E4.0587
G1 X166.577 Y79.965 E.07217
G1 X167.539 Y81.024 E.07222
G1 X167.809 Y82.18 E.05992
G1 X167.809 Y100.444 E.92195
G1 X167.692 Y101.215 E.03936
G1 X160.305 Y125.048 E1.25953
G1 X159.249 Y127.536 E.13644
G1 X157.904 Y129.865 E.13576
G1 X156.297 Y131.961 E.13332
G1 X154.454 Y133.784 E.13086
G1 X152.403 Y135.295 E.12859
G1 X149.796 Y136.617 E.14755
G1 X147.409 Y137.343 E.12594
G1 X145.099 Y137.66 E.1177
G1 X105.481 Y137.674 E1.99987
G1 X103.036 Y137.432 E.12402
G1 X101.057 Y136.926 E.10311
G1 X98.396 Y135.765 E.14655
G1 X96.293 Y134.389 E.12686
G1 X94.64 Y132.952 E.11056
G1 X92.693 Y130.713 E.14978
G1 X91.252 Y128.485 E.13394
G1 X90.079 Y126.05 E.13643
G1 X89.247 Y123.657 E.12789
G1 X82.307 Y101.214 E1.18583
G1 X82.191 Y100.444 E.03931
G1 X82.191 Y82.18 E.92195
G1 X82.559 Y80.891 E.06767
M204 S1000
; printing object Top_Gripper_Plate_rev0-1 id:0 copy 0
;WIPE_START
G1 F8640
G1 X83.642 Y79.843 E-.34798
G1 X84.798 Y79.573 E-.27411
G1 X86.435 Y79.573 E-.37791
;WIPE_END
G1 Z.4 F720
G1 X93.119 Y88.337 F10800
G1 Z.2 F720
G1 E1 F1500
M204 S800
;TYPE:Support material
G1 F1200
G1 X91.343 Y88.337 E.08965
G1 X91.137 Y88.39 E.01074
G1 X90.849 Y88.548 E.01658
G1 X90.716 Y88.662 E.00884
G1 X90.493 Y88.953 E.01851
G1 X90.417 Y89.109 E.00876
G1 X90.162 Y90.122 E.05273
G1 X90.077 Y90.716 E.03029
G1 X90.073 Y100.444 E.49106
G1 X84.798 Y100.444 E.26628
G1 X84.798 Y82.18 E.92195
G1 X93.119 Y82.18 E.42003
G1 X93.119 Y88.246 E.3062
M204 S1000
G1 X91.948 Y88.064 F10800
M204 S800
G1 F1200
G1 X91.948 Y82.726 E.26946
G1 X91.273 Y82.726 E.03407
G1 X91.273 Y87.791 E.25568
G1 X90.934 Y87.878 E.01767
G1 X90.599 Y88.062 E.01929
G1 X90.599 Y82.726 E.26936
G1 X89.924 Y82.726 E.03407
G1 X89.924 Y88.873 E.31029
G1 X89.629 Y90.002 E.0589
G1 X89.531 Y90.696 E.03538
G1 X89.527 Y99.897 E.46446
G1 X89.25 Y99.897 E.01398
G1 X89.25 Y82.726 E.86677
G1 X88.575 Y82.726 E.03407
G1 X88.575 Y99.897 E.86677
G1 X87.901 Y99.897 E.03402
M73 P1 R43
M73 Q1 S44
G1 X87.901 Y82.726 E.86677
G1 X87.226 Y82.726 E.03407
G1 X87.226 Y99.897 E.86677
G1 X86.552 Y99.897 E.03402
G1 X86.552 Y82.726 E.86677
G1 X85.877 Y82.726 E.03407
G1 X85.877 Y100.17 E.88055
M204 S1000
;WIPE_START
G1 F8640
G1 X85.877 Y95.839 E-1
;WIPE_END
G1 Z.4 F720
G1 X165.202 Y100.444 F10800
G1 Z.2 F720
G1 E1 F1500
M204 S800
G1 F1200
G1 X159.923 Y100.444 E.26648
G1 X159.923 Y90.716 E.49106
G1 X159.847 Y90.164 E.02813
G1 X159.583 Y89.109 E.0549
G1 X159.507 Y88.953 E.00876
G1 X159.284 Y88.662 E.01851
G1 X159.151 Y88.548 E.00884
G1 X158.863 Y88.39 E.01658
G1 X158.657 Y88.337 E.01074
G1 X156.881 Y88.337 E.08965
G1 X156.881 Y82.18 E.3108
G1 X165.202 Y82.18 E.42003
G1 X165.202 Y100.352 E.9173
M204 S1000
G1 X164.123 Y100.17 F10800
M204 S800
G1 F1200
G1 X164.123 Y82.726 E.88055
G1 X163.448 Y82.726 E.03407
G1 X163.448 Y99.897 E.86677
G1 X162.774 Y99.897 E.03402
G1 X162.774 Y82.726 E.86677
G1 X162.099 Y82.726 E.03407
G1 X162.099 Y99.897 E.86677
G1 X161.425 Y99.897 E.03402
G1 X161.425 Y82.726 E.86677
G1 X160.75 Y82.726 E.03407
G1 X160.75 Y99.897 E.86677
G1 X160.469 Y99.897 E.01418
G1 X160.469 Y90.696 E.46446
G1 X160.371 Y90.002 E.03538
G1 X160.076 Y88.873 E.0589
G1 X160.076 Y82.726 E.31029
G1 X159.401 Y82.726 E.03407
G1 X159.401 Y88.062 E.26936
G1 X159.066 Y87.878 E.01929
G1 X158.727 Y87.791 E.01767
G1 X158.727 Y82.726 E.25568
G1 X158.052 Y82.726 E.03407
G1 X158.052 Y88.064 E.26946
M204 S1000
;WIPE_START
G1 F8640
G1 X158.052 Y83.733 E-1
;WIPE_END
G1 Z.4 F720
G1 X128.382 Y133.944 F10800
G1 Z.2 F720
G1 E1 F1500
M204 S800
;TYPE:Perimeter
;WIDTH:0.649999
G1 F1200
G1 X128.382 Y132.676 E.06401
G1 X144.306 Y132.667 E.80382
G1 X145.513 Y132.598 E.06103
G1 X146.71 Y132.382 E.0614
;WIDTH:0.69894
G1 X146.822 Y132.379 E.00611
;WIDTH:0.747881
M73 P1 R42
G1 X146.935 Y132.375 E.00663
;WIDTH:0.796821
G1 X147.047 Y132.372 E.00702
;WIDTH:0.845762
G1 X147.159 Y132.369 E.00748
;WIDTH:0.894703
G1 X147.272 Y132.366 E.00801
;WIDTH:0.943643
G1 X147.384 Y132.363 E.00839
G1 X148.301 Y132.046 E.07267
;WIDTH:0.943332
G1 X149.238 Y131.611 E.07734
;WIDTH:0.939626
G1 X150.277 Y130.985 E.09044
;WIDTH:0.913678
G1 X150.802 Y130.654 E.04494
;WIDTH:0.887729
G1 X150.874 Y130.606 E.00608
;WIDTH:0.904398
G1 X151.275 Y130.282 E.03693
G1 X151.829 Y129.797 E.05274
;WIDTH:0.879294
G1 X152.383 Y129.312 E.05121
;WIDTH:0.868041
G1 X152.699 Y128.977 E.0316
G1 X153.782 Y127.697 E.11504
;WIDTH:0.834185
G1 X153.983 Y127.414 E.02284
G1 X154.969 Y125.848 E.12176
;WIDTH:0.804719
G1 X155.091 Y125.618 E.01649
G1 X155.923 Y123.812 E.12595
;WIDTH:0.777463
G1 X156.623 Y121.622 E.14043
;WIDTH:0.758216
G1 X157.052 Y119.331 E.13863
;WIDTH:0.747476
G1 X157.2 Y116.997 E.13701
;WIDTH:0.746978
G1 X157.202 Y106.968 E.58712
;WIDTH:0.745508
G1 X157.202 Y106.934 E.00199
;WIDTH:0.76425
G1 X157.173 Y105.852 E.06492
;WIDTH:0.767479
G1 X157.17 Y105.785 E.00404
;WIDTH:0.797289
G1 X157.125 Y105.216 E.0358
;WIDTH:0.827098
G1 X157.08 Y104.647 E.03722
;WIDTH:0.833656
G1 X157.074 Y104.579 E.00449
;WIDTH:0.868168
G1 X157.022 Y104.182 E.02747
;WIDTH:0.90268
G1 X156.971 Y103.786 E.02854
;WIDTH:0.937191
G1 X156.919 Y103.389 E.02977
G1 X156.884 Y103.331 E.00504
;WIDTH:0.892735
G1 X156.809 Y103.117 E.01602
;WIDTH:0.844188
G1 X156.733 Y102.904 E.01507
;WIDTH:0.795641
G1 X156.657 Y102.69 E.01421
;WIDTH:0.747094
G1 X156.581 Y102.477 E.01324
;WIDTH:0.698547
G1 X156.505 Y102.263 E.01238
;WIDTH:0.649999
G1 X156.165 Y101.109 E.06073
G1 X155.765 Y99.946 E.06208
G1 X155.313 Y98.766 E.06379
M73 Q1 S43
G1 X154.816 Y97.583 E.06477
G1 X154.554 Y96.882 E.03778
G1 X154.33 Y96.126 E.0398
G1 X154.079 Y95.113 E.05268
G1 X153.84 Y93.853 E.06474
G1 X153.748 Y93.234 E.03159
G1 X153.67 Y92.368 E.04389
G1 X153.655 Y90.824 E.07794
G1 X153.752 Y90.314 E.02621
G1 X157.848 Y90.314 E.20676
G1 X157.946 Y90.869 E.02845
G1 X157.95 Y102.093 E.56657
;WIDTH:0.698547
G1 X157.926 Y102.318 E.01234
;WIDTH:0.747094
G1 X157.901 Y102.544 E.01331
;WIDTH:0.795641
G1 X157.877 Y102.769 E.01416
;WIDTH:0.844188
G1 X157.853 Y102.994 E.01508
;WIDTH:0.892735
G1 X157.829 Y103.22 E.01606
;WIDTH:0.937191
G1 X157.807 Y103.312 E.00703
G1 X157.824 Y103.712 E.02977
;WIDTH:0.90268
G1 X157.842 Y104.111 E.02855
;WIDTH:0.868168
G1 X157.859 Y104.511 E.02747
;WIDTH:0.833656
G1 X157.862 Y104.606 E.00625
;WIDTH:0.827098
G1 X157.877 Y105.176 E.03718
;WIDTH:0.797289
G1 X157.893 Y105.746 E.03577
;WIDTH:0.767479
G1 X157.894 Y105.839 E.0056
;WIDTH:0.76425
G1 X157.904 Y106.922 E.06496
;WIDTH:0.745508
G1 X157.904 Y106.968 E.00269
;WIDTH:0.746978
G1 X157.9 Y117.034 E.58929
;WIDTH:0.747476
G1 X157.771 Y119.255 E.13033
G1 X157.746 Y119.44 E.01094
;WIDTH:0.758216
G1 X157.361 Y121.618 E.13155
G1 X157.303 Y121.831 E.01313
;WIDTH:0.777463
G1 X156.695 Y123.847 E.12861
G1 X156.587 Y124.111 E.01742
;WIDTH:0.804719
G1 X155.785 Y125.931 E.12598
G1 X155.61 Y126.243 E.02266
;WIDTH:0.834185
G1 X154.657 Y127.828 E.12168
G1 X154.384 Y128.193 E.02999
;WIDTH:0.868041
G1 X153.336 Y129.501 E.11499
G1 X152.928 Y129.912 E.03973
;WIDTH:0.879294
G1 X152.391 Y130.416 E.05122
;WIDTH:0.904398
G1 X151.854 Y130.92 E.05275
G1 X151.267 Y131.359 E.05251
;WIDTH:0.913678
G1 X150.756 Y131.711 E.04493
;WIDTH:0.939626
G1 X150.186 Y132.099 E.05141
G1 X149.495 Y132.462 E.0582
;WIDTH:0.951626
G1 X148.478 Y132.954 E.08536
G1 X147.544 Y133.265 E.07438
;WIDTH:0.929394
G1 X147.461 Y133.316 E.00718
;WIDTH:0.882829
G1 X147.378 Y133.367 E.0068
;WIDTH:0.836263
G1 X147.295 Y133.418 E.00643
;WIDTH:0.789697
G1 X147.212 Y133.468 E.00602
;WIDTH:0.743131
G1 X147.129 Y133.519 E.00567
;WIDTH:0.696565
G1 X147.046 Y133.57 E.00529
;WIDTH:0.649999
G1 X146.78 Y133.656 E.01411
G1 X144.922 Y133.925 E.09477
G1 X144.283 Y133.944 E.03227
G1 X128.472 Y133.944 E.79812
M204 S1000
G1 X127.775 Y134.551 F10800
M204 S800
;TYPE:External perimeter
G1 F1200
G1 X127.775 Y132.07 E.12524
G1 X144.273 Y132.06 E.8328
G1 X145.419 Y131.998 E.05793
G1 X146.565 Y131.792 E.05878
G1 X147.141 Y131.649 E.02996
G1 X147.997 Y131.356 E.04567
G1 X148.856 Y130.976 E.04741
G1 X150.469 Y130.003 E.09509
G1 X151.958 Y128.738 E.09863
G1 X153.285 Y127.207 E.10227
G1 X154.416 Y125.445 E.10569
G1 X155.333 Y123.49 E.109
G1 X156.005 Y121.384 E.11159
G1 X156.408 Y119.211 E.11156
G1 X156.547 Y116.939 E.1149
G1 X156.547 Y106.968 E.50332
G1 X156.508 Y105.854 E.05627
G1 X156.388 Y104.72 E.05756
G1 X156.18 Y103.518 E.06158
G1 X155.915 Y102.404 E.0578
G1 X155.582 Y101.281 E.05913
G1 X155.191 Y100.144 E.06069
G1 X154.742 Y98.975 E.06321
G1 X154.251 Y97.807 E.06396
G1 X153.978 Y97.074 E.03948
G1 X153.744 Y96.285 E.04154
G1 X153.485 Y95.243 E.0542
G1 X153.241 Y93.954 E.06622
G1 X153.145 Y93.306 E.03307
G1 X153.064 Y92.399 E.04597
G1 X153.048 Y90.873 E.07703
G1 X153.102 Y90.41 E.02353
M73 P2 R42
G1 X153.279 Y89.707 E.03659
G1 X158.321 Y89.707 E.25451
G1 X158.487 Y90.367 E.03435
G1 X158.553 Y90.869 E.02556
G1 X158.563 Y116.917 E1.31487
G1 X158.42 Y119.384 E.12474
M73 Q2 S43
G1 X158.003 Y121.789 E.12321
G1 X157.32 Y124.097 E.1215
G1 X156.387 Y126.263 E.11905
G1 X155.223 Y128.244 E.11598
G1 X153.853 Y130.003 E.11255
G1 X152.304 Y131.506 E.10895
G1 X150.609 Y132.728 E.10548
G1 X148.802 Y133.646 E.10231
G1 X146.917 Y134.249 E.0999
G1 X144.975 Y134.53 E.09905
G1 X144.292 Y134.551 E.03449
G1 X127.865 Y134.551 E.82922
M204 S1000
G1 X128.075 Y134.031 F10800
;WIPE_START
G1 F8640
G1 X127.775 Y132.07 E-.57325
G1 X129.623 Y132.069 E-.42675
;WIPE_END
G1 Z.4 F720
G1 X146.909 Y133.359 F10800
G1 Z.2 F720
G1 E1 F1500
M204 S800
;TYPE:Solid infill
;WIDTH:0.657476
G1 F1200
G1 X146.508 Y132.959 E.02894
G1 X145.761 Y133.081 E.03868
G1 X145.936 Y133.256 E.01265
G1 X145.177 Y133.366 E.03919
G1 X144.958 Y133.147 E.01583
G1 X144.125 Y133.183 E.04261
G1 X144.367 Y133.425 E.01749
G1 X144.275 Y133.428 E.0047
G1 X143.5 Y133.428 E.0396
G1 X143.256 Y133.184 E.01763
G1 X142.388 Y133.184 E.04436
G1 X142.631 Y133.428 E.0176
G1 X141.762 Y133.428 E.04441
G1 X141.519 Y133.185 E.01756
G1 X140.651 Y133.185 E.04436
G1 X140.893 Y133.428 E.01752
G1 X140.024 Y133.428 E.04441
G1 X139.782 Y133.186 E.01749
G1 X138.913 Y133.186 E.04441
G1 X139.155 Y133.428 E.01749
G1 X138.286 Y133.428 E.04441
G1 X138.045 Y133.187 E.01742
G1 X137.176 Y133.187 E.04441
G1 X137.417 Y133.428 E.01742
G1 X136.548 Y133.428 E.04441
G1 X136.308 Y133.188 E.01734
G1 X135.439 Y133.188 E.04441
G1 X135.678 Y133.428 E.01731
G1 X134.809 Y133.428 E.04441
G1 X134.57 Y133.189 E.01727
G1 X133.702 Y133.189 E.04436
G1 X133.94 Y133.428 E.01724
G1 X133.071 Y133.428 E.04441
G1 X132.833 Y133.19 E.0172
G1 X131.965 Y133.19 E.04436
G1 X132.202 Y133.428 E.01716
G1 X131.333 Y133.428 E.04441
G1 X131.096 Y133.191 E.01713
G1 X130.227 Y133.191 E.04441
G1 X130.464 Y133.428 E.01713
G1 X129.595 Y133.428 E.04441
G1 X129.086 Y132.919 E.03678
M204 S1000
;WIPE_START
G1 F8640
G1 X129.595 Y133.428 E-.16621
G1 X130.464 Y133.428 E-.20065
G1 X130.227 Y133.191 E-.07739
G1 X131.096 Y133.191 E-.20065
G1 X131.333 Y133.428 E-.07739
G1 X132.202 Y133.428 E-.20065
G1 X131.966 Y133.192 E-.07706
;WIPE_END
G1 Z.4 F720
G1 X157.703 Y91.857 F10800
G1 Z.2 F720
G1 E1 F1500
M204 S800
;WIDTH:0.6621
G1 F1200
G1 X156.677 Y90.83 E.07474
G1 X155.801 Y90.83 E.0451
G1 X157.43 Y92.46 E.11865
G1 X157.431 Y93.336 E.0451
G1 X154.925 Y90.83 E.18246
G1 X154.176 Y90.83 E.03856
G1 X154.172 Y90.953 E.00634
G1 X157.431 Y94.212 E.23729
G1 X157.431 Y95.088 E.0451
G1 X154.181 Y91.837 E.23667
G1 X154.186 Y92.343 E.02605
G1 X154.223 Y92.755 E.0213
G1 X157.432 Y95.964 E.23365
G1 X157.432 Y96.84 E.0451
G1 X154.347 Y93.754 E.22466
G1 X154.551 Y94.834 E.05659
G1 X157.432 Y97.716 E.2098
G1 X157.433 Y98.591 E.04505
G1 X154.826 Y95.985 E.18978
G1 X155.044 Y96.718 E.03937
G1 X155.258 Y97.293 E.03159
G1 X157.433 Y99.467 E.15833
G1 X157.433 Y100.343 E.0451
G1 X155.871 Y98.781 E.11373
G1 X156.389 Y100.175 E.07657
G1 X157.434 Y101.219 E.07605
G1 X157.429 Y102.091 E.0449
G1 X156.405 Y101.067 E.07456
M204 S1000
;WIPE_START
G1 F8640
G1 X157.429 Y102.091 E-.33438
G1 X157.434 Y101.219 E-.20135
G1 X156.389 Y100.175 E-.34108
G1 X156.203 Y99.675 E-.12319
;WIPE_END
G1 Z.4 F720
G1 X124.636 Y131.621 F10800
G1 Z.2 F720
G1 E1 F1500
M204 S800
;TYPE:External perimeter
;WIDTH:0.77146
G1 F1200
G1 X125.364 Y131.621 E.0441
G1 X125.364 Y134.687 E.18573
G1 X124.636 Y134.687 E.0441
G1 X124.636 Y131.711 E.18028
M204 S1000
G1 X125.177 Y131.88 F10800
;WIPE_START
G1 F8640
G1 X125.364 Y131.621 E-.16938
G1 X125.364 Y134.687 E-.70795
G1 X124.833 Y134.687 E-.12267
;WIPE_END
G1 Z.4 F720
G1 X121.618 Y132.676 F10800
G1 Z.2 F720
G1 E1 F1500
M204 S800
;TYPE:Perimeter
;WIDTH:0.649999
G1 F1200
G1 X121.618 Y133.31 E.032
G1 X121.618 Y133.944 E.032
G1 X105.748 Y133.944 E.8011
G1 X103.871 Y133.786 E.09508
G1 X102.302 Y133.384 E.08176
;WIDTH:0.698916
G1 X102.217 Y133.338 E.00527
;WIDTH:0.747832
G1 X102.133 Y133.291 E.00564
;WIDTH:0.796171
G1 X102.024 Y133.219 E.00818
;WIDTH:0.84451
G1 X101.915 Y133.147 E.00871
;WIDTH:0.892849
G1 X101.807 Y133.075 E.00917
;WIDTH:0.941187
G1 X101.698 Y133.003 E.00976
G1 X101.52 Y132.928 E.01443
;WIDTH:0.950506
G1 X100.436 Y132.446 E.08953
G1 X99.654 Y131.981 E.06866
;WIDTH:0.921255
G1 X98.792 Y131.421 E.07507
G1 X98.338 Y131.05 E.04282
;WIDTH:0.89548
G1 X97.936 Y130.718 E.03696
;WIDTH:0.888354
G1 X97.219 Y130.076 E.06766
G1 X96.878 Y129.702 E.03558
;WIDTH:0.863312
G1 X96.537 Y129.328 E.03453
;WIDTH:0.83827
G1 X96.4 Y129.172 E.01373
;WIDTH:0.855822
G1 X95.843 Y128.509 E.05853
G1 X95.174 Y127.538 E.0797
;WIDTH:0.806795
G1 X95.07 Y127.381 E.01196
;WIDTH:0.825909
G1 X94.643 Y126.708 E.05189
G1 X94.043 Y125.538 E.08561
;WIDTH:0.778957
G1 X93.966 Y125.381 E.0107
;WIDTH:0.799164
G1 X93.649 Y124.705 E.04695
G1 X93.159 Y123.365 E.08972
;WIDTH:0.755538
G1 X93.104 Y123.206 E.00997
;WIDTH:0.777591
G1 X92.886 Y122.538 E.04292
G1 X92.538 Y121.059 E.09282
;WIDTH:0.740875
G1 X92.503 Y120.901 E.00939
;WIDTH:0.764176
G1 X92.373 Y120.25 E.03981
G1 X92.191 Y118.672 E.09526
;WIDTH:0.73409
G1 X92.177 Y118.539 E.00769
;WIDTH:0.75449
G1 X92.119 Y117.875 E.03944
G1 X92.093 Y116.914 E.05688
;WIDTH:0.746982
G1 X92.096 Y106.967 E.58233
;WIDTH:0.745509
G1 X92.096 Y106.921 E.00269
;WIDTH:0.764226
G1 X92.106 Y105.839 E.0649
;WIDTH:0.767665
G1 X92.108 Y105.742 E.00585
;WIDTH:0.800919
G1 X92.124 Y105.124 E.03896
;WIDTH:0.834173
G1 X92.141 Y104.505 E.04074
;WIDTH:0.840862
G1 X92.121 Y104.135 E.02459
;WIDTH:0.793147
G1 X92.097 Y103.859 E.01728
;WIDTH:0.745431
G1 X92.073 Y103.584 E.01612
;WIDTH:0.697715
G1 X92.05 Y103.308 E.01508
;WIDTH:0.649999
G1 X92.054 Y90.829 E.62993
G1 X92.152 Y90.314 E.02646
