; generated by PrusaSlicer 2.6.0+win64 on 2023-09-01 at 14:19:23 UTC


;
;
; 

; external perimeters extrusion width = 0.65mm
; perimeters extrusion width = 0.65mm
; infill extrusion width = 0.65mm
; solid infill extrusion width = 0.65mm
; top infill extrusion width = 0.60mm
; support material extrusion width = 0.55mm
; first layer extrusion width = 0.65mm

M73 P0 R45
M73 Q0 S46
M201 X1000 Y1000 Z200 E5000 ; sets maximum accelerations, mm/sec^2
M203 X200 Y200 Z12 E120 ; sets maximum feedrates, mm / sec
M204 S1250 T1250 ; sets acceleration (S) and retract acceleration (R), mm/sec^2
M205 X8.00 Y8.00 Z0.40 E4.50 ; sets the jerk limits, mm/sec
M205 S0 T0 ; sets the minimum extruding and travel feed rate, mm/sec
;TYPE:Custom
M862.3 P "MK3S" ; printer model check
M862.1 P0.6 ; nozzle diameter check
M115 U3.12.2 ; tell printer latest fw version
G90 ; use absolute coordinates
M83 ; extruder relative mode
M104 S240 ; set extruder temp
M140 S85 ; set bed temp
M190 S85 ; wait for bed temp
M109 S240 ; wait for extruder temp
G28 W ; home all without mesh bed level
G80 ; mesh bed leveling

G1 Z0.2 F720
G1 Y-3 F1000 ; go outside print area
G92 E0
G1 X60 E9 F1000 ; intro line
G1 X100 E12.5 F1000 ; intro line

G92 E0
M221 S95
G21 ; set units to millimeters
G90 ; use absolute coordinates
M83 ; use relative distances for extrusion
M900 K0.04 ; Filament gcode LA 1.5
M900 K24 ; Filament gcode LA 1.0
M107
;LAYER_CHANGE
;Z:0.2
;HEIGHT:0.2
;BEFORE_LAYER_CHANGE
G92 E0.0
;0.2


G1 E-1 F2100
G1 Z.2 F720
;AFTER_LAYER_CHANGE
;0.2
G1 Z.4
G1 X82.583 Y80.472 F10800
G1 Z.2 F720
G1 E1 F1500
M204 S800
;TYPE:Skirt/Brim
;WIDTH:0.65
G1 F1200
G1 X83.642 Y79.51 E.07222
G1 X84.798 Y79.24 E.05992
G1 X165.202 Y79.24 E4.0587
G1 X166.577 Y79.632 E.07217
G1 X167.539 Y80.691 E.07222
G1 X167.809 Y81.847 E.05992
G1 X167.809 Y100.111 E.92195
G1 X167.696 Y100.869 E.03869
G1 X160.657 Y124.028 E1.22185
G1 X159.548 Y126.59 E.14092
G1 X158.145 Y128.957 E.1389
G1 X156.466 Y131.081 E.13667
G1 X154.542 Y132.92 E.13435
G1 X152.403 Y134.434 E.13228
G1 X149.7 Y135.739 E.15151
G1 X147.223 Y136.439 E.12993
G1 X144.852 Y136.719 E.12052
G1 X105.482 Y136.72 E1.98735
G1 X102.951 Y136.472 E.12837
G1 X100.888 Y135.945 E.10748
G1 X98.149 Y134.751 E.15083
G1 X95.974 Y133.33 E.13115
G1 X94.262 Y131.839 E.1146
G1 X92.265 Y129.534 E.15395
G1 X90.792 Y127.23 E.13804
G1 X89.607 Y124.722 E.14002
G1 X88.783 Y122.273 E.13043
G1 X82.303 Y100.866 E1.12902
G1 X82.191 Y100.111 E.03853
G1 X82.191 Y81.847 E.92195
G1 X82.559 Y80.558 E.06767
M204 S1000
; printing object Top_Gripper_Plate_rev0 id:0 copy 0
;WIPE_START
G1 F8640
G1 X83.642 Y79.51 E-.34798
G1 X84.798 Y79.24 E-.27411
G1 X86.435 Y79.24 E-.37791
;WIPE_END
G1 Z.4 F720
G1 X93.119 Y87.595 F10800
G1 Z.2 F720
G1 E1 F1500
M204 S800
;TYPE:Support material
G1 F1200
G1 X90.844 Y87.595 E.11484
G1 X90.639 Y87.647 E.01068
G1 X90.369 Y87.794 E.01552
G1 X90.235 Y87.908 E.00888
G1 X90.072 Y88.118 E.01342
G1 X89.996 Y88.274 E.00876
G1 X89.808 Y89.023 E.03898
G1 X89.673 Y89.974 E.04849
G1 X89.672 Y100.111 E.5117
G1 X84.798 Y100.111 E.24603
G1 X84.798 Y81.847 E.92195
G1 X93.119 Y81.847 E.42003
G1 X93.119 Y87.504 E.28556
M204 S1000
G1 X91.948 Y87.322 F10800
M204 S800
G1 F1200
G1 X91.948 Y82.393 E.24881
G1 X91.273 Y82.393 E.03407
G1 X91.273 Y87.048 E.23498
G1 X90.776 Y87.048 E.02509
G1 X90.599 Y87.093 E.00922
G1 X90.599 Y82.393 E.23725
G1 X89.924 Y82.393 E.03407
G1 X89.924 Y87.455 E.25552
G1 X89.838 Y87.528 E.00569
G1 X89.606 Y87.828 E.01914
G1 X89.48 Y88.085 E.01445
G1 X89.284 Y88.86 E.04035
G1 X89.25 Y89.065 E.01049
G1 X89.25 Y82.393 E.3368
G1 X88.575 Y82.393 E.03407
G1 X88.575 Y99.564 E.86677
G1 X87.901 Y99.564 E.03402
G1 X87.901 Y82.393 E.86677
G1 X87.226 Y82.393 E.03407
G1 X87.226 Y99.564 E.86677
G1 X86.552 Y99.564 E.03402
G1 X86.552 Y82.393 E.86677
M73 P1 R45
G1 X85.877 Y82.393 E.03407
M73 Q1 S46
G1 X85.877 Y99.837 E.88055
M204 S1000
;WIPE_START
G1 F8640
G1 X85.877 Y95.506 E-1
;WIPE_END
G1 Z.4 F720
G1 X165.202 Y100.111 F10800
G1 Z.2 F720
G1 E1 F1500
M204 S800
G1 F1200
G1 X160.328 Y100.111 E.24603
G1 X160.327 Y89.975 E.51165
G1 X160.192 Y89.023 E.04854
G1 X160.004 Y88.275 E.03893
G1 X159.928 Y88.118 E.0088
G1 X159.765 Y87.908 E.01342
G1 X159.631 Y87.794 E.00888
G1 X159.361 Y87.647 E.01552
G1 X159.156 Y87.595 E.01068
G1 X156.881 Y87.595 E.11484
G1 X156.881 Y81.847 E.29015
G1 X165.202 Y81.847 E.42003
G1 X165.202 Y100.02 E.91735
M204 S1000
G1 X164.123 Y99.837 F10800
M204 S800
G1 F1200
G1 X164.123 Y82.393 E.88055
G1 X163.448 Y82.393 E.03407
G1 X163.448 Y99.564 E.86677
G1 X162.774 Y99.564 E.03402
G1 X162.774 Y82.393 E.86677
G1 X162.099 Y82.393 E.03407
G1 X162.099 Y99.564 E.86677
G1 X161.425 Y99.564 E.03402
G1 X161.425 Y82.393 E.86677
G1 X160.75 Y82.393 E.03407
G1 X160.75 Y89.065 E.3368
G1 X160.716 Y88.86 E.01049
G1 X160.52 Y88.086 E.0403
G1 X160.394 Y87.828 E.01449
G1 X160.162 Y87.528 E.01914
G1 X160.076 Y87.455 E.00569
G1 X160.076 Y82.393 E.25552
G1 X159.401 Y82.393 E.03407
G1 X159.401 Y87.093 E.23725
G1 X159.224 Y87.048 E.00922
G1 X158.727 Y87.048 E.02509
G1 X158.727 Y82.393 E.23498
G1 X158.052 Y82.393 E.03407
G1 X158.052 Y87.322 E.24881
M204 S1000
;WIPE_START
G1 F8640
G1 X158.052 Y82.991 E-1
;WIPE_END
G1 Z.4 F720
G1 X153.326 Y89.573 F10800
G1 Z.2 F720
G1 E1 F1500
M204 S800
;TYPE:Perimeter
;WIDTH:0.649999
G1 F1200
G1 X158.276 Y89.581 E.24987
G1 X158.35 Y90.128 E.02786
G1 X158.35 Y115.756 E1.29367
G1 X158.206 Y118.217 E.12444
G1 X157.787 Y120.596 E.12194
G1 X157.098 Y122.876 E.12023
G1 X156.157 Y125.011 E.11778
G1 X154.984 Y126.958 E.11474
G1 X153.603 Y128.675 E.11123
G1 X152.046 Y130.134 E.10771
G1 X150.348 Y131.309 E.10423
G1 X148.544 Y132.181 E.10114
G1 X146.669 Y132.74 E.09876
G1 X144.728 Y132.98 E.09873
G1 X105.747 Y132.99 E1.96771
G1 X103.784 Y132.825 E.09944
G1 X101.902 Y132.345 E.09804
G1 X100.085 Y131.551 E.10009
G1 X98.366 Y130.455 E.10291
G1 X96.778 Y129.072 E.1063
G1 X95.355 Y127.426 E.10983
G1 X94.13 Y125.543 E.1134
G1 X93.128 Y123.46 E.11668
G1 X92.372 Y121.22 E.11934
G1 X91.88 Y118.866 E.12139
G1 X91.66 Y116.424 E.12377
G1 X91.65 Y90.088 E1.32941
G1 X91.726 Y89.573 E.02628
G1 X96.676 Y89.581 E.24987
G1 X96.749 Y90.083 E.02561
G1 X96.738 Y91.174 E.05508
G1 X96.664 Y91.974 E.04056
G1 X96.528 Y92.812 E.04285
G1 X96.338 Y93.696 E.04564
G1 X96.102 Y94.628 E.04853
G1 X95.755 Y95.842 E.06374
G1 X94.555 Y99.004 E.17072
G1 X94.177 Y100.15 E.06091
G1 X93.85 Y101.32 E.06132
G1 X93.58 Y102.544 E.06327
G1 X93.365 Y103.959 E.07225
G1 X93.273 Y105.06 E.05577
G1 X93.25 Y105.878 E.04131
G1 X93.25 Y115.773 E.49949
G1 X93.331 Y117.446 E.08455
G1 X93.685 Y119.703 E.11532
G1 X94.329 Y121.885 E.11484
G1 X95.246 Y123.918 E.11258
G1 X96.412 Y125.753 E.10975
G1 X97.797 Y127.348 E.10663
G1 X99.366 Y128.669 E.10353
G1 X101.085 Y129.684 E.10077
G1 X102.103 Y130.113 E.05576
G1 X103.012 Y130.398 E.04809
G1 X104.115 Y130.623 E.05682
G1 X104.832 Y130.714 E.03648
G1 X105.695 Y130.751 E.0436
G1 X144.307 Y130.751 E1.94909
G1 X144.587 Y130.735 E.01416
G1 X145.665 Y130.66 E.05455
G1 X146.568 Y130.5 E.04629
G1 X147.784 Y130.145 E.06394
G1 X148.353 Y129.937 E.03058
G1 X149.299 Y129.49 E.05282
G1 X150.14 Y129.002 E.04908
G1 X151.655 Y127.86 E.09577
G1 X153.214 Y126.233 E.11375
G1 X154.453 Y124.452 E.10952
G1 X155.397 Y122.577 E.10597
G1 X156.168 Y120.307 E.12102
G1 X156.603 Y118.047 E.11618
G1 X156.748 Y115.856 E.11084
G1 X156.75 Y105.879 E.50363
G1 X156.726 Y105.052 E.04176
M73 P1 R44
G1 X156.596 Y103.641 E.07153
G1 X156.409 Y102.486 E.05906
G1 X156.224 Y101.648 E.04332
G1 X155.838 Y100.2 E.07565
G1 X155.36 Y98.769 E.07616
G1 X154.992 Y97.78 E.05327
G1 X154.518 Y96.595 E.06443
G1 X154.245 Y95.843 E.04038
G1 X153.862 Y94.491 E.07093
G1 X153.605 Y93.448 E.05422
G1 X153.41 Y92.465 E.05059
G1 X153.33 Y91.923 E.02766
G1 X153.257 Y91.059 E.04377
G1 X153.25 Y90.085 E.04917
G1 X153.313 Y89.662 E.02159
M204 S1000
G1 X152.834 Y88.965 F10800
M204 S800
;TYPE:External perimeter
G1 F1200
G1 X158.766 Y88.975 E.29944
G1 X158.847 Y89.292 E.01652
G1 X158.957 Y90.128 E.04256
G1 X158.957 Y115.774 E1.29458
G1 X158.81 Y118.288 E.12712
M73 P2 R44
G1 X158.378 Y120.737 E.12553
G1 X157.669 Y123.087 E.12391
G1 X156.697 Y125.291 E.12159
M73 Q2 S46
G1 X155.483 Y127.306 E.11875
G1 X154.049 Y129.089 E.1155
G1 X152.428 Y130.608 E.11214
G1 X150.655 Y131.835 E.10884
G1 X148.765 Y132.749 E.10598
G1 X146.794 Y133.336 E.10381
G1 X144.766 Y133.587 E.10315
G1 X105.722 Y133.597 E1.9709
G1 X103.683 Y133.426 E.10329
G1 X101.704 Y132.921 E.1031
G1 X99.799 Y132.089 E.10493
G1 X98.001 Y130.942 E.10766
M73 Q2 S45
G1 X96.347 Y129.502 E.1107
G1 X94.868 Y127.792 E.11413
G1 X93.6 Y125.841 E.11746
G1 X92.565 Y123.69 E.1205
G1 X91.785 Y121.379 E.12312
G1 X91.278 Y118.956 E.12496
G1 X91.054 Y116.456 E.1267
G1 X91.043 Y90.129 E1.32896
G1 X91.055 Y89.96 E.00855
G1 X91.234 Y88.965 E.05103
G1 X97.166 Y88.975 E.29944
G1 X97.244 Y89.272 E.0155
G1 X97.357 Y90.042 E.03929
G1 X97.345 Y91.205 E.05871
G1 X97.266 Y92.05 E.04284
G1 X97.125 Y92.924 E.04469
G1 X96.929 Y93.835 E.04704
G1 X96.688 Y94.786 E.04952
G1 X96.333 Y96.029 E.06525
G1 X95.132 Y99.194 E.17088
G1 X94.754 Y100.34 E.06091
G1 X94.435 Y101.483 E.0599
G1 X94.18 Y102.635 E.05956
G1 X93.966 Y104.05 E.07224
G1 X93.878 Y105.11 E.05369
G1 X93.857 Y105.878 E.03878
G1 X93.857 Y115.773 E.49949
G1 X93.937 Y117.416 E.08303
G1 X94.285 Y119.608 E.11204
G1 X94.911 Y121.712 E.11081
G1 X95.799 Y123.667 E.10839
G1 X96.923 Y125.426 E.10537
G1 X98.254 Y126.948 E.10206
G1 X99.754 Y128.203 E.09872
G1 X101.39 Y129.159 E.09565
G1 X102.286 Y129.535 E.04905
G1 X103.144 Y129.805 E.0454
G1 X104.195 Y130.021 E.05416
G1 X104.859 Y130.107 E.0338
G1 X105.695 Y130.144 E.04224
G1 X144.307 Y130.144 E1.94909
G1 X145.562 Y130.062 E.06349
G1 X146.413 Y129.913 E.04361
G1 X147.578 Y129.574 E.06125
G1 X148.099 Y129.385 E.02798
G1 X148.999 Y128.963 E.05018
G1 X149.774 Y128.517 E.04514
G1 X151.289 Y127.375 E.09577
G1 X152.717 Y125.885 E.10418
G1 X153.91 Y124.179 E.10508
G1 X154.854 Y122.304 E.10597
G1 X155.572 Y120.19 E.1127
G1 X155.997 Y118.011 E.11207
G1 X156.142 Y115.816 E.11104
G1 X156.143 Y105.879 E.50161
G1 X156.121 Y105.107 E.03899
G1 X155.999 Y103.758 E.06837
G1 X155.819 Y102.633 E.05751
G1 X155.638 Y101.804 E.04283
G1 X155.251 Y100.357 E.07561
G1 X154.791 Y98.981 E.07324
G1 X154.428 Y98.005 E.05256
G1 X153.951 Y96.812 E.06486
G1 X153.667 Y96.03 E.042
G1 X153.289 Y94.694 E.07009
G1 X152.999 Y93.513 E.06139
G1 X152.8 Y92.491 E.05256
G1 X152.72 Y91.91 E.0296
G1 X152.65 Y91.009 E.04562
G1 X152.656 Y89.955 E.05321
G1 X152.818 Y89.054 E.04621
M204 S1000
G1 X153.344 Y89.281 F10800
;WIPE_START
G1 F8640
G1 X157.148 Y88.996 E-1
;WIPE_END
G1 Z.4 F720
G1 X156.823 Y89.821 F10800
G1 Z.2 F720
G1 E1 F1500
M204 S800
;TYPE:Solid infill
;WIDTH:0.654272
G1 F1200
G1 X157.834 Y90.832 E.07268
G1 X157.834 Y91.697 E.04397
G1 X156.231 Y90.094 E.11524
G1 X155.365 Y90.092 E.04402
G1 X157.834 Y92.561 E.1775
G1 X157.834 Y93.426 E.04397
G1 X154.499 Y90.091 E.23975
G1 X153.771 Y90.09 E.03701
G1 X153.767 Y90.224 E.00681
G1 X157.834 Y94.291 E.29238
G1 X157.834 Y95.155 E.04392
G1 X153.778 Y91.099 E.29159
G1 X153.871 Y92.057 E.04893
G1 X157.834 Y96.02 E.2849
G1 X157.834 Y96.884 E.04392
G1 X154.065 Y93.115 E.27095
G1 X154.334 Y94.248 E.0592
G1 X157.834 Y97.749 E.25165
G1 X157.834 Y98.613 E.04392
G1 X154.67 Y95.449 E.22746
G1 X154.737 Y95.685 E.01247
G1 X155.155 Y96.799 E.06048
G1 X157.834 Y99.478 E.19259
G1 X157.834 Y100.343 E.04397
G1 X155.702 Y98.211 E.15327
G1 X156.158 Y99.531 E.07099
G1 X157.834 Y101.207 E.12049
G1 X157.834 Y102.072 E.04397
G1 X156.521 Y100.759 E.09439
G1 X156.811 Y101.913 E.06049
G1 X157.834 Y102.936 E.07354
G1 X157.834 Y103.801 E.04397
G1 X157.01 Y102.976 E.05927
G1 X157.117 Y103.65 E.03469
G1 X157.147 Y103.978 E.01674
G1 X157.834 Y104.666 E.04942
G1 X157.834 Y105.53 E.04392
G1 X157.233 Y104.929 E.04321
G1 X157.264 Y105.825 E.04557
G1 X157.834 Y106.395 E.04098
G1 X157.834 Y107.259 E.04392
G1 X157.266 Y106.691 E.04083
G1 X157.266 Y107.556 E.04397
G1 X157.834 Y108.124 E.04083
G1 X157.834 Y108.989 E.04397
G1 X157.266 Y108.42 E.04087
G1 X157.266 Y109.285 E.04397
G1 X157.834 Y109.853 E.04083
G1 X157.834 Y110.718 E.04397
G1 X157.266 Y110.149 E.04087
G1 X157.266 Y111.014 E.04397
G1 X157.834 Y111.582 E.04083
G1 X157.834 Y112.447 E.04397
G1 X157.266 Y111.878 E.04087
G1 X157.266 Y112.743 E.04397
G1 X157.834 Y113.311 E.04083
G1 X157.834 Y114.176 E.04397
G1 X157.266 Y113.608 E.04083
G1 X157.266 Y114.472 E.04392
G1 X157.834 Y115.041 E.04087
G1 X157.834 Y115.741 E.03558
G1 X157.825 Y115.896 E.00789
G1 X157.266 Y115.337 E.04019
G1 X157.266 Y115.803 E.02369
G1 X157.242 Y116.177 E.01905
G1 X157.777 Y116.713 E.0385
G1 X157.73 Y117.53 E.0416
G1 X157.189 Y116.989 E.03889
G1 X157.136 Y117.801 E.04137
G1 X157.663 Y118.328 E.03789
G1 X157.533 Y119.062 E.03789
G1 X157.028 Y118.557 E.0363
G1 X156.886 Y119.28 E.03746
G1 X157.404 Y119.797 E.0372
G1 X157.268 Y120.527 E.03775
G1 X156.743 Y120.002 E.03774
G1 X156.63 Y120.578 E.02984
G1 X156.585 Y120.708 E.00699
G1 X157.068 Y121.191 E.03472
G1 X156.868 Y121.855 E.03525
G1 X156.365 Y121.352 E.03616
G1 X156.145 Y121.997 E.03464
G1 X156.667 Y122.519 E.03753
G1 X156.614 Y122.697 E.00944
G1 X156.42 Y123.136 E.0244
G1 X155.924 Y122.641 E.03562
G1 X155.645 Y123.226 E.03295
G1 X156.155 Y123.737 E.0367
G1 X155.891 Y124.337 E.03332
G1 X155.355 Y123.801 E.03853
G1 X155.065 Y124.376 E.03274
G1 X155.61 Y124.92 E.03914
G1 X155.285 Y125.46 E.03204
G1 X154.755 Y124.931 E.03807
G1 X154.399 Y125.439 E.03153
G1 X154.959 Y125.999 E.04026
G1 X154.634 Y126.539 E.03204
G1 X154.043 Y125.947 E.04252
G1 X153.686 Y126.455 E.03156
G1 X154.263 Y127.031 E.04144
G1 X153.877 Y127.511 E.03131
G1 X153.284 Y126.917 E.04267
G1 X152.862 Y127.36 E.0311
G1 X153.492 Y127.99 E.04529
G1 X153.223 Y128.323 E.02176
G1 X153.088 Y128.45 E.00942
G1 X152.44 Y127.802 E.04658
G1 X152.008 Y128.235 E.03109
G1 X152.642 Y128.869 E.04558
G1 X152.195 Y129.287 E.03111
G1 X151.516 Y128.607 E.04885
G1 X151.021 Y128.977 E.03142
G1 X151.749 Y129.705 E.05234
G1 X151.721 Y129.731 E.00194
G1 X151.242 Y130.063 E.02963
G1 X150.526 Y129.347 E.05147
G1 X150.309 Y129.508 E.01374
G1 X149.999 Y129.684 E.01812
G1 X150.731 Y130.417 E.05266
G1 X150.22 Y130.77 E.03157
G1 X149.447 Y129.997 E.05557
G1 X148.858 Y130.272 E.03304
G1 X149.656 Y131.071 E.0574
G1 X149.073 Y131.352 E.0329
G1 X148.245 Y130.524 E.05953
G1 X147.61 Y130.754 E.03433
G1 X148.49 Y131.634 E.06326
G1 X148.357 Y131.699 E.00753
G1 X147.843 Y131.852 E.02726
G1 X146.93 Y130.938 E.06567
G1 X146.691 Y131.002 E.01258
G1 X146.214 Y131.087 E.02463
G1 X147.177 Y132.05 E.06923
G1 X146.563 Y132.233 E.03257
G1 X146.503 Y132.24 E.00307
G1 X145.453 Y131.191 E.07545
G1 X144.645 Y131.247 E.04117
G1 X145.734 Y132.336 E.07829
G1 X144.964 Y132.431 E.03944
G1 X143.797 Y131.264 E.0839
G1 X142.933 Y131.264 E.04392
G1 X144.133 Y132.465 E.0863
G1 X143.269 Y132.465 E.04392
G1 X142.068 Y131.264 E.08634
G1 X141.204 Y131.264 E.04392
G1 X142.405 Y132.465 E.08634
G1 X141.54 Y132.465 E.04397
G1 X140.339 Y131.264 E.08634
G1 X139.475 Y131.264 E.04392
G1 X140.676 Y132.465 E.08634
G1 X139.811 Y132.466 E.04397
G1 X138.61 Y131.265 E.08634
G1 X137.746 Y131.265 E.04392
G1 X138.947 Y132.466 E.08634
G1 X138.083 Y132.466 E.04392
G1 X136.881 Y131.265 E.08638
G1 X136.017 Y131.265 E.04392
G1 X137.218 Y132.466 E.08634
G1 X136.354 Y132.466 E.04392
G1 X135.152 Y131.265 E.08638
G1 X134.288 Y131.265 E.04392
G1 X135.49 Y132.467 E.08641
G1 X134.625 Y132.467 E.04397
G1 X133.423 Y131.265 E.08641
G1 X132.559 Y131.265 E.04392
G1 X133.761 Y132.467 E.08641
G1 X132.896 Y132.467 E.04397
G1 X131.694 Y131.265 E.08641
G1 X130.83 Y131.265 E.04392
G1 X132.032 Y132.468 E.08645
G1 X131.168 Y132.468 E.04392
G1 X129.965 Y131.265 E.08648
G1 X129.101 Y131.265 E.04392
G1 X130.303 Y132.468 E.08645
G1 X129.439 Y132.468 E.04392
G1 X128.236 Y131.265 E.08648
G1 X127.371 Y131.265 E.04397
G1 X128.575 Y132.468 E.08652
G1 X127.71 Y132.469 E.04397
G1 X126.507 Y131.265 E.08652
G1 X125.642 Y131.265 E.04397
G1 X126.846 Y132.469 E.08656
G1 X125.982 Y132.469 E.04392
G1 X124.778 Y131.265 E.08656
G1 X123.913 Y131.265 E.04397
G1 X125.117 Y132.469 E.08656
G1 X124.253 Y132.469 E.04392
