; generated by PrusaSlicer 2.5.0+win64 on 2023-05-28 at 18:04:32 UTC


;
;
; 

; external perimeters extrusion width = 0.45mm
; perimeters extrusion width = 0.45mm
; infill extrusion width = 0.45mm
; solid infill extrusion width = 0.45mm
; top infill extrusion width = 0.40mm
; first layer extrusion width = 0.42mm

M73 P0 R45
M73 Q0 S45
M201 X1000 Y1000 Z200 E5000 ; sets maximum accelerations, mm/sec^2
M203 X200 Y200 Z12 E120 ; sets maximum feedrates, mm / sec
M204 P1250 R1250 T1250 ; sets acceleration (P, T) and retract acceleration (R), mm/sec^2
M205 X8.00 Y8.00 Z0.40 E4.50 ; sets the jerk limits, mm/sec
M205 S0 T0 ; sets the minimum extruding and travel feed rate, mm/sec
M107
;TYPE:Custom
M862.3 P "MK3S" ; printer model check
M862.1 P0.4 ; nozzle diameter check
M115 U3.11.0 ; tell printer latest fw version
G90 ; use absolute coordinates
M83 ; extruder relative mode
M104 S240 ; set extruder temp
M140 S85 ; set bed temp
M190 S85 ; wait for bed temp
M109 S240 ; wait for extruder temp
G28 W ; home all without mesh bed level
G80 ; mesh bed leveling
G1 Z0.2 F720
G1 Y-3 F1000 ; go outside print area
G92 E0
G1 X60 E9 F1000 ; intro line
G1 X100 E12.5 F1000 ; intro line
G92 E0
M221 S95

; Don't change E values below. Excessive value can damage the printer.

M907 E538 ; set extruder motor current
G21 ; set units to millimeters
G90 ; use absolute coordinates
M83 ; use relative distances for extrusion
M900 K0.08 ; Filament gcode LA 1.5
M900 K45 ; Filament gcode LA 1.0
M107
;LAYER_CHANGE
;Z:0.2
;HEIGHT:0.2
;BEFORE_LAYER_CHANGE
G92 E0.0
;0.2


G1 E-1 F2100
G1 Z.2 F720
;AFTER_LAYER_CHANGE
;0.2
G1 Z.4
G1 X102.323 Y84.644 F10800
G1 Z.2 F720
G1 E1 F2100
M204 S800
;TYPE:Skirt/Brim
;WIDTH:0.42
G1 F1200
G1 X107.144 Y79.823 E.21376
G1 X108.572 Y78.736 E.05627
G1 X111.421 Y76.901 E.10625
G1 X114.446 Y75.374 E.10625
G1 X117.614 Y74.172 E.10625
G1 X120.647 Y73.359 E.09846
G1 X123.992 Y72.817 E.10625
G1 X127.376 Y72.626 E.10625
G1 X130.712 Y72.788 E.10472
G1 X134.109 Y73.308 E.10777
G1 X137.386 Y74.172 E.10625
G1 X140.554 Y75.374 E.10625
G1 X143.579 Y76.901 E.10625
G1 X146.428 Y78.736 E.10625
G1 X147.856 Y79.823 E.05627
G1 X152.677 Y84.644 E.21376
G1 X153.764 Y86.072 E.05627
G1 X155.599 Y88.921 E.10625
G1 X157.126 Y91.946 E.10625
G1 X158.328 Y95.114 E.10625
G1 X159.141 Y98.147 E.09846
G1 X159.683 Y101.492 E.10625
G1 X159.874 Y104.876 E.10625
G1 X159.709 Y108.26 E.10625
G1 X159.192 Y111.609 E.10624
G1 X158.328 Y114.886 E.10625
G1 X157.126 Y118.054 E.10625
G1 X155.599 Y121.079 E.10625
G1 X153.618 Y124.13 E.11404
G1 X151.475 Y126.755 E.10625
G1 X149.07 Y129.142 E.10625
G1 X146.428 Y131.264 E.10625
G1 X143.579 Y133.099 E.10625
G1 X140.554 Y134.626 E.10625
G1 X137.386 Y135.828 E.10625
G1 X134.353 Y136.641 E.09846
G1 X131.008 Y137.183 E.10625
G1 X127.624 Y137.374 E.10625
G1 X124.24 Y137.209 E.10625
G1 X120.891 Y136.692 E.10624
G1 X117.614 Y135.828 E.10625
G1 X114.446 Y134.626 E.10625
G1 X111.421 Y133.099 E.10625
G1 X108.37 Y131.118 E.11404
G1 X105.745 Y128.975 E.10625
G1 X103.358 Y126.57 E.10625
G1 X101.236 Y123.928 E.10625
G1 X99.401 Y121.079 E.10625
G1 X97.874 Y118.054 E.10625
G1 X96.672 Y114.886 E.10625
G1 X95.859 Y111.853 E.09846
G1 X95.317 Y108.508 E.10625
G1 X95.126 Y105.124 E.10625
G1 X95.291 Y101.74 E.10625
G1 X95.808 Y98.391 E.10624
G1 X96.672 Y95.114 E.10625
G1 X97.874 Y91.946 E.10625
G1 X99.401 Y88.921 E.10625
G1 X101.236 Y86.072 E.10625
G1 X102.287 Y84.692 E.05439
M204 S1000
; printing object Wheel_rev0 id:0 copy 0
;WIPE_START
G1 F8640
G1 X105.193 Y81.779 E-.95
;WIPE_END
G1 E-.05 F2100
G1 Z.4 F720
G1 X104.286 Y87.283 F10800
G1 Z.2 F720
G1 E1 F2100
M204 S800
;TYPE:Perimeter
;WIDTH:0.419999
G1 F1200
G1 X109.961 Y92.957 E.25162
G1 X109.062 Y92.634 E.02995
G1 X108.025 Y92.445 E.03306
G1 X106.833 Y92.432 E.03738
G1 X105.736 Y92.607 E.03484
G1 X104.584 Y93.009 E.03825
G1 X103.553 Y93.591 E.03711
G1 X102.735 Y94.256 E.03306
G1 X101.992 Y95.095 E.03515
G1 X101.371 Y96.099 E.03699
G1 X100.922 Y97.242 E.03853
G1 X100.301 Y99.828 E.08337
G1 X99.936 Y102.395 E.0813
G1 X99.816 Y105.106 E.08509
G1 X99.941 Y107.655 E.08001
G1 X100.318 Y110.259 E.08251
G1 X100.933 Y112.79 E.08166
G1 X101.367 Y113.895 E.03721
G1 X101.972 Y114.879 E.03623
G1 X102.761 Y115.767 E.03724
G1 X103.55 Y116.407 E.03186
G1 X104.641 Y117.017 E.03919
G1 X105.763 Y117.398 E.03715
G1 X106.869 Y117.573 E.0351
G1 X107.893 Y117.566 E.03213
G1 X108.192 Y117.521 E.00946
G1 X109.182 Y117.332 E.03162
G1 X110.224 Y116.939 E.03491
G1 X111.158 Y116.398 E.03384
G1 X118.277 Y111.414 E.27248
G1 X119.115 Y110.716 E.0342
G1 X119.863 Y109.844 E.03601
G1 X120.492 Y108.77 E.03904
G1 X120.887 Y107.691 E.03601
G1 X121.081 Y106.658 E.03297
G1 X121.106 Y105.515 E.03584
G1 X121.091 Y103.443 E.06498
G1 X120.862 Y102.217 E.0391
G1 X120.451 Y101.142 E.03608
G1 X119.919 Y100.235 E.03297
G1 X119.434 Y99.652 E.02378
G1 X119.078 Y99.26 E.0166
G1 X118.509 Y98.852 E.02196
G1 X118.039 Y98.628 E.01632
G1 X118.496 Y98.345 E.01686
G1 X118.977 Y97.936 E.01978
G1 X119.545 Y97.38 E.02493
G1 X120.437 Y96.475 E.03986
G1 X120.845 Y95.996 E.0197
G1 X121.128 Y95.539 E.01686
G1 X121.352 Y96.009 E.01632
G1 X121.853 Y96.68 E.02626
G1 X122.735 Y97.419 E.03607
G1 X123.642 Y97.951 E.03297
G1 X124.809 Y98.387 E.03904
G1 X125.842 Y98.581 E.03297
G1 X126.985 Y98.606 E.03584
G1 X129.158 Y98.581 E.06814
G1 X130.191 Y98.387 E.03298
G1 X131.358 Y97.951 E.03904
G1 X132.343 Y97.364 E.03594
G1 X133.24 Y96.578 E.0374
G1 X133.648 Y96.009 E.02196
G1 X133.872 Y95.539 E.01632
G1 X134.155 Y95.996 E.01686
G1 X134.564 Y96.477 E.01978
G1 X135.12 Y97.045 E.02493
G1 X136.025 Y97.937 E.03986
G1 X136.504 Y98.345 E.0197
G1 X136.961 Y98.628 E.01686
G1 X136.491 Y98.852 E.01632
G1 X135.82 Y99.353 E.02626
G1 X135.081 Y100.235 E.03607
G1 X134.508 Y101.23 E.03601
G1 X134.139 Y102.215 E.03297
G1 X133.909 Y103.439 E.03904
G1 X133.894 Y104.485 E.0328
G1 X133.919 Y106.658 E.06814
G1 X134.139 Y107.785 E.03601
G1 X134.549 Y108.858 E.03601
G1 X135.081 Y109.765 E.03297
G1 X135.816 Y110.647 E.03601
G1 X136.723 Y111.414 E.03723
G1 X143.862 Y116.411 E.27323
G1 X144.855 Y116.976 E.03582
G1 X145.975 Y117.375 E.03728
G1 X147.072 Y117.564 E.03489
G1 X148.126 Y117.573 E.03306
G1 X149.299 Y117.383 E.03725
G1 X150.446 Y116.978 E.03814
G1 X151.447 Y116.409 E.0361
G1 X152.265 Y115.744 E.03306
G1 X153.065 Y114.827 E.03816
G1 X153.629 Y113.901 E.03398
G1 X154.078 Y112.758 E.03853
G1 X154.699 Y110.172 E.08337
G1 X155.064 Y107.605 E.0813
G1 X155.187 Y104.975 E.08255
G1 X155.064 Y102.399 E.08087
G1 X154.699 Y99.827 E.08145
G1 X154.054 Y97.168 E.08578
G1 X153.613 Y96.07 E.03708
G1 X153.087 Y95.201 E.03189
G1 X152.338 Y94.327 E.03607
G1 X151.416 Y93.572 E.03738
G1 X150.361 Y92.983 E.03786
G1 X149.272 Y92.609 E.03611
G1 X148.228 Y92.435 E.03319
G1 X147.076 Y92.435 E.03611
G1 X145.971 Y92.626 E.03515
G1 X145.032 Y92.964 E.03131
G1 X150.714 Y87.283 E.25193
G1 X151.127 Y87.821 E.02128
G1 X152.798 Y90.394 E.09619
G1 X154.186 Y93.118 E.09587
G1 X155.282 Y95.973 E.09587
G1 X156.073 Y98.927 E.09587
G1 X156.552 Y101.947 E.09587
G1 X156.71 Y105.04 E.09712
G1 X156.552 Y108.053 E.09462
G1 X156.073 Y111.073 E.09587
G1 X155.282 Y114.027 E.09587
M73 Q1 S45
G1 X154.186 Y116.882 E.09587
G1 X152.798 Y119.606 E.09587
M73 P1 R45
G1 X151.133 Y122.17 E.09587
G1 X149.209 Y124.547 E.09587
G1 X147.047 Y126.709 E.09587
G1 X144.67 Y128.633 E.09587
G1 X142.106 Y130.298 E.09587
G1 X139.382 Y131.686 E.09587
G1 X136.527 Y132.782 E.09587
G1 X133.573 Y133.573 E.09587
G1 X130.553 Y134.052 E.09587
G1 X127.5 Y134.212 E.09587
G1 X124.447 Y134.052 E.09587
G1 X121.427 Y133.573 E.09587
G1 X118.473 Y132.782 E.09587
G1 X115.618 Y131.686 E.09587
G1 X112.894 Y130.298 E.09587
G1 X110.33 Y128.633 E.09587
G1 X107.953 Y126.709 E.09587
G1 X105.791 Y124.547 E.09587
G1 X103.867 Y122.17 E.09587
G1 X102.202 Y119.606 E.09587
G1 X100.814 Y116.882 E.09587
G1 X99.718 Y114.027 E.09587
G1 X98.927 Y111.073 E.09587
G1 X98.448 Y108.053 E.09587
G1 X98.288 Y105 E.09587
G1 X98.448 Y101.947 E.09587
G1 X98.927 Y98.927 E.09587
G1 X99.718 Y95.973 E.09587
G1 X100.814 Y93.118 E.09587
G1 X102.202 Y90.394 E.09587
G1 X103.873 Y87.821 E.09619
G1 X104.25 Y87.331 E.0194
M204 S1000
;WIPE_START
G1 F8640
G1 X107.181 Y90.218 E-.95
;WIPE_END
G1 E-.05 F2100
G1 Z.4 F720
G1 X135.992 Y92.595 F10800
G1 Z.2 F720
G1 E1 F2100
M204 S800
G1 F1200
G1 X136.349 Y92.224 E.01613
G1 X136.888 Y91.522 E.02775
G1 X137.525 Y90.609 E.03491
G1 X137.815 Y90.112 E.01801
G1 X138.17 Y90.568 E.0181
G1 X138.509 Y90.951 E.01606
G1 X139.517 Y91.968 E.04488
G1 X141.588 Y94.026 E.09154
G1 X142.374 Y94.673 E.03194
G1 X141.851 Y95.001 E.01936
G1 X140.805 Y95.735 E.04007
G1 X140.327 Y96.109 E.01903
G1 X139.905 Y96.508 E.0182
G1 X139.63 Y96.034 E.01718
G1 X139.283 Y95.603 E.01733
G1 X136.848 Y93.174 E.10786
G1 X136.443 Y92.853 E.01621
G1 X136.044 Y92.625 E.01439
M204 S1000
;WIPE_START
G1 F8640
G1 X136.349 Y92.224 E-.11625
G1 X136.888 Y91.522 E-.20433
G1 X137.525 Y90.609 E-.25713
G1 X137.815 Y90.112 E-.13266
G1 X138.17 Y90.568 E-.13332
G1 X138.475 Y90.913 E-.10632
;WIPE_END
G1 E-.05 F2100
G1 Z.4 F720
G1 X139.669 Y97.064 F10800
G1 Z.2 F720
G1 E1 F2100
M204 S800
;TYPE:External perimeter
;WIDTH:0.686954
G1 F1200
G1 X139.401 Y97.289 E.01872
;WIDTH:0.643521
G1 X139.134 Y97.514 E.01746
;WIDTH:0.600087
G1 X138.866 Y97.738 E.0162
;WIDTH:0.556654
G1 X138.598 Y97.963 E.01493
;WIDTH:0.513221
G1 X138.33 Y98.188 E.01367
;WIDTH:0.469787
G1 X138.062 Y98.413 E.01241
;WIDTH:0.426354
G1 X137.795 Y98.637 E.01115
;WIDTH:0.38292
G1 X137.78 Y98.649 E.00053
M204 S1000
;WIPE_START
G1 F8640
G1 X137.795 Y98.637 E-.00436
G1 X138.062 Y98.413 E-.08072
G1 X138.33 Y98.188 E-.08072
G1 X138.598 Y97.963 E-.08072
G1 X138.866 Y97.738 E-.08072
G1 X139.134 Y97.514 E-.08072
G1 X139.401 Y97.289 E-.08072
G1 X139.669 Y97.064 E-.08072
;WIPE_END
G1 E-.4306 F2100
G1 Z.4 F720
G1 X133.841 Y94.736 F10800
G1 Z.2 F720
G1 E1 F2100
M204 S800
G1 F1200
G1 X133.863 Y94.705 E.00106
;WIDTH:0.426354
G1 X134.087 Y94.438 E.01115
;WIDTH:0.469787
G1 X134.312 Y94.17 E.01241
;WIDTH:0.513221
G1 X134.537 Y93.902 E.01367
;WIDTH:0.556654
G1 X134.762 Y93.634 E.01493
;WIDTH:0.600087
G1 X134.986 Y93.366 E.0162
;WIDTH:0.643521
G1 X135.211 Y93.099 E.01746
;WIDTH:0.686954
G1 X135.436 Y92.831 E.01872
M204 S1000
;WIPE_START
G1 F8640
G1 X135.211 Y93.099 E-.08072
G1 X134.986 Y93.366 E-.08072
G1 X134.762 Y93.634 E-.08072
G1 X134.537 Y93.902 E-.08072
G1 X134.312 Y94.17 E-.08072
G1 X134.087 Y94.438 E-.08072
G1 X133.863 Y94.705 E-.08072
G1 X133.841 Y94.736 E-.0087
;WIPE_END
G1 E-.42626 F2100
G1 Z.4 F720
G1 X139.542 Y87.463 F10800
G1 Z.2 F720
G1 E1 F2100
M204 S800
;TYPE:Perimeter
;WIDTH:0.419999
G1 F1200
G1 X139.875 Y86.525 E.03122
G1 X140.055 Y85.524 E.03187
G1 X140.065 Y84.274 E.0392
G1 X139.881 Y83.197 E.03426
G1 X139.761 Y82.832 E.01205
G1 X139.48 Y82.058 E.02581
G1 X138.909 Y81.053 E.03624
G1 X138.244 Y80.235 E.03306
G1 X137.405 Y79.492 E.03515
G1 X136.401 Y78.871 E.03699
G1 X135.258 Y78.422 E.03853
G1 X132.672 Y77.801 E.08337
G1 X130.105 Y77.436 E.0813
G1 X127.394 Y77.316 E.08509
G1 X124.898 Y77.436 E.07834
G1 X122.241 Y77.818 E.08419
G1 X119.71 Y78.433 E.08166
G1 X118.605 Y78.867 E.03721
G1 X117.621 Y79.472 E.03623
G1 X116.733 Y80.261 E.03724
G1 X116.039 Y81.13 E.03488
G1 X115.483 Y82.141 E.03618
G1 X115.102 Y83.263 E.03715
G1 X114.927 Y84.369 E.03512
G1 X114.945 Y85.523 E.03617
G1 X115.143 Y86.59 E.03403
G1 X115.456 Y87.461 E.02903
G1 X109.783 Y81.786 E.2516
G1 X110.321 Y81.373 E.02128
G1 X112.894 Y79.702 E.09619
G1 X115.618 Y78.314 E.09587
G1 X118.473 Y77.218 E.09587
G1 X121.427 Y76.427 E.09587
G1 X124.447 Y75.948 E.09587
G1 X127.5 Y75.788 E.09587
G1 X130.553 Y75.948 E.09587
G1 X133.573 Y76.427 E.09587
G1 X136.527 Y77.218 E.09587
G1 X139.382 Y78.314 E.09587
G1 X142.106 Y79.702 E.09587
G1 X144.679 Y81.373 E.09619
G1 X145.217 Y81.786 E.02128
G1 X139.584 Y87.42 E.2498
M204 S1000
;WIPE_START
G1 F8640
G1 X139.875 Y86.525 E-.21746
G1 X140.055 Y85.524 E-.23473
G1 X140.065 Y84.274 E-.28866
G1 X139.913 Y83.381 E-.20916
;WIPE_END
G1 E-.05 F2100
G1 Z.4 F720
G1 X119.571 Y92.839 F10800
G1 Z.2 F720
G1 E1 F2100
M204 S800
;TYPE:External perimeter
;WIDTH:0.685072
G1 F1200
G1 X119.795 Y93.106 E.01858
;WIDTH:0.641908
G1 X120.019 Y93.372 E.01733
;WIDTH:0.598743
G1 X120.242 Y93.639 E.01609
;WIDTH:0.555579
G1 X120.466 Y93.906 E.01484
;WIDTH:0.512414
G1 X120.69 Y94.172 E.01359
;WIDTH:0.46925
G1 X120.913 Y94.439 E.01234
;WIDTH:0.426085
G1 X121.137 Y94.705 E.01109
;WIDTH:0.38292
G1 X121.149 Y94.72 E.00053
M204 S1000
;WIPE_START
G1 F8640
G1 X121.137 Y94.705 E-.00436
G1 X120.913 Y94.439 E-.08036
G1 X120.69 Y94.172 E-.08036
G1 X120.466 Y93.906 E-.08036
G1 X120.242 Y93.639 E-.08036
G1 X120.019 Y93.372 E-.08036
G1 X119.795 Y93.106 E-.08036
G1 X119.571 Y92.839 E-.08036
;WIPE_END
G1 E-.43309 F2100
G1 Z.4 F720
G1 X117.236 Y98.659 F10800
G1 Z.2 F720
G1 E1 F2100
M204 S800
G1 F1200
G1 X117.205 Y98.637 E.00106
;WIDTH:0.426352
G1 X116.938 Y98.413 E.01115
;WIDTH:0.469784
G1 X116.67 Y98.188 E.01241
;WIDTH:0.513216
G1 X116.402 Y97.963 E.01367
;WIDTH:0.556647
G1 X116.134 Y97.738 E.01493
;WIDTH:0.600079
G1 X115.866 Y97.514 E.0162
;WIDTH:0.643511
G1 X115.599 Y97.289 E.01746
;WIDTH:0.686942
G1 X115.331 Y97.064 E.01872
M204 S1000
G1 X115.095 Y96.507 F10800
M204 S800
;TYPE:Perimeter
;WIDTH:0.419999
G1 F1200
G1 X114.724 Y96.151 E.01613
G1 X114.022 Y95.612 E.02775
G1 X113.109 Y94.975 E.03492
G1 X112.612 Y94.685 E.01801
G1 X113.068 Y94.33 E.0181
G1 X113.451 Y93.991 E.01606
G1 X114.468 Y92.983 E.04488
G1 X116.526 Y90.912 E.09153
G1 X117.173 Y90.126 E.03194
G1 X117.501 Y90.649 E.01936
G1 X118.147 Y91.569 E.03524
G1 X118.532 Y92.079 E.02005
G1 X118.964 Y92.55 E.02002
G1 X118.83 Y92.576 E.00426
G1 X118.396 Y92.924 E.01744
G1 X115.664 Y95.662 E.1213
G1 X115.35 Y96.06 E.01587
G1 X115.124 Y96.455 E.01428
M204 S1000
;WIPE_START
G1 F8640
G1 X114.724 Y96.151 E-.11618
G1 X114.022 Y95.612 E-.20433
G1 X113.109 Y94.975 E-.25713
G1 X112.612 Y94.685 E-.13266
G1 X113.068 Y94.33 E-.13332
G1 X113.413 Y94.025 E-.10639
;WIPE_END
G1 E-.05 F2100
G1 Z.4 F720
G1 X117.236 Y98.659 F10800
G1 Z.2 F720
G1 E1 F2100
M204 S800
;TYPE:External perimeter
G1 F1200
G1 X118.253 Y99.139 E.03526
G1 X118.893 Y99.598 E.02469
G1 X119.594 Y100.426 E.03401
G1 X120.125 Y101.333 E.03297
G1 X120.508 Y102.348 E.03401
G1 X120.714 Y103.446 E.03502
G1 X120.729 Y105.518 E.06498
G1 X120.688 Y106.709 E.03736
G1 X120.516 Y107.622 E.02912
G1 X120.139 Y108.638 E.03398
G1 X119.575 Y109.601 E.035
G1 X118.873 Y110.427 E.03398
G1 X118.061 Y111.105 E.03318
G1 X110.942 Y116.089 E.27248
G1 X110.039 Y116.611 E.03269
G1 X109.052 Y116.978 E.03303
G1 X108.124 Y117.15 E.02958
G1 X107.891 Y117.189 E.00741
G1 X106.866 Y117.195 E.03213
G1 X105.793 Y117.018 E.0341
G1 X104.765 Y116.661 E.03414
G1 X103.788 Y116.114 E.0351
G1 X102.998 Y115.474 E.03186
G1 X102.255 Y114.631 E.03524
G1 X101.691 Y113.701 E.03412
G1 X101.3 Y112.701 E.03366
G1 X100.684 Y110.17 E.08166
G1 X100.314 Y107.601 E.08138
G1 X100.192 Y105.088 E.0789
G1 X100.313 Y102.415 E.0839
G1 X100.675 Y99.878 E.08033
G1 X101.289 Y97.331 E.08216
G1 X101.693 Y96.295 E.03487
G1 X102.276 Y95.343 E.03498
G1 X102.951 Y94.569 E.0322
G1 X103.791 Y93.884 E.034
G1 X104.767 Y93.339 E.03504
G1 X105.798 Y92.979 E.03425
G1 X106.8 Y92.811 E.03185
G1 X107.924 Y92.813 E.03525
G1 X108.995 Y93.005 E.0341
G1 X110.015 Y93.379 E.03408
;WIDTH:0.436967
G1 X110.922 Y93.916 E.03452
G1 X111.693 Y94.556 E.03284
;WIDTH:0.419999
G1 X112.919 Y95.3 E.04497
G1 X113.792 Y95.911 E.03341
G1 X114.494 Y96.45 E.02775
G1 X114.875 Y96.819 E.01663
;WIDTH:0.46449
G1 X114.951 Y96.86 E.00303
;WIDTH:0.50898
G1 X115.027 Y96.901 E.00334
;WIDTH:0.553471
G1 X115.103 Y96.942 E.00366
;WIDTH:0.597961
G1 X115.179 Y96.983 E.00398
;WIDTH:0.642452
G1 X115.255 Y97.023 E.0043
;WIDTH:0.686942
G1 X115.331 Y97.064 E.00462
G1 X115.31 Y97.008 E.00322
;WIDTH:0.647027
G1 X115.327 Y96.955 E.00278
;WIDTH:0.601622
G1 X115.344 Y96.903 E.00257
;WIDTH:0.556216
G1 X115.36 Y96.85 E.00236
;WIDTH:0.510811
G1 X115.377 Y96.797 E.00215
;WIDTH:0.465405
G1 X115.394 Y96.744 E.00194
;WIDTH:0.419999
G1 X115.644 Y96.298 E.01604
G1 X115.959 Y95.896 E.01602
G1 X118.663 Y93.191 E.11993
