; generated by PrusaSlicer 2.5.0+win64 on 2023-06-02 at 10:58:02 UTC


;
;
; 

; external perimeters extrusion width = 0.45mm
; perimeters extrusion width = 0.45mm
; infill extrusion width = 0.45mm
; solid infill extrusion width = 0.45mm
; top infill extrusion width = 0.40mm
; first layer extrusion width = 0.42mm

M73 P0 R64
M73 Q0 S64
M201 X1000 Y1000 Z200 E5000 ; sets maximum accelerations, mm/sec^2
M203 X200 Y200 Z12 E120 ; sets maximum feedrates, mm / sec
M204 P1250 R1250 T1250 ; sets acceleration (P, T) and retract acceleration (R), mm/sec^2
M205 X8.00 Y8.00 Z0.40 E4.50 ; sets the jerk limits, mm/sec
M205 S0 T0 ; sets the minimum extruding and travel feed rate, mm/sec
M107
;TYPE:Custom
M862.3 P "MK3S" ; printer model check
M862.1 P0.4 ; nozzle diameter check
M115 U3.11.0 ; tell printer latest fw version
G90 ; use absolute coordinates
M83 ; extruder relative mode
M104 S240 ; set extruder temp
M140 S85 ; set bed temp
M190 S85 ; wait for bed temp
M109 S240 ; wait for extruder temp
G28 W ; home all without mesh bed level
G80 ; mesh bed leveling
G1 Z0.2 F720
G1 Y-3 F1000 ; go outside print area
G92 E0
G1 X60 E9 F1000 ; intro line
G1 X100 E12.5 F1000 ; intro line
G92 E0
M221 S95

; Don't change E values below. Excessive value can damage the printer.

M907 E538 ; set extruder motor current
G21 ; set units to millimeters
G90 ; use absolute coordinates
M83 ; use relative distances for extrusion
M900 K0.08 ; Filament gcode LA 1.5
M900 K45 ; Filament gcode LA 1.0
M107
;LAYER_CHANGE
;Z:0.2
;HEIGHT:0.2
;BEFORE_LAYER_CHANGE
G92 E0.0
;0.2


G1 E-1 F2100
G1 Z.2 F720
;AFTER_LAYER_CHANGE
;0.2
G1 Z.4
G1 X102.357 Y84.753 F10800
G1 Z.2 F720
G1 E1 F2100
M204 S800
;TYPE:Skirt/Brim
;WIDTH:0.42
G1 F1200
G1 X104.583 Y82.511 E.09907
G1 X107.247 Y80.354 E.10748
G1 X109.921 Y78.633 E.09969
G1 X112.76 Y77.202 E.09969
G1 X115.72 Y76.078 E.09929
G1 X118.768 Y75.271 E.09885
G1 X121.786 Y74.794 E.0958
G1 X125.065 Y74.624 E.10297
G1 X128.052 Y74.78 E.09377
G1 X131.213 Y75.267 E.10029
G1 X134.268 Y76.074 E.09907
G1 X137.24 Y77.202 E.09968
G1 X140.079 Y78.633 E.09969
G1 X142.753 Y80.354 E.09969
G1 X145.232 Y82.345 E.09968
G1 X147.489 Y84.584 E.09969
G1 X149.552 Y87.113 E.10234
G1 X151.33 Y89.852 E.10239
G1 X152.697 Y92.533 E.09435
M73 P0 R63
G1 X153.834 Y95.456 E.09834
G1 X154.298 Y96.976 E.04983
G1 X154.736 Y98.807 E.05902
G1 X155.22 Y101.949 E.09968
G1 X155.374 Y105.124 E.09969
G1 X155.194 Y108.299 E.09969
G1 X154.687 Y111.424 E.09929
G1 X153.863 Y114.467 E.09885
G1 X152.767 Y117.319 E.09579
G1 X151.284 Y120.229 E.10239
G1 X149.646 Y122.753 E.09436
G1 X147.643 Y125.247 E.10029
G1 X145.417 Y127.489 E.09907
G1 X142.753 Y129.646 E.10748
G1 X140.079 Y131.367 E.09969
G1 X137.24 Y132.798 E.09969
G1 X134.28 Y133.922 E.09929
G1 X131.232 Y134.729 E.09885
G1 X128.214 Y135.206 E.0958
G1 X124.954 Y135.377 E.10238
G1 X121.948 Y135.22 E.09436
G1 X118.787 Y134.733 E.10029
G1 X115.732 Y133.926 E.09907
G1 X112.76 Y132.798 E.09968
G1 X109.921 Y131.367 E.09969
G1 X107.247 Y129.646 E.09969
G1 X104.768 Y127.655 E.09968
G1 X102.511 Y125.416 E.09969
G1 X100.448 Y122.887 E.10234
G1 X98.67 Y120.148 E.10239
G1 X97.303 Y117.467 E.09435
G1 X96.166 Y114.544 E.09834
G1 X95.264 Y111.193 E.1088
G1 X94.78 Y108.051 E.09968
G1 X94.626 Y104.876 E.09969
G1 X94.806 Y101.701 E.09968
G1 X95.313 Y98.576 E.09929
G1 X96.137 Y95.533 E.09885
G1 X97.233 Y92.681 E.09579
G1 X98.716 Y89.771 E.10239
G1 X100.354 Y87.247 E.09436
G1 X102.319 Y84.8 E.0984
M204 S1000
; printing object Wheel_rev1-1 id:0 copy 0
;WIPE_START
G1 F8640
G1 X104.583 Y82.511 E-.74338
G1 X105.279 Y81.948 E-.20662
;WIPE_END
G1 E-.05 F2100
G1 Z.4 F720
G1 X132.922 Y104.54 F10800
G1 Z.2 F720
G1 E1 F2100
M204 S800
;TYPE:Perimeter
;WIDTH:0.419999
G1 F1200
G1 X132.722 Y104.593 E.0065
G1 X132.466 Y104.529 E.00826
G1 X132.272 Y104.363 E.008
G1 X129.216 Y99.077 E.19145
G1 X129.141 Y98.803 E.0089
G1 X129.213 Y98.516 E.00928
G1 X129.423 Y98.304 E.00936
G1 X131.192 Y97.283 E.06405
G1 X131.57 Y97.215 E.01203
G1 X131.901 Y97.4 E.01188
G1 X131.965 Y97.49 E.00347
G1 X134.987 Y102.723 E.18947
G1 X135.056 Y102.919 E.00652
G1 X135.027 Y103.203 E.00893
G1 X134.78 Y103.496 E.01203
G1 X132.98 Y104.525 E.065
M204 S1000
G1 X132.822 Y104.191 F10800
M204 S800
;TYPE:External perimeter
G1 F1200
G1 X132.668 Y104.206 E.00485
G1 X132.564 Y104.122 E.0042
G1 X129.543 Y98.888 E.18947
G1 X129.529 Y98.73 E.00499
G1 X129.612 Y98.631 E.00405
G1 X131.381 Y97.609 E.06405
G1 X131.507 Y97.587 E.00401
G1 X131.639 Y97.678 E.00503
G1 X134.66 Y102.912 E.18947
G1 X134.674 Y103.071 E.00503
G1 X134.591 Y103.169 E.00401
G1 X132.874 Y104.161 E.06217
M204 S1000
G1 X132.78 Y104.34 F10800
;WIPE_START
G1 F8640
G1 X132.668 Y104.206 E-.04868
G1 X132.564 Y104.122 E-.0309
G1 X130.679 Y100.857 E-.87042
;WIPE_END
G1 E-.05 F2100
G1 Z.4 F720
G1 X127.271 Y108.081 F10800
G1 Z.2 F720
G1 E1 F2100
M204 S800
;TYPE:Perimeter
G1 F1200
G1 X127.099 Y108.172 E.00608
G1 X123.038 Y108.187 E.12734
G1 X122.765 Y108.117 E.00884
G1 X122.425 Y107.843 E.01367
G1 X122.046 Y107.447 E.0172
G1 X121.675 Y106.913 E.0204
G1 X121.399 Y106.323 E.0204
G1 X121.223 Y105.654 E.0217
G1 X121.166 Y105.069 E.01841
G1 X121.21 Y104.415 E.02057
G1 X121.367 Y103.77 E.02082
G1 X121.64 Y103.151 E.02121
G1 X121.991 Y102.622 E.0199
G1 X122.398 Y102.184 E.01874
G1 X122.95 Y101.759 E.02185
G1 X123.527 Y101.458 E.02041
G1 X124.145 Y101.26 E.02033
G1 X124.762 Y101.173 E.01954
G1 X125.535 Y101.201 E.02424
G1 X126.077 Y101.318 E.01741
G1 X126.718 Y101.572 E.0216
G1 X127.243 Y101.889 E.01923
G1 X127.735 Y102.311 E.02031
G1 X128.15 Y102.811 E.02038
G1 X128.477 Y103.381 E.0206
G1 X128.701 Y103.992 E.02042
G1 X128.818 Y104.635 E.02049
G1 X128.826 Y105.222 E.0184
G1 X128.724 Y105.92 E.02211
G1 X128.515 Y106.536 E.0204
G1 X128.205 Y107.108 E.0204
G1 X127.803 Y107.618 E.02035
G1 X127.324 Y108.053 E.0203
M204 S1000
G1 X127.094 Y107.761 F10800
M204 S800
;TYPE:External perimeter
G1 F1200
G1 X126.968 Y107.81 E.00425
G1 X123.038 Y107.81 E.12321
G1 X122.917 Y107.766 E.00402
G1 X122.318 Y107.186 E.02616
G1 X121.987 Y106.701 E.0184
G1 X121.743 Y106.168 E.0184
G1 X121.589 Y105.563 E.01958
G1 X121.542 Y105.037 E.01653
G1 X121.585 Y104.446 E.0186
G1 X121.733 Y103.864 E.01883
G1 X121.983 Y103.307 E.01913
G1 X122.302 Y102.834 E.0179
G1 X122.671 Y102.444 E.0168
G1 X123.177 Y102.06 E.01993
G1 X123.697 Y101.795 E.0183
G1 X124.255 Y101.621 E.01834
G1 X124.81 Y101.547 E.01754
G1 X125.335 Y101.563 E.01648
G1 X125.455 Y101.57 E.00377
G1 X125.998 Y101.687 E.01741
G1 X126.574 Y101.921 E.0195
G1 X127.045 Y102.209 E.01731
G1 X127.486 Y102.594 E.01835
G1 X127.856 Y103.048 E.01838
G1 X128.148 Y103.565 E.01859
G1 X128.345 Y104.117 E.01841
G1 X128.446 Y104.698 E.01849
G1 X128.448 Y105.222 E.01641
G1 X128.352 Y105.856 E.02012
G1 X128.16 Y106.411 E.0184
G1 X127.876 Y106.924 E.0184
G1 X127.51 Y107.381 E.01835
G1 X127.138 Y107.721 E.01578
M204 S1000
G1 X127.093 Y107.897 F10800
;WIPE_START
G1 F8640
G1 X126.968 Y107.81 E-.04451
G1 X123.046 Y107.81 E-.90549
;WIPE_END
G1 E-.05 F2100
G1 Z.4 F720
G1 X117.03 Y104.536 F10800
G1 Z.2 F720
G1 E1 F2100
M204 S800
;TYPE:Perimeter
G1 F1200
G1 X115.22 Y103.496 E.06544
G1 X114.973 Y103.203 E.01203
G1 X114.944 Y102.919 E.00893
G1 X115.013 Y102.723 E.00652
G1 X118.035 Y97.49 E.18947
G1 X118.17 Y97.332 E.00652
G1 X118.43 Y97.215 E.00893
G1 X118.808 Y97.283 E.01203
G1 X120.577 Y98.304 E.06405
G1 X120.787 Y98.516 E.00936
G1 X120.86 Y98.801 E.0092
G1 X120.784 Y99.077 E.00898
G1 X117.762 Y104.31 E.18947
G1 X117.631 Y104.465 E.00636
G1 X117.371 Y104.584 E.00898
G1 X117.085 Y104.56 E.00901
M204 S1000
;WIPE_START
G1 F8640
G1 X115.22 Y103.496 E-.49559
G1 X114.973 Y103.203 E-.08858
G1 X114.944 Y102.919 E-.06579
G1 X115.013 Y102.723 E-.048
G1 X115.559 Y101.778 E-.25204
;WIPE_END
G1 E-.05 F2100
G1 Z.4 F720
G1 X115.409 Y103.169 F10800
G1 Z.2 F720
G1 E1 F2100
M204 S800
;TYPE:External perimeter
G1 F1200
G1 X115.315 Y103.01 E.00581
G1 X115.34 Y102.912 E.00317
G1 X118.361 Y97.678 E.18947
G1 X118.493 Y97.587 E.00503
G1 X118.619 Y97.609 E.00401
G1 X120.388 Y98.631 E.06405
G1 X120.48 Y98.764 E.00508
G1 X120.457 Y98.888 E.00395
G1 X117.436 Y104.122 E.18947
G1 X117.305 Y104.213 E.00499
G1 X117.178 Y104.191 E.00405
G1 X115.461 Y103.199 E.06217
M204 S1000
G1 X115.227 Y103.204 F10800
;WIPE_START
G1 F8640
G1 X115.315 Y103.01 E-.05528
G1 X115.34 Y102.912 E-.02336
G1 X117.227 Y99.644 E-.87136
;WIPE_END
G1 E-.05 F2100
G1 Z.4 F720
G1 X105.516 Y86 F10800
G1 Z.2 F720
G1 E1 F2100
M204 S800
;TYPE:Perimeter
G1 F1200
G1 X105.775 Y85.781 E.01063
G1 X106.79 Y84.779 E.04473
G1 X109.005 Y82.985 E.08937
G1 X110.092 Y82.279 E.04065
;WIDTH:0.465048
G1 X110.188 Y82.244 E.00359
;WIDTH:0.510096
G1 X110.284 Y82.208 E.00398
;WIDTH:0.555144
G1 X110.38 Y82.173 E.00436
;WIDTH:0.600192
G1 X110.477 Y82.137 E.00474
G1 X111.416 Y81.498 E.05265
;WIDTH:0.550236
G1 X111.772 Y81.294 E.01733
;WIDTH:0.513158
G1 X112.106 Y81.103 E.01502
;WIDTH:0.476079
G1 X112.439 Y80.912 E.01384
;WIDTH:0.439
G1 X112.512 Y80.872 E.00272
;WIDTH:0.433244
G1 X113.212 Y80.496 E.02582
;WIDTH:0.399329
G1 X113.913 Y80.12 E.02357
;WIDTH:0.365413
G1 X113.929 Y80.113 E.00045
;WIDTH:0.408839
G1 X114.242 Y80.017 E.00998
;WIDTH:0.452264
G1 X114.556 Y79.92 E.01117
;WIDTH:0.495689
G1 X114.87 Y79.824 E.01235
G1 X114.604 Y80.016 E.01235
;WIDTH:0.452264
G1 X114.338 Y80.208 E.01117
;WIDTH:0.408839
G1 X114.072 Y80.4 E.00998
;WIDTH:0.399329
G1 X113.387 Y80.806 E.02357
;WIDTH:0.433244
G1 X112.703 Y81.212 E.02582
;WIDTH:0.439
G1 X112.651 Y81.244 E.00203
;WIDTH:0.476079
G1 X112.337 Y81.466 E.01384
;WIDTH:0.513158
G1 X112.024 Y81.688 E.01502
;WIDTH:0.550236
G1 X111.71 Y81.91 E.01621
;WIDTH:0.600192
G1 X110.8 Y82.59 E.05265
G1 X110.744 Y82.664 E.00429
;WIDTH:0.555144
G1 X110.688 Y82.738 E.00394
;WIDTH:0.510096
G1 X110.632 Y82.812 E.00359
;WIDTH:0.465048
G1 X110.576 Y82.885 E.00325
;WIDTH:0.419999
G1 X108.691 Y84.724 E.08259
G1 X106.97 Y86.823 E.08508
;WIDTH:0.450701
G1 X106.725 Y87.165 E.0143
;WIDTH:0.481402
G1 X106.479 Y87.508 E.01538
G1 X106.185 Y87.972 E.02002
;WIDTH:0.458228
G1 X105.588 Y88.888 E.03776
;WIDTH:0.447121
G1 X104.379 Y91.217 E.0882
;WIDTH:0.444528
G1 X104.349 Y91.284 E.00245
;WIDTH:0.449617
G1 X103.402 Y93.743 E.08911
;WIDTH:0.453739
G1 X102.724 Y96.289 E.09
;WIDTH:0.456936
G1 X102.321 Y98.871 E.08996
;WIDTH:0.443776
G1 X102.232 Y99.99 E.03742
;WIDTH:0.441068
G1 X102.258 Y100.73 E.02453
G1 X102.405 Y101.467 E.02486
G1 X102.679 Y102.184 E.02543
G1 X103.041 Y102.811 E.02395
G1 X103.514 Y103.39 E.02475
G1 X104.075 Y103.884 E.02475
G1 X104.708 Y104.281 E.02475
G1 X105.398 Y104.57 E.02475
G1 X106.125 Y104.743 E.02475
;WIDTH:0.444381
G1 X106.865 Y104.799 E.02476
G1 X112.73 Y104.799 E.19579
G1 X113.174 Y104.571 E.01667
;WIDTH:0.419999
G1 X113.289 Y104.308 E.009
G1 X113.592 Y102.354 E.06201
G1 X114.108 Y100.697 E.05441
G1 X114.861 Y99.139 E.05424
G1 X115.827 Y97.719 E.05387
G1 X117.004 Y96.444 E.05442
G1 X118.545 Y95.204 E.06201
G1 X118.716 Y94.973 E.009
;WIDTH:0.444381
G1 X118.691 Y94.474 E.01667
G1 X115.701 Y89.279 E.2001
;WIDTH:0.441072
G1 X115.369 Y88.548 E.02659
G1 X115.158 Y87.763 E.02689
G1 X115.076 Y86.955 E.02689
G1 X115.126 Y86.145 E.02689
G1 X115.307 Y85.353 E.02689
;WIDTH:0.443026
G1 X115.601 Y84.626 E.02609
G1 X116.039 Y83.909 E.02796
;WIDTH:0.441071
G1 X116.571 Y83.295 E.02689
G1 X117.195 Y82.775 E.02689
;WIDTH:0.443779
G1 X117.848 Y82.38 E.02545
G1 X118.802 Y81.938 E.03503
;WIDTH:0.437128
G1 X118.855 Y81.914 E.00191
;WIDTH:0.456931
G1 X119.459 Y81.649 E.02271
G1 X121.269 Y80.986 E.06637
;WIDTH:0.434125
G1 X121.286 Y80.98 E.00059
;WIDTH:0.453704
G1 X121.782 Y80.813 E.01784
G1 X123.851 Y80.285 E.07295
;WIDTH:0.449585
G1 X124.171 Y80.212 E.01111
G1 X126.493 Y79.863 E.07939
;WIDTH:0.44453
G1 X126.607 Y79.849 E.00383
;WIDTH:0.447116
G1 X129.222 Y79.734 E.08798
;WIDTH:0.45953
G1 X130.359 Y79.778 E.03939
;WIDTH:0.462674
G1 X130.418 Y79.778 E.00206
;WIDTH:0.501675
G1 X131.022 Y79.756 E.02308
G1 X131.188 Y79.666 E.00721
;WIDTH:0.460837
G1 X131.354 Y79.576 E.00657
;WIDTH:0.419999
G1 X131.646 Y79.266 E.01335
G1 X131.724 Y78.942 E.01045
G1 X131.698 Y78.621 E.0101
G1 X132.032 Y78.741 E.01111
G1 X133.407 Y79.119 E.04473
G1 X136.068 Y80.141 E.08937
G1 X137.223 Y80.729 E.04064
;WIDTH:0.465047
G1 X137.302 Y80.795 E.00359
;WIDTH:0.510095
G1 X137.381 Y80.86 E.00398
;WIDTH:0.555143
G1 X137.459 Y80.925 E.00436
;WIDTH:0.600191
G1 X137.538 Y80.991 E.00474
G1 X138.561 Y81.484 E.05265
;WIDTH:0.550236
G1 X138.916 Y81.691 E.01733
;WIDTH:0.513158
G1 X139.248 Y81.885 E.01502
;WIDTH:0.476079
G1 X139.58 Y82.078 E.01384
;WIDTH:0.439
G1 X139.651 Y82.121 E.00272
;WIDTH:0.433255
G1 X140.327 Y82.539 E.02582
;WIDTH:0.399226
G1 X141.004 Y82.958 E.02357
;WIDTH:0.365197
G1 X141.017 Y82.968 E.00045
;WIDTH:0.41025
G1 X141.249 Y83.186 E.00973
;WIDTH:0.455303
G1 X141.481 Y83.404 E.01092
;WIDTH:0.500356
G1 X141.714 Y83.622 E.01211
G1 X141.422 Y83.493 E.01211
;WIDTH:0.455303
G1 X141.131 Y83.365 E.01092
;WIDTH:0.41025
G1 X140.84 Y83.236 E.00973
;WIDTH:0.399226
G1 X140.147 Y82.846 E.02357
;WIDTH:0.433255
G1 X139.453 Y82.456 E.02582
;WIDTH:0.439
G1 X139.398 Y82.428 E.00202
;WIDTH:0.476079
G1 X139.049 Y82.267 E.01384
;WIDTH:0.513158
G1 X138.7 Y82.106 E.01502
;WIDTH:0.550236
G1 X138.351 Y81.946 E.01621
;WIDTH:0.600191
G1 X137.307 Y81.498 E.05265
G1 X137.216 Y81.486 E.00429
;WIDTH:0.555143
G1 X137.124 Y81.474 E.00394
;WIDTH:0.510095
G1 X137.032 Y81.463 E.00359
;WIDTH:0.465047
G1 X136.94 Y81.451 E.00325
;WIDTH:0.419999
G1 X134.409 Y80.739 E.08245
G1 X132.197 Y80.362 E.07036
G1 X131.599 Y80.29 E.01886
;WIDTH:0.460837
G1 X131.312 Y80.252 E.01008
;WIDTH:0.501675
G1 X131.024 Y80.214 E.01106
G1 X130.34 Y80.194 E.02613
;WIDTH:0.45953
G1 X129.204 Y80.134 E.03939
;WIDTH:0.447116
G1 X126.626 Y80.25 E.08673
;WIDTH:0.44453
G1 X126.553 Y80.258 E.00246
;WIDTH:0.449585
G1 X123.95 Y80.667 E.0891
;WIDTH:0.453704
G1 X121.406 Y81.352 E.09
;WIDTH:0.456931
G1 X118.968 Y82.294 E.08996
;WIDTH:0.443779
G1 X117.955 Y82.778 E.03742
;WIDTH:0.441067
G1 X117.326 Y83.17 E.02453
G1 X116.765 Y83.663 E.02475
G1 X116.289 Y84.244 E.02486
G1 X115.907 Y84.911 E.02543
G1 X115.652 Y85.587 E.02395
G1 X115.504 Y86.32 E.02475
G1 X115.477 Y87.067 E.02475
G1 X115.571 Y87.809 E.02475
G1 X115.785 Y88.525 E.02475
;WIDTH:0.44438
G1 X116.106 Y89.194 E.02476
G1 X119.039 Y94.273 E.19579
G1 X119.458 Y94.544 E.01667
;WIDTH:0.419999
G1 X119.743 Y94.512 E.009
G1 X121.588 Y93.797 E.06201
G1 X123.275 Y93.417 E.05423
G1 X125 Y93.289 E.05423
G1 X126.725 Y93.417 E.05423
G1 X128.412 Y93.797 E.05423
G1 X130.257 Y94.512 E.06201
G1 X130.542 Y94.544 E.009
;WIDTH:0.44438
G1 X130.961 Y94.273 E.01667
G1 X133.965 Y89.086 E.2001
;WIDTH:0.44107
G1 X134.433 Y88.433 E.02659
G1 X135.006 Y87.858 E.02689
G1 X135.665 Y87.383 E.02689
G1 X136.392 Y87.021 E.02689
G1 X137.169 Y86.782 E.02689
;WIDTH:0.443031
G1 X137.945 Y86.673 E.02609
G1 X138.785 Y86.694 E.02796
;WIDTH:0.441067
G1 X139.583 Y86.848 E.02689
G1 X140.345 Y87.128 E.02689
;WIDTH:0.443778
G1 X141.014 Y87.496 E.02545
G1 X141.873 Y88.101 E.03503
;WIDTH:0.437127
G1 X141.921 Y88.135 E.00191
;WIDTH:0.456931
G1 X142.452 Y88.525 E.02271
G1 X143.932 Y89.762 E.06637
;WIDTH:0.434106
G1 X143.945 Y89.774 E.00059
;WIDTH:0.453711
G1 X144.338 Y90.12 E.01787
G1 X145.829 Y91.648 E.07292
;WIDTH:0.44961
G1 X146.053 Y91.888 E.01111
G1 X147.516 Y93.725 E.07939
;WIDTH:0.444523
G1 X147.585 Y93.816 E.00383
;WIDTH:0.447116
G1 X149.013 Y96.062 E.08944
;WIDTH:0.457709
G1 X149.523 Y97.029 E.03772
;WIDTH:0.458905
G1 X149.538 Y97.057 E.00109
;WIDTH:0.479819
G1 X149.79 Y97.493 E.01831
G1 X149.924 Y97.608 E.00641
;WIDTH:0.452661
G1 X150.059 Y97.723 E.00602
;WIDTH:0.425502
G1 X150.358 Y97.853 E.01039
;WIDTH:0.419999
G1 X150.683 Y97.881 E.01022
G1 X151.034 Y97.756 E.01167
G1 X151.217 Y97.591 E.00775
G1 X151.338 Y98.183 E.01895
G1 X151.616 Y99.333 E.03709
G1 X152.063 Y102.156 E.08961
G1 X152.131 Y103.45 E.04064
;WIDTH:0.465047
G1 X152.113 Y103.551 E.00359
;WIDTH:0.510095
G1 X152.096 Y103.652 E.00398
;WIDTH:0.555143
G1 X152.079 Y103.753 E.00436
;WIDTH:0.60019
G1 X152.062 Y103.854 E.00474
G1 X152.146 Y104.987 E.05265
;WIDTH:0.550235
G1 X152.146 Y105.013 E.00112
G1 X152.144 Y105.398 E.01621
;WIDTH:0.513155
