; generated by PrusaSlicer 2.5.0+win64 on 2023-06-01 at 17:19:37 UTC


;
;
; 

; external perimeters extrusion width = 0.45mm
; perimeters extrusion width = 0.45mm
; infill extrusion width = 0.45mm
; solid infill extrusion width = 0.45mm
; top infill extrusion width = 0.40mm
; first layer extrusion width = 0.42mm

M73 P0 R62
M73 Q0 S63
M201 X1000 Y1000 Z200 E5000 ; sets maximum accelerations, mm/sec^2
M203 X200 Y200 Z12 E120 ; sets maximum feedrates, mm / sec
M204 P1250 R1250 T1250 ; sets acceleration (P, T) and retract acceleration (R), mm/sec^2
M205 X8.00 Y8.00 Z0.40 E4.50 ; sets the jerk limits, mm/sec
M205 S0 T0 ; sets the minimum extruding and travel feed rate, mm/sec
M107
;TYPE:Custom
M862.3 P "MK3S" ; printer model check
M862.1 P0.4 ; nozzle diameter check
M115 U3.11.0 ; tell printer latest fw version
G90 ; use absolute coordinates
M83 ; extruder relative mode
M104 S240 ; set extruder temp
M140 S85 ; set bed temp
M190 S85 ; wait for bed temp
M109 S240 ; wait for extruder temp
G28 W ; home all without mesh bed level
G80 ; mesh bed leveling
G1 Z0.2 F720
G1 Y-3 F1000 ; go outside print area
G92 E0
G1 X60 E9 F1000 ; intro line
G1 X100 E12.5 F1000 ; intro line
G92 E0
M221 S95

; Don't change E values below. Excessive value can damage the printer.

M907 E538 ; set extruder motor current
G21 ; set units to millimeters
G90 ; use absolute coordinates
M83 ; use relative distances for extrusion
M900 K0.08 ; Filament gcode LA 1.5
M900 K45 ; Filament gcode LA 1.0
M107
;LAYER_CHANGE
;Z:0.2
;HEIGHT:0.2
;BEFORE_LAYER_CHANGE
G92 E0.0
;0.2


M73 Q0 S62
G1 E-1 F2100
G1 Z.2 F720
;AFTER_LAYER_CHANGE
;0.2
G1 Z.4
G1 X101.233 Y83.761 F10800
G1 Z.2 F720
G1 E1 F2100
M204 S800
;TYPE:Skirt/Brim
;WIDTH:0.42
G1 F1200
G1 X103.58 Y81.396 E.10446
G1 X106.164 Y79.287 E.10461
G1 X108.955 Y77.459 E.10461
G1 X111.922 Y75.932 E.10461
G1 X115.032 Y74.725 E.10461
G1 X118.251 Y73.849 E.10461
G1 X121.524 Y73.317 E.10397
G1 X125.124 Y73.126 E.11304
G1 X128.455 Y73.314 E.10461
G1 X131.749 Y73.849 E.10461
G1 X134.968 Y74.725 E.10461
G1 X137.851 Y75.831 E.09682
G1 X140.829 Y77.334 E.10461
G1 X143.634 Y79.14 E.10461
G1 X146.235 Y81.23 E.10461
G1 X148.604 Y83.58 E.10461
G1 X150.713 Y86.164 E.10461
G1 X152.541 Y88.955 E.10461
G1 X154.068 Y91.922 E.10461
G1 X155.275 Y95.032 E.10461
G1 X156.151 Y98.251 E.10461
G1 X156.683 Y101.524 E.10397
G1 X156.874 Y105.124 E.11304
G1 X156.686 Y108.455 E.10461
G1 X156.151 Y111.749 E.10461
G1 X155.275 Y114.968 E.10461
G1 X154.169 Y117.851 E.09682
G1 X152.666 Y120.829 E.10461
G1 X150.786 Y123.741 E.10866
G1 X148.767 Y126.239 E.10072
G1 X146.42 Y128.604 E.10446
G1 X143.836 Y130.713 E.10461
G1 X141.045 Y132.541 E.10461
G1 X138.078 Y134.068 E.10461
G1 X134.968 Y135.275 E.10461
G1 X131.749 Y136.151 E.10461
G1 X128.476 Y136.683 E.10397
G1 X124.876 Y136.874 E.11304
G1 X121.545 Y136.686 E.10461
G1 X118.251 Y136.151 E.10461
G1 X115.032 Y135.275 E.10461
G1 X112.149 Y134.169 E.09682
G1 X109.171 Y132.666 E.10461
G1 X106.366 Y130.86 E.10461
G1 X103.765 Y128.77 E.1046
G1 X101.396 Y126.42 E.10461
G1 X99.287 Y123.836 E.10461
G1 X97.459 Y121.045 E.10461
G1 X95.932 Y118.078 E.10461
G1 X94.725 Y114.968 E.10461
G1 X93.849 Y111.749 E.10461
G1 X93.317 Y108.476 E.10397
G1 X93.126 Y104.876 E.11304
G1 X93.314 Y101.545 E.10461
G1 X93.849 Y98.251 E.10461
G1 X94.725 Y95.032 E.10461
G1 X95.831 Y92.149 E.09682
G1 X97.334 Y89.171 E.10461
G1 X99.214 Y86.259 E.10866
G1 X101.195 Y83.808 E.09884
M204 S1000
; printing object Wheel_rev1 id:0 copy 0
;WIPE_START
G1 F8640
G1 X103.58 Y81.396 E-.78304
G1 X104.14 Y80.939 E-.16696
;WIPE_END
G1 E-.05 F2100
G1 Z.4 F720
G1 X103.663 Y85.788 F10800
G1 Z.2 F720
G1 E1 F2100
M204 S800
;TYPE:Perimeter
;WIDTH:0.419999
G1 F1200
G1 X105.788 Y83.663 E.09424
G1 X108.124 Y81.772 E.09423
G1 X110.644 Y80.135 E.09423
G1 X113.051 Y78.908 E.08472
;WIDTH:0.464755
G1 X113.159 Y78.882 E.00387
;WIDTH:0.509511
G1 X113.266 Y78.857 E.00428
;WIDTH:0.554267
G1 X113.373 Y78.831 E.00469
;WIDTH:0.599023
G1 X113.481 Y78.805 E.0051
G1 X113.967 Y78.603 E.02437
;WIDTH:0.569087
G1 X114.453 Y78.4 E.02306
;WIDTH:0.539151
G1 X116.133 Y77.751 E.07429
;WIDTH:0.531843
G1 X117.029 Y77.485 E.03801
;WIDTH:0.483004
G1 X119.026 Y76.948 E.07566
;WIDTH:0.480495
G1 X119.667 Y76.83 E.02373
;WIDTH:0.452725
G1 X121.99 Y76.463 E.08013
G1 X122.335 Y76.436 E.01179
;WIDTH:0.437246
G1 X123.216 Y76.384 E.02895
;WIDTH:0.43925
G1 X125 Y76.288 E.05887
;WIDTH:0.419999
G1 X128.001 Y76.445 E.09423
G1 X130.97 Y76.916 E.09423
G1 X133.872 Y77.693 E.09423
G1 X136.678 Y78.77 E.09423
G1 X139.356 Y80.135 E.09423
G1 X141.624 Y81.608 E.08479
;WIDTH:0.464752
G1 X141.7 Y81.688 E.00387
;WIDTH:0.509505
G1 X141.776 Y81.768 E.00428
;WIDTH:0.554258
G1 X141.852 Y81.848 E.00469
;WIDTH:0.599011
G1 X141.927 Y81.928 E.0051
G1 X142.345 Y82.247 E.02431
;WIDTH:0.569081
G1 X142.763 Y82.566 E.023
;WIDTH:0.53915
G1 X144.165 Y83.697 E.07429
;WIDTH:0.531837
G1 X144.844 Y84.339 E.03801
;WIDTH:0.482997
G1 X146.306 Y85.8 E.07565
;WIDTH:0.480621
G1 X146.737 Y86.305 E.02413
;WIDTH:0.45268
G1 X148.208 Y88.125 E.07975
G1 X148.404 Y88.41 E.01179
;WIDTH:0.437244
G1 X148.89 Y89.147 E.02895
;WIDTH:0.439253
G1 X149.865 Y90.644 E.05887
;WIDTH:0.419999
G1 X151.23 Y93.322 E.09423
G1 X152.307 Y96.128 E.09423
G1 X153.084 Y99.03 E.09423
G1 X153.555 Y101.999 E.09423
G1 X153.711 Y105.025 E.095
G1 X153.571 Y107.696 E.08387
;WIDTH:0.464753
G1 X153.539 Y107.802 E.00387
;WIDTH:0.509507
G1 X153.508 Y107.907 E.00428
;WIDTH:0.554261
G1 X153.477 Y108.013 E.00469
;WIDTH:0.599015
G1 X153.445 Y108.119 E.0051
G1 X153.378 Y108.637 E.02415
;WIDTH:0.569317
G1 X153.311 Y109.155 E.02286
;WIDTH:0.539618
G1 X153.032 Y110.945 E.07485
;WIDTH:0.53197
G1 X152.815 Y111.855 E.03802
;WIDTH:0.482999
G1 X152.281 Y113.852 E.07565
;WIDTH:0.480735
G1 X152.058 Y114.479 E.02423
;WIDTH:0.45268
G1 X151.218 Y116.661 E.07967
G1 X151.069 Y116.974 E.01179
;WIDTH:0.437245
G1 X150.674 Y117.763 E.02895
;WIDTH:0.43925
G1 X149.855 Y119.367 E.05933
;WIDTH:0.42498
G1 X149.319 Y120.196 E.03138
;WIDTH:0.419999
G1 X148.226 Y121.881 E.06297
G1 X146.337 Y124.212 E.09407
G1 X144.212 Y126.337 E.09424
G1 X141.876 Y128.228 E.09423
G1 X139.356 Y129.865 E.09423
G1 X136.946 Y131.093 E.08479
;WIDTH:0.464753
G1 X136.839 Y131.119 E.00387
;WIDTH:0.509507
G1 X136.732 Y131.144 E.00428
;WIDTH:0.554261
G1 X136.624 Y131.17 E.00469
;WIDTH:0.599014
G1 X136.517 Y131.195 E.0051
G1 X136.032 Y131.398 E.02431
;WIDTH:0.569082
G1 X135.547 Y131.6 E.023
;WIDTH:0.539149
G1 X133.867 Y132.249 E.07429
;WIDTH:0.531844
G1 X132.971 Y132.516 E.03801
;WIDTH:0.483004
G1 X130.974 Y133.052 E.07566
;WIDTH:0.48062
G1 X130.322 Y133.172 E.02413
;WIDTH:0.45268
G1 X128.01 Y133.537 E.07975
G1 X127.665 Y133.564 E.01179
;WIDTH:0.437245
G1 X126.784 Y133.616 E.02895
;WIDTH:0.439251
G1 X125 Y133.712 E.05887
;WIDTH:0.419999
G1 X121.999 Y133.555 E.09423
G1 X119.03 Y133.084 E.09423
G1 X116.128 Y132.307 E.09423
G1 X113.322 Y131.23 E.09423
G1 X110.644 Y129.865 E.09423
G1 X108.376 Y128.392 E.08479
;WIDTH:0.464753
G1 X108.3 Y128.312 E.00387
;WIDTH:0.509506
G1 X108.224 Y128.232 E.00428
;WIDTH:0.554259
G1 X108.148 Y128.152 E.00469
;WIDTH:0.599012
G1 X108.073 Y128.072 E.0051
G1 X107.655 Y127.753 E.02431
;WIDTH:0.569082
G1 X107.237 Y127.434 E.023
;WIDTH:0.539152
G1 X105.835 Y126.304 E.07429
;WIDTH:0.53184
G1 X105.156 Y125.661 E.03801
;WIDTH:0.482997
G1 X103.694 Y124.2 E.07565
;WIDTH:0.480623
G1 X103.263 Y123.695 E.02413
;WIDTH:0.452683
G1 X101.792 Y121.875 E.07975
G1 X101.596 Y121.59 E.01179
;WIDTH:0.437245
G1 X101.11 Y120.853 E.02895
;WIDTH:0.439247
G1 X100.135 Y119.356 E.05887
;WIDTH:0.419999
G1 X98.77 Y116.678 E.09423
G1 X97.693 Y113.872 E.09423
G1 X96.916 Y110.97 E.09423
G1 X96.445 Y108.001 E.09423
G1 X96.288 Y105 E.09423
G1 X96.43 Y102.302 E.08472
;WIDTH:0.464755
G1 X96.461 Y102.196 E.00387
;WIDTH:0.509511
G1 X96.492 Y102.09 E.00428
;WIDTH:0.554267
G1 X96.524 Y101.985 E.00469
;WIDTH:0.599023
G1 X96.555 Y101.879 E.0051
G1 X96.623 Y101.356 E.02437
;WIDTH:0.569089
G1 X96.69 Y100.833 E.02306
;WIDTH:0.539154
G1 X96.968 Y99.055 E.07428
;WIDTH:0.531942
G1 X97.186 Y98.143 E.03812
;WIDTH:0.482997
G1 X97.719 Y96.148 E.07556
;WIDTH:0.48046
G1 X97.936 Y95.536 E.02361
;WIDTH:0.452718
G1 X98.782 Y93.339 E.08024
G1 X98.93 Y93.028 E.01172
;WIDTH:0.437322
G1 X99.326 Y92.237 E.02903
;WIDTH:0.439244
G1 X100.135 Y90.644 E.05886
;WIDTH:0.419999
G1 X101.774 Y88.119 E.09439
G1 X103.625 Y85.835 E.09218
M204 S1000
G1 X103.382 Y85.536 F10800
M204 S800
;TYPE:External perimeter
G1 F1200
G1 X105.535 Y83.382 E.09548
G1 X107.902 Y81.466 E.09547
G1 X110.455 Y79.808 E.09547
G1 X113.168 Y78.425 E.09547
G1 X116.011 Y77.334 E.09547
G1 X118.952 Y76.546 E.09547
G1 X121.959 Y76.07 E.09547
G1 X125 Y75.911 E.09547
G1 X128.041 Y76.07 E.09547
G1 X131.048 Y76.546 E.09547
G1 X133.989 Y77.334 E.09547
G1 X136.832 Y78.425 E.09547
G1 X139.545 Y79.808 E.09547
G1 X142.098 Y81.466 E.09547
G1 X144.465 Y83.382 E.09547
G1 X146.618 Y85.535 E.09547
G1 X148.534 Y87.902 E.09547
G1 X150.192 Y90.455 E.09547
G1 X151.575 Y93.168 E.09547
G1 X152.666 Y96.011 E.09547
G1 X153.454 Y98.952 E.09547
G1 X153.93 Y101.959 E.09547
G1 X154.087 Y104.956 E.09408
G1 X153.93 Y108.041 E.09685
G1 X153.454 Y111.048 E.09547
G1 X152.666 Y113.989 E.09547
G1 X151.575 Y116.832 E.09547
G1 X150.192 Y119.545 E.09547
G1 X148.531 Y122.103 E.09563
G1 X146.618 Y124.464 E.0953
G1 X144.465 Y126.618 E.09548
G1 X142.098 Y128.534 E.09547
G1 X139.545 Y130.192 E.09547
G1 X136.832 Y131.575 E.09547
G1 X133.989 Y132.666 E.09547
G1 X131.048 Y133.454 E.09547
G1 X128.041 Y133.93 E.09547
G1 X125 Y134.089 E.09547
G1 X121.959 Y133.93 E.09547
G1 X118.952 Y133.454 E.09547
G1 X116.011 Y132.666 E.09547
G1 X113.168 Y131.575 E.09547
G1 X110.455 Y130.192 E.09547
G1 X107.902 Y128.534 E.09547
G1 X105.535 Y126.618 E.09547
G1 X103.382 Y124.465 E.09547
G1 X101.466 Y122.098 E.09547
G1 X99.808 Y119.545 E.09547
G1 X98.425 Y116.832 E.09547
G1 X97.334 Y113.989 E.09547
G1 X96.546 Y111.048 E.09547
G1 X96.07 Y108.041 E.09547
G1 X95.911 Y105 E.09547
G1 X96.07 Y101.959 E.09547
G1 X96.546 Y98.952 E.09547
G1 X97.334 Y96.011 E.09547
G1 X98.425 Y93.168 E.09547
G1 X99.808 Y90.455 E.09547
G1 X101.469 Y87.897 E.09563
G1 X103.344 Y85.582 E.09342
M204 S1000
G1 X103.773 Y85.619 F10800
;WIPE_START
G1 F8640
G1 X105.535 Y83.382 E-.71689
G1 X106.32 Y82.747 E-.23311
;WIPE_END
G1 E-.05 F2100
G1 Z.4 F720
G1 X124.818 Y132.169 F10800
G1 Z.2 F720
G1 E1 F2100
M204 S800
;TYPE:Perimeter
G1 F1200
G1 X124.867 Y131.93 E.00765
;WIDTH:0.447681
G1 X125.203 Y131.649 E.01472
G1 X125.565 Y131.59 E.01235
;WIDTH:0.461506
G1 X127.007 Y131.322 E.05106
G1 X128.139 Y131.025 E.04073
;WIDTH:0.426547
G1 X128.22 Y131.002 E.00268
;WIDTH:0.461571
G1 X129.581 Y130.604 E.04936
G1 X130.725 Y130.166 E.04266
;WIDTH:0.42643
G1 X130.803 Y130.135 E.00268
;WIDTH:0.461777
G1 X132.061 Y129.612 E.04742
G1 X133.2 Y129.038 E.04442
;WIDTH:0.443754
G1 X133.997 Y128.618 E.03003
G1 X134.503 Y128.263 E.02061
;WIDTH:0.446219
G1 X134.895 Y127.925 E.01735
G1 X135.347 Y127.383 E.02365
;WIDTH:0.445
G1 X135.711 Y126.756 E.02426
;WIDTH:0.44319
G1 X135.942 Y126.134 E.02209
;WIDTH:0.440733
G1 X136.072 Y125.485 E.02187
;WIDTH:0.438745
G1 X136.098 Y124.825 E.02175
;WIDTH:0.437248
G1 X136.022 Y124.169 E.02166
;WIDTH:0.43625
G1 X135.844 Y123.533 E.02159
;WIDTH:0.443379
G1 X135.586 Y122.943 E.02145
;WIDTH:0.444382
G1 X131.559 Y115.96 E.26908
G1 X131.515 Y115.52 E.01475
;WIDTH:0.419999
M73 P1 R62
M73 Q1 S62
G1 X131.668 Y115.263 E.0094
G1 X133.319 Y113.939 E.06634
G1 X134.552 Y112.606 E.05694
G1 X135.575 Y111.105 E.05694
G1 X136.363 Y109.469 E.05694
G1 X136.901 Y107.735 E.05694
G1 X137.212 Y105.693 E.06475
G1 X137.313 Y105.447 E.00834
G1 X137.45 Y105.313 E.006
;WIDTH:0.444381
G1 X137.771 Y105.201 E.01138
G1 X145.729 Y105.201 E.26565
G1 X146.302 Y105.245 E.01918
;WIDTH:0.438632
G1 X146.883 Y105.377 E.0196
;WIDTH:0.444914
G1 X147.377 Y105.57 E.01776
G1 X147.947 Y105.9 E.02201
;WIDTH:0.443193
G1 X148.406 Y106.284 E.0199
;WIDTH:0.440735
G1 X148.797 Y106.733 E.01971
;WIDTH:0.438747
G1 X149.114 Y107.238 E.01961
;WIDTH:0.43725
G1 X149.348 Y107.786 E.01953
;WIDTH:0.436356
G1 X149.493 Y108.363 E.01948
;WIDTH:0.443304
G1 X149.55 Y108.949 E.0196
G1 X149.531 Y109.85 E.02998
;WIDTH:0.432778
G1 X149.529 Y109.891 E.00135
;WIDTH:0.461781
G1 X149.429 Y111.142 E.04371
G1 X149.288 Y112.497 E.04743
;WIDTH:0.42643
G1 X149.279 Y112.559 E.002
;WIDTH:0.461572
G1 X149.056 Y113.741 E.04187
G1 X148.755 Y115.126 E.04936
;WIDTH:0.426548
G1 X148.739 Y115.187 E.002
;WIDTH:0.461508
G1 X148.403 Y116.287 E.04002
G1 X147.94 Y117.679 E.05106
;WIDTH:0.43395
G1 X147.512 Y118.622 E.03367
;WIDTH:0.419999
G1 X146.843 Y120.112 E.05121
G1 X145.472 Y122.445 E.08485
G1 X143.827 Y124.639 E.086
G1 X142.031 Y126.551 E.08225
G1 X140.017 Y128.274 E.08309
G1 X137.783 Y129.796 E.08475
G1 X136.6 Y130.424 E.04201
;WIDTH:0.464753
G1 X136.522 Y130.491 E.00359
;WIDTH:0.509507
G1 X136.444 Y130.557 E.00397
;WIDTH:0.554261
G1 X136.366 Y130.624 E.00435
;WIDTH:0.599014
G1 X136.288 Y130.69 E.00474
G1 X135.859 Y130.9 E.02207
;WIDTH:0.570621
G1 X135.431 Y131.11 E.02095
;WIDTH:0.542228
G1 X135.367 Y131.138 E.00288
;WIDTH:0.539149
G1 X133.69 Y131.793 E.07429
;WIDTH:0.531844
G1 X132.92 Y132.071 E.03329
;WIDTH:0.48561
G1 X132.857 Y132.091 E.00243
;WIDTH:0.483004
G1 X130.861 Y132.629 E.07566
;WIDTH:0.48062
G1 X130.322 Y132.759 E.02015
;WIDTH:0.45098
G1 X130.26 Y132.771 E.00217
;WIDTH:0.45268
G1 X127.947 Y133.132 E.07975
G1 X126.796 Y133.233 E.03935
;WIDTH:0.425096
G1 X126.768 Y133.234 E.0009
;WIDTH:0.439251
G1 X125.43 Y133.283 E.04413
G1 X125.134 Y133.201 E.01011
;WIDTH:0.419999
G1 X124.849 Y132.766 E.0163
G1 X124.805 Y132.227 E.01694
M204 S1000
G1 X125.173 Y132.226 F10800
M204 S800
;TYPE:External perimeter
G1 F1200
G1 X125.196 Y132.115 E.00358
G1 X125.327 Y132.021 E.00506
G1 X127.106 Y131.708 E.05661
G1 X129.72 Y130.978 E.0851
G1 X132.237 Y129.971 E.085
G1 X134.204 Y128.949 E.0695
G1 X134.753 Y128.557 E.02116
M73 P1 R61
G1 X135.173 Y128.201 E.01728
G1 X135.679 Y127.593 E.02478
G1 X136.074 Y126.905 E.02487
G1 X136.344 Y126.161 E.02483
G1 X136.483 Y125.381 E.02483
G1 X136.485 Y124.589 E.02483
G1 X136.351 Y123.808 E.02483
G1 X136.082 Y123.055 E.02509
G1 X135.876 Y122.657 E.01405
G1 X131.897 Y115.765 E.24951
G1 X131.903 Y115.566 E.00625
G1 X133.576 Y114.216 E.06741
G1 X134.848 Y112.842 E.05871
G1 X135.902 Y111.294 E.05871
G1 X136.715 Y109.608 E.0587
G1 X137.269 Y107.819 E.05871
G1 X137.585 Y105.75 E.06563
G1 X137.664 Y105.623 E.00468
G1 X137.771 Y105.59 E.00352
G1 X145.761 Y105.59 E.25053
G1 X146.272 Y105.63 E.01605
G1 X146.793 Y105.752 E.01678
G1 X147.288 Y105.955 E.01678
G1 X147.744 Y106.232 E.01673
G1 X148.154 Y106.579 E.01684
G1 X148.503 Y106.984 E.01678
G1 X148.785 Y107.439 E.01678
G1 X148.992 Y107.933 E.01678
G1 X149.119 Y108.453 E.01678
G1 X149.162 Y108.98 E.01657
G1 X149.147 Y109.857 E.0275
G1 X148.91 Y112.462 E.08203
G1 X148.383 Y115.05 E.08282
G1 X147.574 Y117.561 E.08269
G1 X146.499 Y119.957 E.08235
G1 X145.148 Y122.254 E.08355
G1 X143.552 Y124.381 E.08339
G1 X141.741 Y126.307 E.0829
G1 X139.756 Y128 E.08179
G1 X137.553 Y129.495 E.08346
G1 X135.207 Y130.731 E.08315
G1 X132.75 Y131.696 E.08277
G1 X130.2 Y132.385 E.08283
G1 X127.621 Y132.784 E.08181
G1 X126.756 Y132.855 E.02722
G1 X125.418 Y132.896 E.04199
G1 X125.319 Y132.872 E.00318
G1 X125.224 Y132.727 E.00543
G1 X125.179 Y132.286 E.01391
M204 S1000
G1 X125.077 Y132.163 F10800
;WIPE_START
G1 F8640
G1 X125.196 Y132.115 E-.03978
G1 X125.327 Y132.021 E-.03726
G1 X127.106 Y131.708 E-.41688
G1 X129.008 Y131.177 E-.45609
;WIPE_END
G1 E-.05 F2100
G1 Z.4 F720
G1 X119.284 Y115.904 F10800
G1 Z.2 F720
G1 E1 F2100
M204 S800
;TYPE:Perimeter
G1 F1200
G1 X119.446 Y115.906 E.00508
G1 X121.418 Y116.674 E.06634
G1 X123.189 Y117.076 E.05694
G1 X125 Y117.211 E.05694
G1 X126.811 Y117.076 E.05694
G1 X128.582 Y116.674 E.05694
G1 X130.506 Y115.923 E.06475
G1 X130.674 Y115.885 E.00541
G1 X130.854 Y115.902 E.00565
;WIDTH:0.44438
G1 X131.212 Y116.161 E.01475
G1 X135.191 Y123.052 E.26565
G1 X135.439 Y123.571 E.01918
;WIDTH:0.438633
G1 X135.615 Y124.139 E.0196
;WIDTH:0.44491
G1 X135.695 Y124.665 E.01776
G1 X135.694 Y125.323 E.02201
;WIDTH:0.443188
